; generated by Slic3r 1.2.9 on 2019-08-07 at 22:21:34

; external perimeters extrusion width = 0.40mm
; perimeters extrusion width = 0.67mm
; infill extrusion width = 0.67mm
; solid infill extrusion width = 0.67mm
; top infill extrusion width = 0.67mm

M107
M83 ; use relative distances for extrusion
G28 ; home axes
M201 X900 Y900 ; Set max acceleration in X and Y [mm/s^2] ; MM
M204 S900 P500 ; Set actual acceleration S..Travel P..Print ; MM
M203 Z20 E200 ; Set max feedrate
M205 X8 Y8 ; Set xy max jerk [mm/s] starting from that speed it uses
acceleration ; MM
M84 S0 ; Disable Stepper Timeout
G0 Z6 F4000
M104 S160 ;
M140 S55;
G1 X10 Y10 F9000 ; go to front of bed
G1 X100 Y10 F9000 ; go to front of bed
G1 Z0.10 ; use the bed to block the nozzle to prevent ooze
M190 S55;
M109 S210;
G92 E0    ; zero the extruder
G1 X80 E24 F500 ; make a blob/line (2cm)
G1 X10 F4000 ; wipe along the edge of the bed
G1 Y15 F4000 ; wipe along the edge of the bed
G1 X180 F4000 ; wipe along the edge of the bed
G1 Z0.5     ; lift before move to center
M82 ;
G21 ; set units to millimeters
G90 ; use absolute coordinates
M82 ; use absolute distances for extrusion
G92 E0
G1 E-2.00000 F1800.00000
G92 E0
G1 Z0.240 F3600.000
M117 Printing layer 0
G1 X93.320 Y85.698 F3600.000
G1 E2.00000 F1800.00000
G1 X95.400 Y85.029 E2.11530 F1200.000
G1 X124.600 Y85.029 E3.65611
G1 X126.231 Y85.424 E3.74467 F1200.000
G1 X127.502 Y86.520 E3.83323
G1 X128.171 Y88.600 E3.94853
G1 X128.171 Y130.500 E6.15948
G1 X128.137 Y131.046 E6.18837
G1 X128.072 Y131.430 E6.20889
G1 X127.975 Y131.806 E6.22940
G1 X127.845 Y132.173 E6.24993
G1 X127.683 Y132.530 E6.27062
G1 X127.490 Y132.869 E6.29121
G1 X127.270 Y133.190 E6.31173
G1 X126.970 Y133.547 E6.33635
G1 X126.690 Y133.823 E6.35713
G1 X126.452 Y134.022 E6.37347
G1 X126.136 Y134.248 E6.39395
G1 X125.799 Y134.446 E6.41459
G1 X125.446 Y134.615 E6.43526
G1 X125.081 Y134.752 E6.45583
G1 X124.630 Y134.872 E6.48046
G1 X124.246 Y134.937 E6.50097
G1 X123.855 Y134.967 E6.52169
G1 X96.067 Y134.964 E7.98800
G1 X95.675 Y134.926 E8.00875
G1 X95.294 Y134.855 E8.02922
G1 X94.994 Y134.775 E8.04562
G1 X94.555 Y134.615 E8.07026
G1 X94.269 Y134.482 E8.08692
G1 X93.938 Y134.295 E8.10696
G1 X93.610 Y134.070 E8.12796
G1 X93.252 Y133.770 E8.15258
G1 X93.031 Y133.548 E8.16913
G1 X92.778 Y133.252 E8.18968
G1 X92.509 Y132.869 E8.21439
G1 X92.353 Y132.598 E8.23089
G1 X92.186 Y132.247 E8.25138
G1 X92.025 Y131.807 E8.27611
G1 X91.928 Y131.430 E8.29668
G1 X91.873 Y131.122 E8.31315
G1 X91.829 Y130.500 E8.34607
G1 X91.829 Y88.600 E10.55702
G1 X92.224 Y86.969 E10.64558
G1 X93.280 Y85.743 E10.73097
G1 X93.727 Y86.093 F3600.000
G1 X93.825 Y85.991 E10.73843 F1200.000
G1 X95.400 Y85.553 E10.82470
G1 X124.600 Y85.553 E12.36551
G1 X126.098 Y85.946 E12.44722 F1200.000
G1 X127.209 Y87.025 E12.52893
G1 X127.647 Y88.600 E12.61520
G1 X127.647 Y130.500 E14.82615
G1 X127.618 Y130.978 E14.85141
G1 X127.561 Y131.317 E14.86953
G1 X127.476 Y131.649 E14.88763
G1 X127.361 Y131.973 E14.90576
G1 X127.218 Y132.288 E14.92403
G1 X127.049 Y132.588 E14.94221
G1 X126.855 Y132.871 E14.96032
G1 X126.584 Y133.194 E14.98255
G1 X126.336 Y133.437 E15.00088
G1 X125.855 Y133.806 E15.03290
G1 X125.557 Y133.982 E15.05112
G1 X125.246 Y134.131 E15.06936
G1 X124.923 Y134.252 E15.08753
G1 X124.516 Y134.361 E15.10975
G1 X124.178 Y134.418 E15.12786
G1 X123.700 Y134.447 E15.15312
G1 X96.089 Y134.441 E16.61006
G1 X95.744 Y134.407 E16.62837
G1 X95.151 Y134.276 E16.66042
G1 X94.755 Y134.132 E16.68266
G1 X94.218 Y133.853 E16.71456
G1 X93.929 Y133.655 E16.73309
G1 X93.606 Y133.384 E16.75532
G1 X93.193 Y132.934 E16.78756
G1 X92.951 Y132.587 E16.80986
G1 X92.669 Y132.047 E16.84201
G1 X92.525 Y131.649 E16.86433
G1 X92.393 Y131.054 E16.89652
G1 X92.353 Y130.500 E16.92582
G1 X92.353 Y88.600 E19.13677
G1 X92.746 Y87.102 E19.21848
G1 X93.685 Y86.136 E19.28957
G1 X94.099 Y86.515 F3600.000
G1 X94.323 Y86.318 E19.30530 F1200.000
G1 X95.400 Y86.076 E19.36354
G1 X124.600 Y86.076 E20.90435
G1 X125.951 Y86.468 E20.97858 F1200.000
G1 X126.882 Y87.523 E21.05281
G1 X127.124 Y88.600 E21.11106
G1 X127.124 Y130.500 E23.32201
G1 X127.098 Y130.909 E23.34364
G1 X127.050 Y131.203 E23.35936
G1 X126.976 Y131.491 E23.37506
G1 X126.878 Y131.773 E23.39079
G1 X126.754 Y132.046 E23.40662
G1 X126.607 Y132.307 E23.42239
G1 X126.439 Y132.552 E23.43810
G1 X126.198 Y132.840 E23.45794
G1 X125.982 Y133.051 E23.47383
G1 X125.573 Y133.365 E23.50106
G1 X125.316 Y133.518 E23.51686
G1 X125.045 Y133.647 E23.53268
G1 X124.766 Y133.753 E23.54843
G1 X124.403 Y133.850 E23.56826
G1 X124.109 Y133.898 E23.58397
G1 X123.700 Y133.924 E23.60560
G1 X96.112 Y133.918 E25.06134
G1 X95.813 Y133.888 E25.07722
G1 X95.309 Y133.776 E25.10447
G1 X94.955 Y133.648 E25.12432
G1 X94.499 Y133.411 E25.15145
G1 X94.247 Y133.239 E25.16750
G1 X93.959 Y132.998 E25.18733
G1 X93.608 Y132.615 E25.21475
G1 X93.392 Y132.306 E25.23464
G1 X93.153 Y131.846 E25.26198
G1 X93.024 Y131.492 E25.28188
G1 X92.912 Y130.986 E25.30925
G1 X92.876 Y130.500 E25.33494
G1 X92.876 Y88.600 E27.54589
G1 X93.268 Y87.249 E27.62012
G1 X94.054 Y86.555 E27.67546
G1 E25.67546 F1800.00000
G92 E0
G1 X122.141 Y90.440 F3600.000
G1 E2.00000 F1800.00000
G1 X97.859 Y90.440 E3.28135 F1200.000
G1 X97.230 Y130.239 E5.38165
G1 X96.560 Y130.237 E5.41703
G1 X96.560 Y89.760 E7.55294
G1 X123.440 Y89.760 E8.97137
G1 X123.440 Y130.237 E11.10725
G1 X122.770 Y130.237 E11.14263
G1 X122.142 Y90.500 E13.23968
G1 X121.626 Y90.964 F3600.000
G1 X98.374 Y90.964 E14.46664 F1200.000
G1 X97.755 Y130.182 E16.53633
G1 X98.431 Y130.241 E16.57218
G1 X98.509 Y130.266 E16.57648
G1 X98.578 Y130.310 E16.58078
G1 X98.627 Y130.369 E16.58484
G1 X98.662 Y130.500 E16.59199
G1 X98.626 Y130.631 E16.59915
G1 X98.568 Y130.700 E16.60394
G1 X98.489 Y130.746 E16.60873
G1 X98.373 Y130.764 E16.61497
G1 X96.292 Y130.761 E16.72477
G1 X96.131 Y130.701 E16.73381
G1 X96.050 Y130.567 E16.74208
G1 X96.036 Y130.458 E16.74785
G1 X96.036 Y89.236 E18.92304
G1 X123.964 Y89.236 E20.39673
G1 X123.964 Y130.472 E22.57265
G1 X123.949 Y130.576 E22.57817
G1 X123.901 Y130.669 E22.58370
G1 X123.811 Y130.738 E22.58969
G1 X123.709 Y130.761 E22.59521
G1 X121.577 Y130.761 E22.70768
G1 X121.489 Y130.737 E22.71248
G1 X121.415 Y130.685 E22.71727
G1 X121.363 Y130.610 E22.72207
G1 X121.339 Y130.523 E22.72687
G1 X121.362 Y130.389 E22.73402
G1 X121.478 Y130.270 E22.74277
G1 X121.568 Y130.241 E22.74780
G1 X122.245 Y130.182 E22.78365
G1 X121.627 Y91.024 E24.85017
G1 X121.197 Y91.400 F3600.000
G1 X98.803 Y91.400 E25.63666 F1200.000
G1 X98.197 Y129.783 E26.98487
G1 X98.517 Y129.811 E26.99615
G1 X98.695 Y129.867 E27.00270
G1 X98.853 Y129.968 E27.00926
G1 X99.006 Y130.150 E27.01764
G1 X99.055 Y130.257 E27.02176
G1 X99.097 Y130.443 E27.02846
G1 X99.097 Y130.557 E27.03244
G1 X99.055 Y130.743 E27.03916
G1 X98.936 Y130.949 E27.04753
G1 X98.750 Y131.106 E27.05606
G1 X98.521 Y131.189 E27.06459
G1 X96.244 Y131.197 E27.14459
G1 X96.061 Y131.156 E27.15115
G1 X95.896 Y131.070 E27.15771
G1 X95.809 Y130.997 E27.16168
G1 X95.695 Y130.849 E27.16824
G1 X95.626 Y130.681 E27.17464
G1 X95.600 Y130.487 E27.18151
G1 X95.600 Y88.800 E28.64558
G1 X124.400 Y88.800 E29.65706
G1 X124.400 Y130.491 E31.12129
G1 X124.358 Y130.735 E31.12997
G1 X124.270 Y130.904 E31.13668
G1 X124.197 Y130.991 E31.14065
G1 X124.046 Y131.107 E31.14736
G1 X123.943 Y131.155 E31.15135
G1 X123.756 Y131.197 E31.15805
G1 X121.539 Y131.197 E31.23593
G1 X121.304 Y131.134 E31.24446
G1 X121.106 Y130.994 E31.25299
G1 X120.966 Y130.795 E31.26152
G1 X120.903 Y130.561 E31.27005
G1 X120.903 Y130.443 E31.27417
G1 X120.945 Y130.257 E31.28088
G1 X120.993 Y130.154 E31.28486
G1 X121.109 Y130.003 E31.29157
G1 X121.301 Y129.868 E31.29980
G1 X121.483 Y129.811 E31.30650
G1 X121.803 Y129.783 E31.31778
G1 X121.198 Y91.460 E32.66388
G1 X121.195 Y91.000 F3600.000
G1 X122.213 Y90.100 F3600.000
G1 X97.787 Y90.100 E33.95279 F1200.000
G1 X97.212 Y90.021 F3600.000
G1 X96.993 Y117.856 E37.03490 F1200.000
G1 X96.993 Y117.856 F3600.000
G1 X96.897 Y129.976 E37.67446 F1200.000
G1 E35.67446 F1800.00000
G92 E0
G1 X123.103 Y129.975 F3600.000
G1 E2.00000 F1800.00000
G1 X123.007 Y117.856 E2.63949 F1200.000
G1 X123.007 Y117.856 F3600.000
G1 X122.788 Y90.021 E5.72162 F1200.000
M104 S205 ; set temperature
G1 E3.72162 F1800.00000
G92 E0
G1 Z0.440 F3600.000
M117 Printing layer 1
G1 X97.705 Y89.921 F3600.000
G1 E2.00000 F1800.00000
G1 X97.095 Y128.573 E4.03983 F2400.000
G1 X96.721 Y128.570 E4.05957
G1 X96.721 Y89.921 E6.09899
G1 X97.645 Y89.921 E6.14776
G1 E4.14776 F1800.00000
G92 E0
G1 X122.295 Y89.921 F3600.000
G1 E2.00000 F1800.00000
G1 X123.279 Y89.921 E2.05194 F2400.000
G1 X123.279 Y128.570 E4.09135
G1 X122.905 Y128.573 E4.11109
G1 X122.296 Y89.981 E6.14774
G1 X121.682 Y90.907 F3600.000
G1 X98.318 Y90.907 E7.38058 F2400.000
G1 X97.697 Y130.233 E9.45597
G1 X98.421 Y130.297 E9.49430
G1 X98.502 Y130.323 E9.49881
G1 X98.581 Y130.395 E9.50446
G1 X98.604 Y130.500 E9.51012
G1 X98.577 Y130.625 E9.51688
G1 X98.470 Y130.692 E9.52353
G1 X98.370 Y130.707 E9.52886
G1 X96.298 Y130.704 E9.63820
G1 X96.169 Y130.657 E9.64548
G1 X96.106 Y130.552 E9.65192
G1 X96.093 Y130.455 E9.65711
G1 X96.093 Y89.293 E11.82911
G1 X123.907 Y89.293 E13.29681
G1 X123.907 Y130.470 E15.46961
G1 X123.901 Y130.547 E15.47371
G1 X123.857 Y130.631 E15.47873
G1 X123.786 Y130.685 E15.48341
G1 X123.703 Y130.704 E15.48793
G1 X121.582 Y130.704 E15.59981
G1 X121.455 Y130.645 E15.60721
G1 X121.387 Y130.539 E15.61386
G1 X121.415 Y130.414 E15.62062
G1 X121.480 Y130.329 E15.62628
G1 X121.580 Y130.297 E15.63179
G1 X122.303 Y130.234 E15.67010
G1 X121.683 Y90.967 E17.74234
G1 X121.197 Y91.400 F3600.000
G1 X98.803 Y91.400 E18.41389 F1200.000
G1 X98.197 Y129.783 E19.56507
G1 X98.518 Y129.811 E19.57472
G1 X98.699 Y129.868 E19.58043
G1 X98.798 Y129.926 E19.58385
G1 X98.938 Y130.054 E19.58953
G1 X99.006 Y130.150 E19.59308
G1 X99.055 Y130.257 E19.59660
G1 X99.097 Y130.443 E19.60233
G1 X99.097 Y130.556 E19.60572
G1 X99.055 Y130.743 E19.61146
G1 X98.936 Y130.949 E19.61861
G1 X98.750 Y131.106 E19.62589
G1 X98.521 Y131.189 E19.63317
G1 X96.244 Y131.197 E19.70148
G1 X96.061 Y131.156 E19.70708
G1 X95.896 Y131.070 E19.71268
G1 X95.809 Y130.997 E19.71607
G1 X95.695 Y130.849 E19.72167
G1 X95.626 Y130.681 E19.72714
G1 X95.600 Y130.487 E19.73300
G1 X95.600 Y88.800 E20.98312
G1 X124.400 Y88.800 E21.84678
G1 X124.400 Y130.491 E23.09702
G1 X124.358 Y130.735 E23.10443
G1 X124.270 Y130.904 E23.11017
G1 X124.197 Y130.991 E23.11356
G1 X124.046 Y131.107 E23.11929
G1 X123.942 Y131.155 E23.12270
G1 X123.757 Y131.197 E23.12841
G1 X121.539 Y131.197 E23.19491
G1 X121.304 Y131.134 E23.20219
G1 X121.106 Y130.994 E23.20947
G1 X120.966 Y130.795 E23.21676
G1 X120.903 Y130.561 E23.22404
G1 X120.903 Y130.443 E23.22756
G1 X120.945 Y130.257 E23.23329
G1 X120.993 Y130.154 E23.23669
G1 X121.109 Y130.003 E23.24242
G1 X121.301 Y129.868 E23.24944
G1 X121.483 Y129.811 E23.25517
G1 X121.803 Y129.783 E23.26480
G1 X121.198 Y91.460 E24.41418
G1 X121.195 Y91.000 F3600.000
G1 X121.983 Y90.100 F3600.000
G1 X98.017 Y90.100 E27.02987 F1200.000
G1 X97.211 Y90.235 F3600.000
G1 X97.055 Y109.934 E28.06934 F1200.000
G1 E26.06934 F1800.00000
G92 E0
G1 X96.906 Y128.886 F3600.000
G1 E2.00000 F1800.00000
G1 X96.894 Y130.391 E2.16424 F1200.000
G1 E0.16424 F1800.00000
G92 E0
G1 X123.106 Y130.390 F3600.000
G1 E2.00000 F1800.00000
G1 X123.094 Y128.886 E2.16415 F1200.000
G1 E0.16415 F1800.00000
G92 E0
G1 X122.945 Y109.934 F3600.000
G1 E2.00000 F1800.00000
G1 X122.789 Y90.235 E3.03948 F1200.000
G1 E1.03948 F1800.00000
G92 E0
G1 Z0.640 F3600.000
M117 Printing layer 2
G1 X97.705 Y89.921 F3600.000
G1 E2.00000 F1800.00000
G1 X97.095 Y128.573 E4.03983 F2400.000
G1 X96.721 Y128.570 E4.05957
G1 X96.721 Y89.921 E6.09899
G1 X97.645 Y89.921 E6.14776
G1 E4.14776 F1800.00000
G92 E0
G1 X122.295 Y89.921 F3600.000
G1 E2.00000 F1800.00000
G1 X123.279 Y89.921 E2.05194 F2400.000
G1 X123.279 Y128.570 E4.09135
G1 X122.905 Y128.573 E4.11109
G1 X122.296 Y89.981 E6.14774
G1 X121.682 Y90.907 F3600.000
G1 X98.318 Y90.907 E7.38058 F2400.000
G1 X97.697 Y130.233 E9.45595
G1 X98.421 Y130.297 E9.49430
G1 X98.502 Y130.323 E9.49879
G1 X98.581 Y130.395 E9.50444
G1 X98.604 Y130.500 E9.51009
G1 X98.577 Y130.625 E9.51687
G1 X98.470 Y130.692 E9.52352
G1 X98.370 Y130.707 E9.52885
G1 X96.298 Y130.704 E9.63819
G1 X96.169 Y130.657 E9.64547
G1 X96.106 Y130.552 E9.65190
G1 X96.093 Y130.455 E9.65709
G1 X96.093 Y89.293 E11.82910
G1 X123.907 Y89.293 E13.29680
G1 X123.907 Y130.470 E15.46960
G1 X123.901 Y130.547 E15.47370
G1 X123.857 Y130.631 E15.47872
G1 X123.786 Y130.685 E15.48339
G1 X123.702 Y130.704 E15.48792
G1 X121.582 Y130.704 E15.59980
G1 X121.455 Y130.645 E15.60719
G1 X121.387 Y130.539 E15.61385
G1 X121.415 Y130.414 E15.62061
G1 X121.480 Y130.329 E15.62627
G1 X121.580 Y130.297 E15.63178
G1 X122.303 Y130.234 E15.67009
G1 X121.683 Y90.967 E17.74233
G1 X121.197 Y91.400 F3600.000
G1 X98.803 Y91.400 E18.41388 F1200.000
G1 X98.197 Y129.783 E19.56505
G1 X98.518 Y129.811 E19.57472
G1 X98.699 Y129.868 E19.58041
G1 X98.797 Y129.925 E19.58381
G1 X98.937 Y130.053 E19.58950
G1 X99.006 Y130.150 E19.59307
G1 X99.055 Y130.257 E19.59659
G1 X99.096 Y130.442 E19.60228
G1 X99.097 Y130.557 E19.60571
G1 X99.055 Y130.743 E19.61144
G1 X98.936 Y130.949 E19.61859
G1 X98.750 Y131.106 E19.62587
G1 X98.521 Y131.189 E19.63315
G1 X96.244 Y131.197 E19.70146
G1 X96.061 Y131.156 E19.70707
G1 X95.896 Y131.070 E19.71267
G1 X95.809 Y130.997 E19.71606
G1 X95.695 Y130.849 E19.72165
G1 X95.626 Y130.681 E19.72712
G1 X95.600 Y130.487 E19.73298
G1 X95.600 Y88.800 E20.98310
G1 X124.400 Y88.800 E21.84676
G1 X124.400 Y130.491 E23.09701
G1 X124.358 Y130.735 E23.10442
G1 X124.270 Y130.904 E23.11015
G1 X124.197 Y130.991 E23.11354
G1 X124.046 Y131.107 E23.11927
G1 X123.943 Y131.155 E23.12266
G1 X123.756 Y131.197 E23.12840
G1 X121.539 Y131.197 E23.19489
G1 X121.304 Y131.134 E23.20218
G1 X121.106 Y130.994 E23.20946
G1 X120.966 Y130.795 E23.21674
G1 X120.903 Y130.561 E23.22403
G1 X120.903 Y130.443 E23.22755
G1 X120.945 Y130.257 E23.23328
G1 X120.993 Y130.154 E23.23667
G1 X121.109 Y130.003 E23.24240
G1 X121.301 Y129.868 E23.24942
G1 X121.483 Y129.811 E23.25515
G1 X121.803 Y129.783 E23.26478
G1 X121.198 Y91.460 E24.41417
G1 X121.195 Y91.000 F3600.000
G1 X121.983 Y90.100 F3600.000
G1 X98.017 Y90.100 E27.02986 F1200.000
G1 X97.211 Y90.235 F3600.000
G1 X97.055 Y109.934 E28.06932 F1200.000
G1 E26.06932 F1800.00000
G92 E0
G1 X96.906 Y128.886 F3600.000
G1 E2.00000 F1800.00000
G1 X96.894 Y130.391 E2.16424 F1200.000
G1 E0.16424 F1800.00000
G92 E0
G1 X123.106 Y130.390 F3600.000
G1 E2.00000 F1800.00000
G1 X123.094 Y128.886 E2.16415 F1200.000
G1 E0.16415 F1800.00000
G92 E0
G1 X122.945 Y109.934 F3600.000
G1 E2.00000 F1800.00000
G1 X122.789 Y90.235 E3.03948 F1200.000
M106 S226.95
G1 E1.03948 F1800.00000
G92 E0
G1 Z0.840 F3600.000
M117 Printing layer 3
G1 X97.705 Y89.921 F3600.000
G1 E2.00000 F1800.00000
G1 X97.095 Y128.573 E4.03983 F2400.000
G1 X96.721 Y128.570 E4.05957
G1 X96.721 Y89.921 E6.09898
G1 X97.645 Y89.921 E6.14776
G1 E4.14776 F1800.00000
G92 E0
G1 X122.295 Y89.921 F3600.000
G1 E2.00000 F1800.00000
G1 X123.279 Y89.921 E2.05194 F2400.000
G1 X123.279 Y128.570 E4.09135
G1 X122.905 Y128.573 E4.11109
G1 X122.296 Y89.981 E6.14775
G1 X121.682 Y90.907 F3600.000
G1 X98.318 Y90.907 E7.38059 F2400.000
G1 X97.697 Y130.234 E9.45600
G1 X98.420 Y130.297 E9.49430
G1 X98.502 Y130.323 E9.49884
G1 X98.581 Y130.395 E9.50448
G1 X98.604 Y130.500 E9.51015
G1 X98.577 Y130.625 E9.51691
G1 X98.470 Y130.692 E9.52356
G1 X98.370 Y130.707 E9.52889
G1 X96.298 Y130.704 E9.63823
G1 X96.169 Y130.657 E9.64551
G1 X96.106 Y130.552 E9.65195
G1 X96.093 Y130.455 E9.65714
G1 X96.093 Y89.293 E11.82914
G1 X123.907 Y89.293 E13.29684
G1 X123.907 Y130.470 E15.46964
G1 X123.901 Y130.546 E15.47371
G1 X123.856 Y130.632 E15.47877
G1 X123.786 Y130.685 E15.48344
G1 X123.703 Y130.704 E15.48795
G1 X121.582 Y130.704 E15.59984
G1 X121.455 Y130.645 E15.60723
G1 X121.387 Y130.539 E15.61389
G1 X121.415 Y130.413 E15.62066
G1 X121.480 Y130.329 E15.62630
G1 X121.580 Y130.297 E15.63182
G1 X122.303 Y130.234 E15.67013
G1 X121.683 Y90.967 E17.74237
