; generated by Slic3r 1.2.9 on 2019-08-06 at 00:39:52

; external perimeters extrusion width = 0.40mm
; perimeters extrusion width = 0.67mm
; infill extrusion width = 0.67mm
; solid infill extrusion width = 0.67mm
; top infill extrusion width = 0.67mm
; support material extrusion width = 0.40mm

M107
M83 ; use relative distances for extrusion
G28 ; home axes
M201 X900 Y900 ; Set max acceleration in X and Y [mm/s^2] ; MM
M204 S900 P500 ; Set actual acceleration S..Travel P..Print ; MM
M203 Z20 E200 ; Set max feedrate
M205 X8 Y8 ; Set xy max jerk [mm/s] starting from that speed it uses
acceleration ; MM
M84 S0 ; Disable Stepper Timeout
G0 Z6 F4000
M104 S160 ;
M140 S55;
G1 X10 Y10 F9000 ; go to front of bed
G1 X100 Y10 F9000 ; go to front of bed
G1 Z0.10 ; use the bed to block the nozzle to prevent ooze
M190 S55;
M109 S210;
G92 E0    ; zero the extruder
G1 X80 E24 F500 ; make a blob/line (2cm)
G1 X10 F4000 ; wipe along the edge of the bed
G1 Y15 F4000 ; wipe along the edge of the bed
G1 X180 F4000 ; wipe along the edge of the bed
G1 Z0.5     ; lift before move to center
M82 ;
G21 ; set units to millimeters
G90 ; use absolute coordinates
M82 ; use absolute distances for extrusion
G92 E0
G1 E-2.00000 F1800.00000
G92 E0
G1 Z0.240 F3600.000
M117 Printing layer 0
G1 X89.215 Y86.196 F3600.000
G1 E2.00000 F1800.00000
G1 X91.556 Y84.735 E2.14563 F1200.000
G1 X95.400 Y83.929 E2.35289
G1 X124.600 Y83.929 E3.89369
G1 X127.331 Y84.327 E4.03932 F1200.000
G1 X129.835 Y85.488 E4.18495
G1 X131.904 Y87.315 E4.33058
G1 X133.365 Y89.656 E4.47621
G1 X134.171 Y93.500 E4.68347
G1 X134.171 Y125.000 E6.34564
G1 X134.156 Y125.548 E6.37454
G1 X134.083 Y126.381 E6.41868
G1 X133.921 Y127.331 E6.46955
G1 X133.676 Y128.270 E6.52073
G1 X133.351 Y129.177 E6.57157
G1 X132.890 Y130.167 E6.62921
G1 X132.397 Y131.008 E6.68063
G1 X131.844 Y131.788 E6.73112
G1 X131.214 Y132.530 E6.78250
G1 X130.529 Y133.206 E6.83326
G1 X129.888 Y133.744 E6.87741
G1 X129.103 Y134.300 E6.92816
G1 X128.283 Y134.781 E6.97836
G1 X127.391 Y135.204 E7.03041
G1 X126.494 Y135.536 E7.08090
G1 X125.576 Y135.789 E7.13115
G1 X124.610 Y135.966 E7.18296
G1 X123.648 Y136.056 E7.23397
G1 X123.100 Y136.071 E7.26288
G1 X96.900 Y136.071 E8.64539
G1 X96.352 Y136.056 E8.67430
G1 X95.389 Y135.966 E8.72534
G1 X94.441 Y135.793 E8.77619
G1 X93.634 Y135.577 E8.82028
G1 X92.732 Y135.255 E8.87083
G1 X91.842 Y134.846 E8.92251
G1 X90.898 Y134.301 E8.98004
G1 X90.113 Y133.744 E9.03082
G1 X89.470 Y133.206 E9.07506
G1 X88.782 Y132.526 E9.12609
G1 X88.158 Y131.791 E9.17698
G1 X87.599 Y131.002 E9.22803
G1 X87.051 Y130.052 E9.28586
G1 X86.648 Y129.176 E9.33676
G1 X86.363 Y128.391 E9.38080
G1 X86.078 Y127.327 E9.43895
G1 X85.917 Y126.379 E9.48969
G1 X85.844 Y125.548 E9.53370
G1 X85.829 Y125.000 E9.56263
G1 X85.829 Y93.500 E11.22480
G1 X86.227 Y90.769 E11.37043
G1 X87.388 Y88.265 E11.51606
G1 X89.175 Y86.241 E11.65853
G1 X89.619 Y86.569 F3600.000
G1 X89.726 Y86.453 E11.66684 F1200.000
G1 X92.042 Y85.099 E11.80841
G1 X95.400 Y84.453 E11.98885
G1 X124.600 Y84.453 E13.52965
G1 X127.253 Y84.851 E13.67122 F1200.000
G1 X129.673 Y86.009 E13.81279
G1 X131.647 Y87.826 E13.95436
G1 X133.001 Y90.142 E14.09592
G1 X133.647 Y93.500 E14.27636
G1 X133.647 Y125.000 E15.93853
G1 X133.633 Y125.525 E15.96623
G1 X133.564 Y126.313 E16.00796
G1 X133.410 Y127.218 E16.05642
G1 X133.176 Y128.112 E16.10518
G1 X132.868 Y128.976 E16.15361
G1 X132.425 Y129.925 E16.20885
G1 X131.960 Y130.719 E16.25742
G1 X131.428 Y131.470 E16.30595
G1 X130.828 Y132.176 E16.35489
G1 X130.175 Y132.820 E16.40325
G1 X129.570 Y133.328 E16.44498
G1 X128.822 Y133.859 E16.49333
G1 X128.040 Y134.317 E16.54117
G1 X127.191 Y134.720 E16.59075
G1 X126.337 Y135.037 E16.63885
G1 X125.462 Y135.278 E16.68673
G1 X124.542 Y135.447 E16.73609
G1 X123.625 Y135.533 E16.78468
G1 X123.100 Y135.547 E16.81239
G1 X96.900 Y135.547 E18.19490
G1 X96.375 Y135.533 E18.22260
G1 X95.458 Y135.447 E18.27123
G1 X94.555 Y135.282 E18.31967
G1 X93.792 Y135.077 E18.36135
G1 X92.932 Y134.771 E18.40951
G1 X92.084 Y134.382 E18.45874
G1 X91.179 Y133.859 E18.51388
G1 X90.431 Y133.329 E18.56226
G1 X89.727 Y132.731 E18.61098
G1 X89.168 Y132.172 E18.65269
G1 X88.573 Y131.472 E18.70118
G1 X88.040 Y130.720 E18.74981
G1 X87.515 Y129.811 E18.80523
G1 X87.132 Y128.975 E18.85373
G1 X86.862 Y128.234 E18.89536
G1 X86.589 Y127.214 E18.95108
G1 X86.436 Y126.311 E18.99943
G1 X86.367 Y125.525 E19.04102
G1 X86.353 Y125.000 E19.06875
G1 X86.353 Y93.500 E20.73093
G1 X86.751 Y90.847 E20.87249
G1 X87.909 Y88.427 E21.01406
G1 X89.579 Y86.613 E21.14415
G1 X90.014 Y86.949 F3600.000
G1 X90.236 Y86.719 E21.16104 F1200.000
G1 X92.524 Y85.476 E21.29842
G1 X95.400 Y84.976 E21.45245
G1 X124.600 Y84.976 E22.99326
G1 X127.173 Y85.374 E23.13064 F1200.000
G1 X129.506 Y86.530 E23.26803
G1 X131.381 Y88.336 E23.40542
G1 X132.624 Y90.624 E23.54280
G1 X133.124 Y93.500 E23.69683
G1 X133.124 Y125.000 E25.35900
G1 X133.110 Y125.502 E25.38550
G1 X133.045 Y126.244 E25.42481
G1 X132.899 Y127.105 E25.47086
G1 X132.677 Y127.954 E25.51720
G1 X132.384 Y128.776 E25.56323
G1 X131.961 Y129.683 E25.61607
G1 X131.519 Y130.438 E25.66222
G1 X131.013 Y131.151 E25.70835
G1 X130.442 Y131.823 E25.75486
G1 X129.822 Y132.434 E25.80082
G1 X129.251 Y132.913 E25.84013
G1 X128.541 Y133.417 E25.88609
G1 X127.798 Y133.853 E25.93155
G1 X126.991 Y134.236 E25.97866
G1 X126.179 Y134.538 E26.02438
G1 X125.348 Y134.767 E26.06989
G1 X124.473 Y134.928 E26.11679
G1 X123.602 Y135.010 E26.16297
G1 X123.100 Y135.024 E26.18948
G1 X96.900 Y135.024 E27.57198
G1 X96.398 Y135.010 E27.59848
G1 X95.656 Y134.945 E27.63780
G1 X94.668 Y134.771 E27.69073
G1 X93.821 Y134.538 E27.73708
G1 X93.009 Y134.236 E27.78278
G1 X92.326 Y133.918 E27.82255
G1 X91.571 Y133.488 E27.86840
G1 X90.750 Y132.913 E27.92128
G1 X90.081 Y132.345 E27.96758
G1 X89.466 Y131.722 E28.01377
G1 X88.906 Y131.045 E28.06017
G1 X88.408 Y130.323 E28.10643
G1 X87.980 Y129.569 E28.15218
G1 X87.616 Y128.775 E28.19828
G1 X87.361 Y128.076 E28.23750
G1 X87.100 Y127.101 E28.29079
G1 X86.955 Y126.242 E28.33674
G1 X86.890 Y125.503 E28.37593
G1 X86.876 Y125.000 E28.40245
G1 X86.876 Y93.500 E30.06462
G1 X87.274 Y90.927 E30.20201
G1 X88.430 Y88.594 E30.33940
G1 X89.972 Y86.992 E30.45673
G1 E28.45673 F1800.00000
G92 E0
G1 X92.835 Y89.771 F3600.000
G1 E2.00000 F1800.00000
G1 X93.557 Y89.049 E2.05382 F1200.000
G1 X124.463 Y89.049 E3.68468
G1 X126.443 Y89.049 E3.78917 F1200.000
G1 X129.051 Y91.657 E3.98373
G1 X129.048 Y125.145 E5.75085
G1 X129.020 Y125.612 E5.77551
G1 X128.977 Y125.940 E5.79298
G1 X128.873 Y126.448 E5.82032
G1 X128.723 Y126.950 E5.84798
G1 X128.535 Y127.424 E5.87487
G1 X128.301 Y127.893 E5.90256
G1 X128.029 Y128.335 E5.92993
G1 X127.598 Y128.897 E5.96731
G1 X127.240 Y129.276 E5.99481
G1 X126.846 Y129.625 E6.02258
G1 X126.434 Y129.930 E6.04965
G1 X125.996 Y130.199 E6.07678
G1 X125.522 Y130.437 E6.10475
G1 X125.224 Y130.559 E6.12173
G1 X124.737 Y130.722 E6.14883
G1 X124.228 Y130.844 E6.17646
G1 X123.714 Y130.920 E6.20387
G1 X123.199 Y130.951 E6.23110
G1 X122.679 Y130.936 E6.25853
G1 X122.158 Y130.876 E6.28620
G1 X121.652 Y130.773 E6.31347
G1 X121.156 Y130.625 E6.34077
G1 X120.674 Y130.435 E6.36811
G1 X120.207 Y130.201 E6.39567
G1 X119.768 Y129.931 E6.42284
G1 X119.350 Y129.621 E6.45032
G1 X118.961 Y129.277 E6.47773
G1 X118.605 Y128.900 E6.50509
G1 X118.169 Y128.332 E6.54285
G1 X117.899 Y127.893 E6.57006
G1 X117.665 Y127.426 E6.59762
G1 X117.475 Y126.944 E6.62495
G1 X117.327 Y126.447 E6.65234
G1 X117.223 Y125.942 E6.67955
G1 X117.180 Y125.612 E6.69711
G1 X117.151 Y125.119 E6.72314
G1 X116.648 Y101.250 E7.98296
G1 X116.343 Y100.951 E8.00551
G1 X103.657 Y100.951 E8.67492
G1 X103.352 Y101.250 E8.69747
G1 X102.847 Y125.169 E9.95994
G1 X102.820 Y125.614 E9.98342
G1 X102.744 Y126.128 E10.01086
G1 X102.623 Y126.632 E10.03820
G1 X102.458 Y127.128 E10.06581
G1 X102.253 Y127.602 E10.09304
G1 X102.099 Y127.896 E10.11053
G1 X101.719 Y128.492 E10.14784
G1 X101.398 Y128.898 E10.17516
G1 X101.178 Y129.138 E10.19233
G1 X100.649 Y129.622 E10.23020
G1 X100.238 Y129.927 E10.25719
G1 X99.960 Y130.104 E10.27457
G1 X99.325 Y130.435 E10.31237
G1 X98.847 Y130.624 E10.33947
G1 X98.356 Y130.771 E10.36654
G1 X98.028 Y130.844 E10.38426
G1 X97.514 Y130.920 E10.41167
G1 X96.802 Y130.951 E10.44927
G1 X96.477 Y130.936 E10.46643
G1 X95.959 Y130.877 E10.49396
G1 X95.266 Y130.723 E10.53140
G1 X94.776 Y130.559 E10.55868
G1 X94.474 Y130.435 E10.57590
G1 X93.835 Y130.102 E10.61393
G1 X93.409 Y129.820 E10.64087
G1 X93.150 Y129.621 E10.65809
G1 X92.623 Y129.139 E10.69579
G1 X92.279 Y128.751 E10.72314
G1 X92.080 Y128.491 E10.74045
G1 X91.794 Y128.057 E10.76789
G1 X91.549 Y127.605 E10.79498
G1 X91.275 Y126.944 E10.83273
G1 X91.127 Y126.447 E10.86010
G1 X91.056 Y126.127 E10.87740
G1 X90.981 Y125.619 E10.90452
G1 X90.951 Y125.134 E10.93012
G1 X90.949 Y91.657 E12.69666
G1 X92.793 Y89.813 E12.83423
G1 X93.206 Y90.141 F3600.000
G1 X93.773 Y89.573 E12.87660 F1200.000
G1 X95.537 Y89.573 E12.96966
G1 X126.227 Y89.573 E14.58907 F1200.000
G1 X128.527 Y91.873 E14.76074
G1 X128.515 Y125.378 E16.52868
G1 X128.459 Y125.860 E16.55430
G1 X128.364 Y126.323 E16.57923
G1 X128.227 Y126.781 E16.60445
G1 X127.983 Y127.370 E16.63809
G1 X127.757 Y127.788 E16.66316
G1 X127.594 Y128.044 E16.67919
G1 X127.317 Y128.418 E16.70374
G1 X126.997 Y128.778 E16.72914
G1 X126.518 Y129.216 E16.76338
G1 X126.143 Y129.495 E16.78808
G1 X125.889 Y129.656 E16.80397
G1 X125.471 Y129.883 E16.82904
G1 X124.873 Y130.130 E16.86315
G1 X124.427 Y130.263 E16.88772
G1 X124.126 Y130.330 E16.90402
G1 X123.483 Y130.414 E16.93821
G1 X123.019 Y130.427 E16.96273
G1 X122.713 Y130.414 E16.97887
G1 X122.238 Y130.359 E17.00409
G1 X121.607 Y130.218 E17.03820
G1 X121.165 Y130.071 E17.06278
G1 X120.885 Y129.955 E17.07880
G1 X120.459 Y129.742 E17.10393
G1 X119.921 Y129.399 E17.13761
G1 X119.678 Y129.213 E17.15377
G1 X119.323 Y128.898 E17.17877
G1 X118.887 Y128.422 E17.21282
G1 X118.702 Y128.181 E17.22886
G1 X118.444 Y127.790 E17.25361
G1 X118.218 Y127.373 E17.27863
G1 X117.971 Y126.776 E17.31272
G1 X117.836 Y126.322 E17.33770
G1 X117.741 Y125.861 E17.36252
G1 X117.701 Y125.555 E17.37883
G1 X117.674 Y125.105 E17.40261
G1 X117.161 Y100.726 E18.68932
G1 X116.856 Y100.427 E18.71187
G1 X103.144 Y100.427 E19.43539
G1 X102.839 Y100.726 E19.45794
G1 X102.326 Y125.105 E20.74464
G1 X102.299 Y125.557 E20.76853
G1 X102.230 Y126.026 E20.79355
G1 X102.120 Y126.486 E20.81848
G1 X102.027 Y126.781 E20.83482
G1 X101.783 Y127.370 E20.86849
G1 X101.641 Y127.643 E20.88474
G1 X101.396 Y128.040 E20.90934
G1 X101.004 Y128.552 E20.94338
G1 X100.799 Y128.776 E20.95934
G1 X100.453 Y129.103 E20.98448
G1 X99.946 Y129.492 E21.01821
G1 X99.688 Y129.657 E21.03435
G1 X99.272 Y129.882 E21.05935
G1 X98.678 Y130.128 E21.09324
G1 X98.230 Y130.262 E21.11794
G1 X97.926 Y130.330 E21.13438
G1 X97.283 Y130.414 E21.16859
G1 X96.814 Y130.427 E21.19337
G1 X96.512 Y130.414 E21.20933
G1 X95.865 Y130.328 E21.24374
G1 X95.413 Y130.220 E21.26827
G1 X95.124 Y130.129 E21.28424
G1 X94.527 Y129.882 E21.31834
G1 X94.258 Y129.741 E21.33438
G1 X93.858 Y129.495 E21.35914
G1 X93.345 Y129.102 E21.39324
G1 X93.123 Y128.898 E21.40914
G1 X92.799 Y128.555 E21.43407
G1 X92.502 Y128.181 E21.45923
G1 X92.241 Y127.785 E21.48426
G1 X92.019 Y127.373 E21.50897
G1 X91.830 Y126.937 E21.53404
G1 X91.681 Y126.489 E21.55896
G1 X91.570 Y126.025 E21.58413
G1 X91.501 Y125.561 E21.60887
G1 X91.475 Y125.119 E21.63228
G1 X91.473 Y91.873 E23.38654
G1 X93.163 Y90.183 E23.51267
G1 X93.576 Y90.511 F3600.000
G1 X93.990 Y90.097 E23.54359 F1200.000
G1 X124.463 Y90.097 E25.15157
G1 X126.010 Y90.097 E25.23318 F1200.000
G1 X128.003 Y92.090 E25.38195
G1 X128.002 Y125.111 E27.12438
G1 X127.941 Y125.780 E27.15982
G1 X127.855 Y126.198 E27.18235
G1 X127.731 Y126.612 E27.20513
G1 X127.576 Y127.003 E27.22732
G1 X127.383 Y127.389 E27.25012
G1 X127.158 Y127.753 E27.27267
G1 X126.810 Y128.207 E27.30288
G1 X126.515 Y128.519 E27.32554
G1 X126.191 Y128.807 E27.34840
G1 X125.852 Y129.059 E27.37072
G1 X125.491 Y129.282 E27.39309
G1 X125.101 Y129.477 E27.41611
G1 X124.443 Y129.716 E27.45304
G1 X124.024 Y129.816 E27.47579
G1 X123.600 Y129.878 E27.49838
G1 X123.175 Y129.903 E27.52083
G1 X122.747 Y129.891 E27.54343
G1 X122.318 Y129.841 E27.56621
G1 X121.901 Y129.755 E27.58869
G1 X121.493 Y129.633 E27.61119
G1 X121.096 Y129.476 E27.63372
G1 X120.711 Y129.283 E27.65642
G1 X120.350 Y129.060 E27.67882
G1 X120.005 Y128.804 E27.70146
G1 X119.685 Y128.520 E27.72405
G1 X119.392 Y128.209 E27.74659
G1 X119.125 Y127.872 E27.76931
G1 X118.892 Y127.518 E27.79168
G1 X118.688 Y127.141 E27.81428
G1 X118.517 Y126.745 E27.83703
G1 X118.383 Y126.342 E27.85943
G1 X118.286 Y125.933 E27.88165
G1 X118.221 Y125.498 E27.90481
G1 X118.198 Y125.091 E27.92634
G1 X117.674 Y100.202 E29.23995
G1 X117.368 Y99.903 E29.26250
G1 X102.632 Y99.903 E30.04013
G1 X102.326 Y100.202 E30.06267
G1 X101.802 Y125.091 E31.37627
G1 X101.778 Y125.500 E31.39789
G1 X101.716 Y125.924 E31.42050
G1 X101.531 Y126.612 E31.45808
G1 X101.376 Y127.003 E31.48029
G1 X101.218 Y127.322 E31.49909
G1 X100.874 Y127.873 E31.53333
G1 X100.421 Y128.414 E31.57058
G1 X99.994 Y128.805 E31.60116
G1 X99.417 Y129.209 E31.63832
G1 X98.903 Y129.476 E31.66885
G1 X98.244 Y129.716 E31.70589
G1 X97.677 Y129.842 E31.73655
G1 X96.974 Y129.903 E31.77377
G1 X96.396 Y129.878 E31.80429
G1 X95.968 Y129.815 E31.82711
G1 X95.559 Y129.717 E31.84929
G1 X94.896 Y129.476 E31.88655
G1 X94.380 Y129.207 E31.91725
G1 X93.806 Y128.804 E31.95426
G1 X93.380 Y128.415 E31.98470
G1 X92.925 Y127.872 E32.02208
G1 X92.689 Y127.514 E32.04469
G1 X92.488 Y127.141 E32.06703
G1 X92.267 Y126.608 E32.09753
G1 X92.084 Y125.923 E32.13491
G1 X92.022 Y125.504 E32.15727
G1 X91.998 Y125.103 E32.17847
G1 X91.997 Y92.090 E33.92046
G1 X93.533 Y90.553 E34.03514
G1 X93.946 Y90.881 F3600.000
G1 X94.207 Y90.620 E34.05462 F1200.000
G1 X95.537 Y90.620 E34.12479
G1 X125.793 Y90.620 E35.72132 F1200.000
G1 X127.480 Y92.307 E35.84720
G1 X127.469 Y125.312 E37.58878
G1 X127.424 Y125.700 E37.60941
G1 X127.347 Y126.074 E37.62953
G1 X127.236 Y126.443 E37.64987
G1 X127.043 Y126.907 E37.67638
G1 X126.861 Y127.244 E37.69661
G1 X126.499 Y127.763 E37.73003
G1 X126.241 Y128.053 E37.75049
G1 X125.864 Y128.398 E37.77744
G1 X125.345 Y128.761 E37.81087
G1 X125.008 Y128.943 E37.83110
G1 X124.537 Y129.138 E37.85795
G1 X123.922 Y129.303 E37.89158
G1 X123.416 Y129.369 E37.91850
G1 X122.781 Y129.369 E37.95197
G1 X122.399 Y129.324 E37.97231
G1 X121.902 Y129.213 E37.99917
G1 X121.307 Y128.996 E38.03260
G1 X120.854 Y128.761 E38.05952
G1 X120.333 Y128.396 E38.09308
G1 X119.958 Y128.052 E38.11990
G1 X119.547 Y127.562 E38.15365
G1 X119.276 Y127.137 E38.18028
G1 X119.104 Y126.793 E38.20055
G1 X118.886 Y126.196 E38.23413
G1 X118.776 Y125.701 E38.26085
G1 X118.721 Y125.077 E38.29391
G1 X118.186 Y99.679 E39.63441
G1 X117.881 Y99.380 E39.65696
G1 X102.119 Y99.380 E40.48870
G1 X101.813 Y99.679 E40.51124
G1 X101.279 Y125.077 E41.85174
G1 X101.225 Y125.696 E41.88455
G1 X101.115 Y126.193 E41.91138
G1 X100.897 Y126.792 E41.94503
G1 X100.661 Y127.245 E41.97197
G1 X100.298 Y127.764 E42.00539
G1 X99.952 Y128.142 E42.03247
G1 X99.464 Y128.551 E42.06605
G1 X99.037 Y128.824 E42.09276
G1 X98.457 Y129.094 E42.12656
G1 X97.913 Y129.260 E42.15656
G1 X97.597 Y129.324 E42.17355
G1 X97.216 Y129.369 E42.19381
G1 X96.580 Y129.369 E42.22735
G1 X96.072 Y129.301 E42.25442
G1 X95.461 Y129.137 E42.28779
G1 X94.991 Y128.942 E42.31463
G1 X94.440 Y128.624 E42.34822
G1 X94.036 Y128.314 E42.37507
G1 X93.586 Y127.864 E42.40866
G1 X93.347 Y127.562 E42.42896
G1 X93.137 Y127.243 E42.44915
G1 X92.958 Y126.909 E42.46912
G1 X92.806 Y126.557 E42.48935
G1 X92.686 Y126.196 E42.50946
G1 X92.597 Y125.821 E42.52976
G1 X92.543 Y125.446 E42.54975
G1 X92.521 Y125.087 E42.56875
G1 X92.520 Y92.307 E44.29845
G1 X93.904 Y90.924 E44.40169
G1 X94.316 Y91.252 F3600.000
G1 X94.424 Y91.144 E44.40973 F1200.000
G1 X124.463 Y91.144 E45.99481
G1 X125.576 Y91.144 E46.05353 F1200.000
G1 X126.956 Y92.524 E46.15653
G1 X126.955 Y125.077 E47.87427
G1 X126.906 Y125.620 E47.90305
G1 X126.838 Y125.949 E47.92077
G1 X126.740 Y126.274 E47.93867
