; generated by Slic3r 1.2.9 on 2019-06-22 at 23:02:39

; external perimeters extrusion width = 0.40mm
; perimeters extrusion width = 0.67mm
; infill extrusion width = 0.67mm
; solid infill extrusion width = 0.67mm
; top infill extrusion width = 0.67mm
; support material extrusion width = 0.40mm

M107
M83 ; use relative distances for extrusion
G28 ; home axes
M201 X900 Y900 ; Set max acceleration in X and Y [mm/s^2] ; MM
M204 S900 P500 ; Set actual acceleration S..Travel P..Print ; MM
M203 Z20 E200 ; Set max feedrate
M205 X8 Y8 ; Set xy max jerk [mm/s] starting from that speed it uses
acceleration ; MM
M84 S0 ; Disable Stepper Timeout
G0 Z6 F4000
M104 S160 ;
M140 S55;
G1 X10 Y10 F9000 ; go to front of bed
G1 X100 Y10 F9000 ; go to front of bed
G1 Z0.10 ; use the bed to block the nozzle to prevent ooze
M190 S55;
M109 S210;
G92 E0    ; zero the extruder
G1 X80 E24 F500 ; make a blob/line (2cm)
G1 X10 F4000 ; wipe along the edge of the bed
G1 Y15 F4000 ; wipe along the edge of the bed
G1 X180 F4000 ; wipe along the edge of the bed
G1 Z0.5     ; lift before move to center
M82 ;
G21 ; set units to millimeters
G90 ; use absolute coordinates
M82 ; use absolute distances for extrusion
G92 E0
G1 E-2.00000 F1800.00000
G92 E0
G1 Z0.240 F5400.000
G1 X73.256 Y73.256 F5400.000
G1 E2.00000 F1800.00000
G1 X73.626 Y72.885 E2.02764 F1200.000
G1 X74.903 Y71.814 E2.11556
G1 X75.760 Y71.214 E2.17080
G1 X77.204 Y70.380 E2.25875
G1 X78.153 Y69.938 E2.31404
G1 X79.720 Y69.367 E2.40204
G1 X80.732 Y69.096 E2.45729
G1 X82.373 Y68.807 E2.54525
G1 X83.415 Y68.716 E2.60045
G1 X84.250 Y68.679 E2.64453
G1 X135.750 Y68.679 E5.36205
G1 X136.583 Y68.716 E5.40606
G1 X137.626 Y68.807 E5.46131 F1200.000
G1 X139.267 Y69.096 E5.54921
G1 X140.279 Y69.367 E5.60447
G1 X141.846 Y69.937 E5.69250
G1 X142.795 Y70.380 E5.74772
G1 X144.245 Y71.218 E5.83614
G1 X145.096 Y71.814 E5.89096
G1 X146.374 Y72.886 E5.97898
G1 X147.114 Y73.626 E6.03417
G1 X148.186 Y74.904 E6.12219
G1 X148.786 Y75.760 E6.17738
G1 X149.620 Y77.205 E6.26543
G1 X150.062 Y78.153 E6.32062
G1 X150.633 Y79.721 E6.40868
G1 X150.904 Y80.732 E6.46386
G1 X151.193 Y82.374 E6.55184
G1 X151.284 Y83.415 E6.60703
G1 X151.321 Y84.250 E6.65111
G1 X151.321 Y135.750 E9.36862
G1 X151.284 Y136.585 E9.41270
G1 X151.193 Y137.626 E9.46789
G1 X150.904 Y139.268 E9.55587
G1 X150.633 Y140.279 E9.61105
G1 X150.062 Y141.847 E9.69911
G1 X149.620 Y142.796 E9.75437
G1 X148.786 Y144.240 E9.84235
G1 X148.186 Y145.097 E9.89755
G1 X147.114 Y146.374 E9.98556
G1 X146.374 Y147.114 E10.04075
G1 X145.097 Y148.186 E10.12874
G1 X144.240 Y148.786 E10.18396
G1 X142.795 Y149.620 E10.27198
G1 X141.847 Y150.062 E10.32719
G1 X140.278 Y150.633 E10.41526
G1 X139.268 Y150.904 E10.47045
G1 X137.627 Y151.193 E10.55836
G1 X136.585 Y151.284 E10.61361
G1 X135.750 Y151.321 E10.65769
G1 X84.250 Y151.321 E13.37520
G1 X83.415 Y151.284 E13.41928
G1 X82.374 Y151.193 E13.47447
G1 X80.732 Y150.904 E13.56244
G1 X79.722 Y150.633 E13.61763
G1 X78.153 Y150.062 E13.70570
G1 X77.205 Y149.620 E13.76089
G1 X75.760 Y148.786 E13.84893
G1 X74.904 Y148.186 E13.90412
G1 X73.626 Y147.114 E13.99214
G1 X72.885 Y146.373 E14.04743
G1 X71.814 Y145.096 E14.13535
G1 X71.213 Y144.239 E14.19060
G1 X70.380 Y142.795 E14.27859
G1 X69.937 Y141.846 E14.33384
G1 X69.367 Y140.279 E14.42184
G1 X69.096 Y139.267 E14.47710
G1 X68.807 Y137.626 E14.56500
G1 X68.716 Y136.584 E14.62024
G1 X68.679 Y135.750 E14.66427
G1 X68.679 Y84.250 E17.38178
G1 X68.716 Y83.415 E17.42586
G1 X68.807 Y82.374 E17.48105
G1 X69.096 Y80.732 E17.56902
G1 X69.367 Y79.722 E17.62421
G1 X69.938 Y78.153 E17.71227
G1 X70.380 Y77.204 E17.76753
G1 X71.214 Y75.760 E17.85551
G1 X71.814 Y74.903 E17.91074
G1 X72.886 Y73.626 E17.99872
G1 X73.214 Y73.298 E18.02315
G1 X73.626 Y73.626 F5400.000
G1 X73.997 Y73.256 E18.05079 F1200.000
G1 X75.203 Y72.243 E18.13390
G1 X76.061 Y71.643 E18.18914
G1 X77.425 Y70.855 E18.27228
G1 X78.374 Y70.412 E18.32756
G1 X79.856 Y69.873 E18.41075
G1 X80.867 Y69.602 E18.46599
G1 X82.419 Y69.328 E18.54914
G1 X83.461 Y69.237 E18.60434
G1 X84.250 Y69.203 E18.64601
G1 X135.750 Y69.203 E21.36352
G1 X136.538 Y69.237 E21.40513
G1 X137.581 Y69.328 E21.46038 F1200.000
G1 X139.132 Y69.602 E21.54347
G1 X140.143 Y69.873 E21.59873
G1 X141.625 Y70.412 E21.68194
G1 X142.573 Y70.854 E21.73716
G1 X143.945 Y71.647 E21.82076
G1 X144.796 Y72.243 E21.87558
G1 X146.004 Y73.256 E21.95878
G1 X146.744 Y73.996 E22.01398
G1 X147.757 Y75.204 E22.09718
G1 X148.357 Y76.061 E22.15237
G1 X149.146 Y77.427 E22.23560
G1 X149.588 Y78.374 E22.29079
G1 X150.127 Y79.857 E22.37403
G1 X150.398 Y80.867 E22.42922
G1 X150.672 Y82.419 E22.51238
G1 X150.763 Y83.461 E22.56757
G1 X150.797 Y84.250 E22.60924
G1 X150.797 Y135.750 E25.32675
G1 X150.763 Y136.539 E25.36842
G1 X150.672 Y137.581 E25.42361
G1 X150.398 Y139.133 E25.50677
G1 X150.127 Y140.143 E25.56196
G1 X149.588 Y141.626 E25.64520
G1 X149.145 Y142.575 E25.70045
G1 X148.357 Y143.939 E25.78362
G1 X147.757 Y144.796 E25.83882
G1 X146.744 Y146.004 E25.92201
G1 X146.004 Y146.744 E25.97721
G1 X144.797 Y147.757 E26.06038
G1 X143.939 Y148.357 E26.11560
G1 X142.574 Y149.146 E26.19880
G1 X141.626 Y149.588 E26.25402
G1 X140.143 Y150.127 E26.33727
G1 X139.133 Y150.398 E26.39245
G1 X137.582 Y150.671 E26.47556
G1 X136.539 Y150.763 E26.53080
G1 X135.750 Y150.797 E26.57247
G1 X84.250 Y150.797 E29.28998
G1 X83.461 Y150.763 E29.33165
G1 X82.419 Y150.672 E29.38684
G1 X80.867 Y150.398 E29.47000
G1 X79.857 Y150.127 E29.52518
G1 X78.374 Y149.588 E29.60843
G1 X77.427 Y149.146 E29.66362
G1 X76.061 Y148.357 E29.74685
G1 X75.204 Y147.757 E29.80204
G1 X73.996 Y146.744 E29.88524
G1 X73.255 Y146.003 E29.94053
G1 X72.243 Y144.796 E30.02364
G1 X71.642 Y143.938 E30.07889
G1 X70.854 Y142.573 E30.16206
G1 X70.412 Y141.624 E30.21731
G1 X69.873 Y140.143 E30.30050
G1 X69.602 Y139.132 E30.35575
G1 X69.328 Y137.581 E30.43884
G1 X69.237 Y136.538 E30.49408
G1 X69.203 Y135.750 E30.53570
G1 X69.203 Y84.250 E33.25322
G1 X69.237 Y83.461 E33.29488
G1 X69.328 Y82.419 E33.35007
G1 X69.602 Y80.867 E33.43323
G1 X69.873 Y79.857 E33.48842
G1 X70.412 Y78.374 E33.57166
G1 X70.855 Y77.425 E33.62692
G1 X71.643 Y76.061 E33.71008
G1 X72.243 Y75.203 E33.76531
G1 X73.256 Y73.996 E33.84848
G1 X73.584 Y73.669 E33.87291
G1 X73.996 Y73.996 F5400.000
G1 X74.367 Y73.626 E33.90055 F1200.000
G1 X75.503 Y72.672 E33.97884
G1 X76.361 Y72.072 E34.03408
G1 X77.646 Y71.329 E34.11241
G1 X78.596 Y70.887 E34.16768
G1 X79.991 Y70.379 E34.24606
G1 X81.003 Y70.108 E34.30130
G1 X82.465 Y69.850 E34.37964
G1 X83.507 Y69.759 E34.43483
G1 X84.250 Y69.726 E34.47409
G1 X135.750 Y69.726 E37.19161
G1 X136.492 Y69.759 E37.23080
G1 X137.535 Y69.850 E37.28605 F1200.000
G1 X138.996 Y70.108 E37.36433
G1 X140.008 Y70.378 E37.41958
G1 X141.411 Y70.890 E37.49838
G1 X142.352 Y71.329 E37.55320
G1 X143.638 Y72.071 E37.63152
G1 X144.496 Y72.672 E37.68680
G1 X145.634 Y73.627 E37.76519
G1 X146.373 Y74.366 E37.82038
G1 X147.328 Y75.504 E37.89878
G1 X147.928 Y76.361 E37.95396
G1 X148.671 Y77.648 E38.03237
G1 X149.113 Y78.596 E38.08756
G1 X149.622 Y79.992 E38.16599
G1 X149.892 Y81.003 E38.22117
G1 X150.150 Y82.465 E38.29953
G1 X150.241 Y83.507 E38.35471
G1 X150.274 Y84.250 E38.39397
G1 X150.274 Y135.750 E41.11149
G1 X150.241 Y136.493 E41.15074
G1 X150.150 Y137.535 E41.20593
G1 X149.892 Y138.997 E41.28428
G1 X149.622 Y140.008 E41.33947
G1 X149.113 Y141.404 E41.41789
G1 X148.671 Y142.353 E41.47314
G1 X147.928 Y143.639 E41.55149
G1 X147.328 Y144.496 E41.60669
G1 X146.373 Y145.634 E41.68507
G1 X145.634 Y146.373 E41.74026
G1 X144.496 Y147.328 E41.81863
G1 X143.639 Y147.928 E41.87384
G1 X142.353 Y148.671 E41.95223
G1 X141.404 Y149.113 E42.00744
G1 X140.008 Y149.622 E42.08587
G1 X138.997 Y149.892 E42.14106
G1 X137.536 Y150.150 E42.21936
G1 X136.493 Y150.241 E42.27459
G1 X135.750 Y150.274 E42.31385
G1 X84.250 Y150.274 E45.03137
G1 X83.507 Y150.241 E45.07062
G1 X82.465 Y150.150 E45.12581
G1 X81.003 Y149.892 E45.20416
G1 X79.992 Y149.622 E45.25934
G1 X78.596 Y149.113 E45.33778
G1 X77.648 Y148.671 E45.39297
G1 X76.361 Y147.928 E45.47138
G1 X75.504 Y147.328 E45.52656
G1 X74.366 Y146.373 E45.60495
G1 X73.625 Y145.633 E45.66024
G1 X72.672 Y144.496 E45.73854
G1 X72.071 Y143.638 E45.79378
G1 X71.329 Y142.352 E45.87214
G1 X70.886 Y141.403 E45.92738
G1 X70.378 Y140.008 E46.00576
G1 X70.108 Y138.996 E46.06101
G1 X69.850 Y137.535 E46.13929
G1 X69.759 Y136.492 E46.19452
G1 X69.726 Y135.750 E46.23373
G1 X69.726 Y84.250 E48.95125
G1 X69.759 Y83.507 E48.99051
G1 X69.850 Y82.465 E49.04570
G1 X70.108 Y81.003 E49.12404
G1 X70.378 Y79.992 E49.17923
G1 X70.887 Y78.596 E49.25766
G1 X71.329 Y77.647 E49.31290
G1 X72.072 Y76.361 E49.39126
G1 X72.672 Y75.504 E49.44648
G1 X73.627 Y74.366 E49.52484
G1 X73.954 Y74.039 E49.54927
G1 E47.54927 F1800.00000
G92 E0
G1 X76.506 Y76.506 F5400.000
G1 E2.00000 F1800.00000
G1 X77.030 Y75.983 E2.03906 F1200.000
G1 X77.362 Y75.704 E2.06195
G1 X78.575 Y74.855 E2.14006
G1 X78.950 Y74.638 E2.16296
G1 X80.293 Y74.012 E2.24111
G1 X80.701 Y73.863 E2.26402
G1 X82.131 Y73.480 E2.34214
G1 X82.558 Y73.405 E2.36504
G1 X83.924 Y73.285 E2.43742
G1 X136.075 Y73.285 E5.18927
G1 X137.442 Y73.405 E5.26166 F1200.000
G1 X137.869 Y73.480 E5.28454
G1 X139.299 Y73.863 E5.36267
G1 X139.707 Y74.012 E5.38559
G1 X141.049 Y74.637 E5.46370
G1 X141.425 Y74.854 E5.48660
G1 X142.638 Y75.704 E5.56475
G1 X142.970 Y75.983 E5.58766
G1 X144.017 Y77.029 E5.66575
G1 X144.296 Y77.362 E5.68868
G1 X145.145 Y78.575 E5.76678
G1 X145.363 Y78.951 E5.78972
G1 X145.988 Y80.292 E5.86781
G1 X146.137 Y80.701 E5.89075
G1 X146.520 Y82.130 E5.96885
G1 X146.595 Y82.558 E5.99177
G1 X146.724 Y84.141 E6.07559
G1 X146.724 Y135.859 E8.80457
G1 X146.595 Y137.442 E8.88838
G1 X146.520 Y137.869 E8.91129
G1 X146.137 Y139.299 E8.98939
G1 X145.988 Y139.707 E9.01232
G1 X145.362 Y141.049 E9.09046
G1 X145.145 Y141.425 E9.11337
G1 X144.296 Y142.638 E9.19148
G1 X144.017 Y142.970 E9.21439
G1 X142.970 Y144.017 E9.29249
G1 X142.638 Y144.296 E9.31540
G1 X141.425 Y145.145 E9.39352
G1 X141.049 Y145.362 E9.41643
G1 X139.707 Y145.988 E9.49456
G1 X139.299 Y146.137 E9.51750
G1 X137.869 Y146.520 E9.59558
G1 X137.442 Y146.595 E9.61847
G1 X136.076 Y146.715 E9.69086
G1 X83.924 Y146.715 E12.44274
G1 X82.558 Y146.595 E12.51511
G1 X82.130 Y146.520 E12.53803
G1 X80.701 Y146.137 E12.61612
G1 X80.292 Y145.988 E12.63907
G1 X78.951 Y145.363 E12.71716
G1 X78.575 Y145.145 E12.74009
G1 X77.362 Y144.296 E12.81819
G1 X77.030 Y144.017 E12.84111
G1 X75.982 Y142.970 E12.91926
G1 X75.704 Y142.638 E12.94215
G1 X74.854 Y141.425 E13.02027
G1 X74.637 Y141.049 E13.04317
G1 X74.012 Y139.707 E13.12131
G1 X73.863 Y139.299 E13.14422
G1 X73.480 Y137.869 E13.22234
G1 X73.405 Y137.442 E13.24522
G1 X73.285 Y136.075 E13.31760
G1 X73.276 Y84.141 E16.05801
G1 X73.405 Y82.558 E16.14183
G1 X73.480 Y82.131 E16.16474
G1 X73.863 Y80.701 E16.24282
G1 X74.012 Y80.293 E16.26576
G1 X74.638 Y78.951 E16.34391
G1 X74.855 Y78.575 E16.36681
G1 X75.704 Y77.362 E16.44493
G1 X75.983 Y77.030 E16.46783
G1 X76.464 Y76.549 E16.50372
G1 X76.877 Y76.876 F5400.000
G1 X77.384 Y76.369 E16.54158 F1200.000
G1 X77.681 Y76.120 E16.56206
G1 X78.856 Y75.297 E16.63776
G1 X79.192 Y75.103 E16.65824
G1 X80.493 Y74.496 E16.73397
G1 X80.858 Y74.363 E16.75447
G1 X82.244 Y73.992 E16.83018
G1 X82.627 Y73.925 E16.85067
G1 X83.959 Y73.808 E16.92124
G1 X135.847 Y73.799 E19.65925
G1 X137.373 Y73.924 E19.74005 F1200.000
G1 X137.755 Y73.992 E19.76053
G1 X139.141 Y74.363 E19.83624
G1 X139.507 Y74.496 E19.85675
G1 X140.807 Y75.102 E19.93245
G1 X141.308 Y75.412 E19.96353
G1 X142.319 Y76.119 E20.02864
G1 X142.616 Y76.369 E20.04914
G1 X143.631 Y77.383 E20.12482
G1 X143.880 Y77.681 E20.14534
G1 X144.703 Y78.856 E20.22103
G1 X144.898 Y79.193 E20.24155
G1 X145.504 Y80.493 E20.31723
G1 X145.637 Y80.858 E20.33776
G1 X146.008 Y82.244 E20.41345
G1 X146.075 Y82.627 E20.43395
G1 X146.201 Y84.153 E20.51476
G1 X146.201 Y135.847 E23.24253
G1 X146.076 Y137.373 E23.32333
G1 X146.008 Y137.756 E23.34383
G1 X145.637 Y139.141 E23.41951
G1 X145.504 Y139.507 E23.44003
G1 X144.897 Y140.807 E23.51576
G1 X144.703 Y141.144 E23.53625
G1 X143.880 Y142.319 E23.61194
G1 X143.631 Y142.616 E23.63245
G1 X142.616 Y143.631 E23.70814
G1 X142.319 Y143.880 E23.72863
G1 X141.144 Y144.703 E23.80434
G1 X140.807 Y144.898 E23.82484
G1 X139.507 Y145.504 E23.90056
G1 X139.141 Y145.637 E23.92108
G1 X137.756 Y146.008 E23.99675
G1 X137.374 Y146.075 E24.01723
G1 X136.041 Y146.192 E24.08781
G1 X83.959 Y146.192 E26.83607
G1 X82.627 Y146.075 E26.90664
G1 X82.244 Y146.008 E26.92714
G1 X80.858 Y145.637 E27.00282
G1 X80.493 Y145.504 E27.02335
G1 X79.193 Y144.898 E27.09904
G1 X78.856 Y144.703 E27.11955
G1 X77.681 Y143.881 E27.19524
G1 X77.384 Y143.631 E27.21574
G1 X76.369 Y142.616 E27.29148
G1 X76.119 Y142.318 E27.31196
G1 X75.296 Y141.143 E27.38766
G1 X75.102 Y140.807 E27.40816
G1 X74.496 Y139.506 E27.48387
G1 X74.363 Y139.141 E27.50437
G1 X73.992 Y137.755 E27.58008
G1 X73.924 Y137.373 E27.60056
G1 X73.808 Y136.041 E27.67113
G1 X73.799 Y84.153 E30.40913
G1 X73.925 Y82.627 E30.48993
G1 X73.992 Y82.244 E30.51043
G1 X74.363 Y80.859 E30.58610
G1 X74.496 Y80.493 E30.60662
G1 X75.103 Y79.193 E30.68236
G1 X75.297 Y78.856 E30.70285
G1 X76.120 Y77.681 E30.77855
G1 X76.369 Y77.384 E30.79905
G1 X76.834 Y76.919 E30.83373
G1 X77.247 Y77.247 F5400.000
G1 X77.738 Y76.756 E30.87038 F1200.000
G1 X78.000 Y76.535 E30.88845
G1 X79.138 Y75.739 E30.96173
G1 X79.434 Y75.567 E30.97981
G1 X80.694 Y74.980 E31.05312
G1 X81.016 Y74.863 E31.07121
G1 X82.358 Y74.504 E31.14451
G1 X82.695 Y74.444 E31.16259
G1 X83.993 Y74.330 E31.23134
G1 X136.007 Y74.330 E33.97597
G1 X137.305 Y74.444 E34.04473 F1200.000
G1 X137.642 Y74.504 E34.06280
G1 X138.984 Y74.863 E34.13609
G1 X139.306 Y74.980 E34.15419
G1 X140.565 Y75.567 E34.22748
G1 X140.861 Y75.738 E34.24555
G1 X142.000 Y76.535 E34.31887
G1 X142.262 Y76.756 E34.33696
G1 X143.244 Y77.738 E34.41023
G1 X143.465 Y78.000 E34.42833
G1 X144.261 Y79.138 E34.50161
G1 X144.433 Y79.435 E34.51971
G1 X145.020 Y80.693 E34.59298
G1 X145.137 Y81.016 E34.61110
G1 X145.496 Y82.357 E34.68437
G1 X145.556 Y82.695 E34.70246
G1 X145.677 Y84.164 E34.78026
G1 X145.677 Y135.836 E37.50682
G1 X145.556 Y137.305 E37.58461
G1 X145.496 Y137.642 E37.60270
G1 X145.137 Y138.984 E37.67597
G1 X145.020 Y139.306 E37.69408
G1 X144.433 Y140.565 E37.76739
G1 X144.261 Y140.862 E37.78547
G1 X143.465 Y142.000 E37.85875
G1 X143.244 Y142.262 E37.87684
G1 X142.262 Y143.244 E37.95012
G1 X142.000 Y143.465 E37.96821
G1 X140.862 Y144.261 E38.04149
G1 X140.565 Y144.433 E38.05959
G1 X139.306 Y145.020 E38.13289
G1 X138.984 Y145.137 E38.15099
G1 X137.643 Y145.496 E38.22426
G1 X137.305 Y145.556 E38.24233
G1 X136.007 Y145.670 E38.31110
G1 X83.993 Y145.669 E41.05574
G1 X82.695 Y145.556 E41.12450
G1 X82.357 Y145.496 E41.14259
G1 X81.016 Y145.137 E41.21586
G1 X80.693 Y145.020 E41.23397
G1 X79.435 Y144.433 E41.30724
G1 X79.138 Y144.261 E41.32534
G1 X78.000 Y143.465 E41.39862
G1 X77.738 Y143.244 E41.41671
G1 X76.755 Y142.262 E41.49003
G1 X76.535 Y141.999 E41.50810
G1 X75.738 Y140.862 E41.58139
G1 X75.567 Y140.565 E41.59948
G1 X74.980 Y139.306 E41.67278
G1 X74.863 Y138.984 E41.69087
G1 X74.504 Y137.642 E41.76416
G1 X74.444 Y137.305 E41.78223
G1 X74.323 Y135.836 E41.86002
G1 X74.323 Y84.164 E44.58658
G1 X74.444 Y82.695 E44.66437
G1 X74.504 Y82.358 E44.68245
G1 X74.863 Y81.016 E44.75571
G1 X74.980 Y80.694 E44.77383
G1 X75.567 Y79.435 E44.84714
G1 X75.739 Y79.138 E44.86523
G1 X76.535 Y78.000 E44.93851
G1 X76.756 Y77.738 E44.95660
G1 X77.204 Y77.289 E44.99007
G1 X77.617 Y77.617 F5400.000
G1 X78.092 Y77.142 E45.02551 F1200.000
G1 X78.319 Y76.951 E45.04117
G1 X79.419 Y76.181 E45.11205
G1 X79.677 Y76.032 E45.12771
G1 X80.894 Y75.464 E45.19861
G1 X81.173 Y75.363 E45.21429
G1 X82.471 Y75.015 E45.28517
G1 X82.763 Y74.964 E45.30084
G1 X84.027 Y74.853 E45.36778
G1 X135.824 Y74.847 E48.10097
G1 X137.236 Y74.964 E48.17575 F1200.000
G1 X137.529 Y75.015 E48.19141
G1 X138.826 Y75.363 E48.26229
G1 X139.106 Y75.464 E48.27797
G1 X140.323 Y76.032 E48.34884
G1 X140.707 Y76.270 E48.37270
G1 X141.681 Y76.951 E48.43539
G1 X141.908 Y77.142 E48.45107
