; generated by Slic3r 1.2.9 on 2019-06-23 at 19:06:24

; external perimeters extrusion width = 0.40mm
; perimeters extrusion width = 0.67mm
; infill extrusion width = 0.67mm
; solid infill extrusion width = 0.67mm
; top infill extrusion width = 0.67mm
; support material extrusion width = 0.40mm

M107
M83 ; use relative distances for extrusion
G28 ; home axes
M201 X900 Y900 ; Set max acceleration in X and Y [mm/s^2] ; MM
M204 S900 P500 ; Set actual acceleration S..Travel P..Print ; MM
M203 Z20 E200 ; Set max feedrate
M205 X8 Y8 ; Set xy max jerk [mm/s] starting from that speed it uses
acceleration ; MM
M84 S0 ; Disable Stepper Timeout
G0 Z6 F4000
M104 S160 ;
M140 S55;
G1 X10 Y10 F9000 ; go to front of bed
G1 X100 Y10 F9000 ; go to front of bed
G1 Z0.10 ; use the bed to block the nozzle to prevent ooze
M190 S55;
M109 S210;
G92 E0    ; zero the extruder
G1 X80 E24 F500 ; make a blob/line (2cm)
G1 X10 F4000 ; wipe along the edge of the bed
G1 Y15 F4000 ; wipe along the edge of the bed
G1 X180 F4000 ; wipe along the edge of the bed
G1 Z0.5     ; lift before move to center
M82 ;
G21 ; set units to millimeters
G90 ; use absolute coordinates
M82 ; use absolute distances for extrusion
G92 E0
G1 E-2.00000 F1800.00000
G92 E0
G1 Z0.240 F5400.000
G1 X84.893 Y84.893 F5400.000
G1 E2.00000 F1800.00000
G1 X85.447 Y84.338 E2.04139 F1200.000
G1 X86.725 Y83.266 E2.12942
G1 X88.010 Y82.366 E2.21220
G1 X89.455 Y81.532 E2.30023
G1 X90.877 Y80.869 E2.38302
G1 X92.445 Y80.298 E2.47105
G1 X93.960 Y79.892 E2.55383
G1 X95.603 Y79.602 E2.64186
G1 X97.166 Y79.466 E2.72464
G1 X98.928 Y79.474 E2.81762
G1 X100.397 Y79.602 E2.89544 F1200.000
G1 X102.040 Y79.892 E2.98347
G1 X103.555 Y80.298 E3.06625
G1 X105.123 Y80.869 E3.15428
G1 X106.545 Y81.532 E3.23706
G1 X107.990 Y82.366 E3.32510
G1 X109.275 Y83.266 E3.40788
G1 X110.553 Y84.338 E3.49591
G1 X135.662 Y109.447 E5.36967
G1 X136.734 Y110.725 E5.45771
G1 X137.634 Y112.010 E5.54049
G1 X138.468 Y113.455 E5.62852
G1 X139.131 Y114.877 E5.71130
G1 X139.702 Y116.445 E5.79933
G1 X140.108 Y117.960 E5.88211
G1 X140.398 Y119.603 E5.97015
G1 X140.534 Y121.166 E6.05293
G1 X140.534 Y122.834 E6.14096
G1 X140.398 Y124.397 E6.22374
G1 X140.108 Y126.040 E6.31177
G1 X139.702 Y127.555 E6.39455
G1 X139.131 Y129.123 E6.48258
G1 X138.468 Y130.545 E6.56537
G1 X137.634 Y131.990 E6.65340
G1 X136.734 Y133.275 E6.73618
G1 X135.662 Y134.553 E6.82421
G1 X134.553 Y135.662 E6.90699
G1 X133.275 Y136.734 E6.99502
G1 X131.990 Y137.634 E7.07781
G1 X130.545 Y138.468 E7.16584
G1 X129.123 Y139.131 E7.24862
G1 X127.555 Y139.702 E7.33665
G1 X126.040 Y140.108 E7.41943
G1 X124.397 Y140.398 E7.50747
G1 X122.834 Y140.534 E7.59025
G1 X122.000 Y140.571 E7.63431
G1 X98.000 Y140.571 E8.90072
G1 X97.166 Y140.534 E8.94478
G1 X95.603 Y140.398 E9.02756
G1 X93.869 Y140.084 E9.12054
G1 X92.445 Y139.702 E9.19836
G1 X90.877 Y139.131 E9.28639
G1 X89.455 Y138.468 E9.36917
G1 X88.010 Y137.634 E9.45720
G1 X86.725 Y136.734 E9.53998
G1 X85.447 Y135.662 E9.62802
G1 X84.338 Y134.553 E9.71080
G1 X83.266 Y133.275 E9.79883
G1 X82.366 Y131.990 E9.88161
G1 X81.532 Y130.545 E9.96964
G1 X80.869 Y129.123 E10.05243
G1 X80.298 Y127.555 E10.14045
G1 X79.892 Y126.040 E10.22324
G1 X79.602 Y124.397 E10.31127
G1 X79.466 Y122.834 E10.39406
G1 X79.429 Y122.000 E10.43811
G1 X79.429 Y98.000 E11.70452
G1 X79.466 Y97.166 E11.74858
G1 X79.602 Y95.603 E11.83137
G1 X79.892 Y93.960 E11.91940
G1 X80.298 Y92.445 E12.00218
G1 X80.869 Y90.877 E12.09021
G1 X81.532 Y89.455 E12.17299
G1 X82.366 Y88.010 E12.26102
G1 X83.266 Y86.725 E12.34381
G1 X84.338 Y85.447 E12.43184
G1 X84.850 Y84.935 E12.47006
G1 X85.263 Y85.263 F5400.000
G1 X85.818 Y84.708 E12.51145 F1200.000
G1 X87.026 Y83.695 E12.59467
G1 X88.311 Y82.795 E12.67745
G1 X89.677 Y82.006 E12.76067
G1 X91.098 Y81.343 E12.84345
G1 X92.580 Y80.804 E12.92666
G1 X94.096 Y80.398 E13.00944
G1 X95.649 Y80.124 E13.09266
G1 X97.211 Y79.987 E13.17544
G1 X98.882 Y79.995 E13.26360
G1 X100.351 Y80.124 E13.34142 F1200.000
G1 X101.904 Y80.398 E13.42463
G1 X103.420 Y80.804 E13.50742
G1 X104.902 Y81.343 E13.59063
G1 X106.323 Y82.006 E13.67341
G1 X107.689 Y82.795 E13.75663
G1 X108.974 Y83.695 E13.83941
G1 X110.182 Y84.708 E13.92263
G1 X135.292 Y109.818 E15.79639
G1 X136.305 Y111.026 E15.87961
G1 X137.205 Y112.311 E15.96239
G1 X137.994 Y113.677 E16.04561
G1 X138.657 Y115.098 E16.12839
G1 X139.196 Y116.580 E16.21160
G1 X139.602 Y118.096 E16.29438
G1 X139.876 Y119.649 E16.37760
G1 X140.013 Y121.211 E16.46038
G1 X140.013 Y122.789 E16.54360
G1 X139.876 Y124.351 E16.62638
G1 X139.602 Y125.904 E16.70960
G1 X139.196 Y127.420 E16.79238
G1 X138.657 Y128.902 E16.87559
G1 X137.994 Y130.323 E16.95837
G1 X137.205 Y131.689 E17.04159
G1 X136.305 Y132.974 E17.12438
G1 X135.292 Y134.182 E17.20759
G1 X134.182 Y135.292 E17.29037
G1 X132.974 Y136.305 E17.37358
G1 X131.689 Y137.205 E17.45637
G1 X130.323 Y137.994 E17.53958
G1 X128.902 Y138.657 E17.62237
G1 X127.420 Y139.196 E17.70558
G1 X125.904 Y139.602 E17.78836
G1 X124.351 Y139.876 E17.87158
G1 X122.789 Y140.013 E17.95436
G1 X122.000 Y140.047 E17.99601
G1 X98.000 Y140.047 E19.26242
G1 X97.211 Y140.013 E19.30407
G1 X95.649 Y139.876 E19.38685
G1 X94.096 Y139.602 E19.47007
G1 X92.580 Y139.196 E19.55285
G1 X91.098 Y138.657 E19.63606
G1 X89.677 Y137.994 E19.71884
G1 X88.311 Y137.205 E19.80206
G1 X87.026 Y136.305 E19.88484
G1 X85.818 Y135.292 E19.96806
G1 X84.708 Y134.182 E20.05084
G1 X83.695 Y132.974 E20.13406
G1 X82.795 Y131.689 E20.21684
G1 X82.006 Y130.323 E20.30006
G1 X81.343 Y128.902 E20.38284
G1 X80.804 Y127.420 E20.46605
G1 X80.398 Y125.904 E20.54884
G1 X80.124 Y124.351 E20.63205
G1 X79.987 Y122.788 E20.71484
G1 X79.953 Y122.000 E20.75648
G1 X79.953 Y98.000 E22.02289
G1 X79.987 Y97.211 E22.06454
G1 X80.124 Y95.649 E22.14733
G1 X80.398 Y94.096 E22.23054
G1 X80.804 Y92.580 E22.31332
G1 X81.343 Y91.098 E22.39654
G1 X82.006 Y89.676 E22.47932
G1 X82.795 Y88.311 E22.56253
G1 X83.695 Y87.026 E22.64532
G1 X84.708 Y85.818 E22.72853
G1 X85.221 Y85.305 E22.76676
G1 X85.633 Y85.633 F5400.000
G1 X86.188 Y85.079 E22.80815 F1200.000
G1 X87.326 Y84.123 E22.88655
G1 X88.611 Y83.224 E22.96933
G1 X89.898 Y82.481 E23.04773
G1 X91.320 Y81.818 E23.13051
G1 X92.716 Y81.310 E23.20891
G1 X94.231 Y80.904 E23.29169
G1 X95.694 Y80.646 E23.37009
G1 X97.257 Y80.509 E23.45287
G1 X98.837 Y80.517 E23.53622
G1 X100.306 Y80.646 E23.61404 F1200.000
G1 X101.769 Y80.904 E23.69243
G1 X103.284 Y81.310 E23.77522
G1 X104.680 Y81.818 E23.85361
G1 X106.102 Y82.481 E23.93640
G1 X107.389 Y83.224 E24.01480
G1 X108.674 Y84.123 E24.09758
G1 X109.812 Y85.078 E24.17598
G1 X134.921 Y110.188 E26.04974
G1 X135.877 Y111.326 E26.12814
G1 X136.776 Y112.611 E26.21093
G1 X137.519 Y113.898 E26.28933
G1 X138.182 Y115.320 E26.37211
G1 X138.690 Y116.716 E26.45051
G1 X139.096 Y118.231 E26.53329
G1 X139.354 Y119.694 E26.61169
G1 X139.491 Y121.257 E26.69447
G1 X139.491 Y122.743 E26.77287
G1 X139.354 Y124.306 E26.85565
G1 X139.096 Y125.769 E26.93405
G1 X138.690 Y127.284 E27.01683
G1 X138.182 Y128.680 E27.09523
G1 X137.519 Y130.102 E27.17801
G1 X136.776 Y131.389 E27.25641
G1 X135.876 Y132.674 E27.33920
G1 X134.921 Y133.812 E27.41759
G1 X133.812 Y134.921 E27.50038
G1 X132.674 Y135.877 E27.57877
G1 X131.389 Y136.776 E27.66156
G1 X130.102 Y137.519 E27.73996
G1 X128.680 Y138.182 E27.82274
G1 X127.284 Y138.690 E27.90114
G1 X125.769 Y139.096 E27.98392
G1 X124.306 Y139.354 E28.06232
G1 X122.743 Y139.491 E28.14510
G1 X122.000 Y139.524 E28.18434
G1 X98.000 Y139.524 E29.45075
G1 X97.257 Y139.491 E29.48999
G1 X95.694 Y139.354 E29.57277
G1 X94.140 Y139.072 E29.65612
G1 X92.716 Y138.690 E29.73394
G1 X91.320 Y138.182 E29.81233
G1 X89.898 Y137.519 E29.89512
G1 X88.611 Y136.776 E29.97352
G1 X87.326 Y135.877 E30.05630
G1 X86.188 Y134.921 E30.13470
G1 X85.079 Y133.812 E30.21748
G1 X84.123 Y132.674 E30.29588
G1 X83.224 Y131.389 E30.37866
G1 X82.481 Y130.102 E30.45706
G1 X81.818 Y128.680 E30.53985
G1 X81.310 Y127.284 E30.61824
G1 X80.904 Y125.769 E30.70103
G1 X80.646 Y124.306 E30.77942
G1 X80.509 Y122.743 E30.86221
G1 X80.476 Y122.000 E30.90144
G1 X80.476 Y98.000 E32.16786
G1 X80.509 Y97.257 E32.20710
G1 X80.646 Y95.694 E32.28988
G1 X80.904 Y94.231 E32.36828
G1 X81.310 Y92.716 E32.45106
G1 X81.818 Y91.320 E32.52946
G1 X82.481 Y89.898 E32.61224
G1 X83.224 Y88.611 E32.69064
G1 X84.124 Y87.326 E32.77343
G1 X85.079 Y86.188 E32.85182
G1 X85.591 Y85.676 E32.89005
G1 E30.89005 F1800.00000
G92 E0
G1 X104.198 Y128.198 F5400.000
G1 E2.00000 F1800.00000
G1 X103.656 Y128.741 E2.02694 F1200.000
G1 X102.400 Y129.620 E2.08080
G1 X101.010 Y130.269 E2.13467
G1 X99.528 Y130.666 E2.18854
G1 X98.000 Y130.799 E2.24241
G1 X96.472 Y130.666 E2.29628
G1 X94.990 Y130.269 E2.35015
G1 X93.600 Y129.620 E2.40402
G1 X92.344 Y128.741 E2.45788
G1 X91.259 Y127.656 E2.51175
G1 X90.380 Y126.400 E2.56562
G1 X89.731 Y125.010 E2.61949
G1 X89.334 Y123.528 E2.67336
G1 X89.201 Y122.000 E2.72723
G1 X89.334 Y120.472 E2.78110
G1 X89.731 Y118.990 E2.83496
G1 X90.347 Y117.670 E2.88614
G1 X90.380 Y117.600 E2.88883
G1 X91.259 Y116.344 E2.94270
G1 X92.344 Y115.259 E2.99657
G1 X93.600 Y114.380 E3.05044
G1 X94.990 Y113.731 E3.10431
G1 X96.472 Y113.334 E3.15817
G1 X98.000 Y113.201 E3.21204
G1 X98.076 Y113.207 E3.21473
G1 X99.528 Y113.334 E3.26591 F1200.000
G1 X101.010 Y113.731 E3.31978
G1 X102.400 Y114.380 E3.37365
G1 X103.656 Y115.259 E3.42752
G1 X104.741 Y116.344 E3.48139
G1 X105.620 Y117.600 E3.53525
G1 X106.269 Y118.990 E3.58912
G1 X106.666 Y120.472 E3.64299
G1 X106.799 Y122.000 E3.69686
G1 X106.666 Y123.528 E3.75073
G1 X106.269 Y125.010 E3.80460
G1 X105.620 Y126.400 E3.85847
G1 X104.741 Y127.656 E3.91233
G1 X104.241 Y128.156 E3.93716
G1 X103.812 Y128.095 F5400.000
G1 X103.890 Y127.890 F5400.000
G1 X103.375 Y128.405 E3.97562 F1200.000
G1 X102.181 Y129.241 E4.05253
G1 X100.860 Y129.857 E4.12943
G1 X99.452 Y130.234 E4.20634
G1 X98.000 Y130.362 E4.28325
G1 X96.548 Y130.234 E4.36016
G1 X95.140 Y129.857 E4.43707
G1 X93.819 Y129.241 E4.51398
G1 X92.625 Y128.405 E4.59089
G1 X91.595 Y127.375 E4.66780
G1 X90.759 Y126.181 E4.74471
G1 X90.143 Y124.860 E4.82161
G1 X89.766 Y123.452 E4.89852
G1 X89.638 Y122.000 E4.97543
G1 X89.766 Y120.548 E5.05234
G1 X90.143 Y119.140 E5.12925
G1 X90.742 Y117.854 E5.20413
G1 X91.595 Y116.625 E5.28304
G1 X92.625 Y115.595 E5.35995
G1 X93.819 Y114.759 E5.43686
G1 X95.140 Y114.143 E5.51376
G1 X96.548 Y113.766 E5.59067
G1 X98.038 Y113.642 E5.66958
G1 X99.452 Y113.766 E5.74446 F1200.000
G1 X100.860 Y114.143 E5.82137
G1 X102.181 Y114.759 E5.89828
G1 X103.375 Y115.595 E5.97519
G1 X104.405 Y116.625 E6.05210
G1 X105.241 Y117.819 E6.12901
G1 X105.857 Y119.140 E6.20591
G1 X106.234 Y120.548 E6.28282
G1 X106.362 Y122.000 E6.35973
G1 X106.234 Y123.452 E6.43664
G1 X105.857 Y124.860 E6.51355
G1 X105.241 Y126.181 E6.59046
G1 X104.405 Y127.375 E6.66737
G1 X103.932 Y127.848 E6.70265
G1 X103.520 Y127.520 F5400.000
G1 X103.037 Y128.003 E6.73869 F1200.000
G1 X101.918 Y128.786 E6.81077
G1 X100.680 Y129.363 E6.88284
G1 X99.361 Y129.717 E6.95492
G1 X98.000 Y129.836 E7.02699
G1 X96.639 Y129.717 E7.09907
G1 X95.320 Y129.363 E7.17114
G1 X94.082 Y128.786 E7.24322
G1 X92.963 Y128.003 E7.31529
G1 X91.997 Y127.037 E7.38736
G1 X91.214 Y125.918 E7.45944
G1 X90.637 Y124.680 E7.53151
G1 X90.283 Y123.361 E7.60359
G1 X90.164 Y122.000 E7.67566
G1 X90.283 Y120.639 E7.74774
G1 X90.637 Y119.320 E7.81981
G1 X91.214 Y118.082 E7.89189
G1 X91.997 Y116.963 E7.96396
G1 X92.963 Y115.997 E8.03604
G1 X94.082 Y115.214 E8.10811
G1 X95.320 Y114.637 E8.18018
G1 X96.639 Y114.283 E8.25226
G1 X98.000 Y114.164 E8.32433
G1 X99.361 Y114.283 E8.39641
G1 X100.680 Y114.637 E8.46848 F1200.000
G1 X101.918 Y115.214 E8.54056
G1 X103.037 Y115.997 E8.61263
G1 X104.003 Y116.963 E8.68471
G1 X104.786 Y118.082 E8.75678
G1 X105.363 Y119.320 E8.82885
G1 X105.717 Y120.639 E8.90093
G1 X105.836 Y122.000 E8.97300
G1 X105.717 Y123.361 E9.04508
G1 X105.363 Y124.680 E9.11715
G1 X104.786 Y125.918 E9.18923
G1 X104.003 Y127.037 E9.26130
G1 X103.562 Y127.477 E9.29417
G1 X103.150 Y127.149 F5400.000
G1 X102.699 Y127.600 E9.32779 F1200.000
G1 X101.655 Y128.331 E9.39503
G1 X100.500 Y128.869 E9.46227
G1 X99.269 Y129.199 E9.52951
G1 X98.000 Y129.310 E9.59675
G1 X96.731 Y129.199 E9.66399
G1 X95.500 Y128.869 E9.73123
G1 X94.345 Y128.331 E9.79847
G1 X93.301 Y127.600 E9.86571
G1 X92.400 Y126.699 E9.93295
G1 X91.669 Y125.655 E10.00019
G1 X91.131 Y124.500 E10.06743
G1 X90.801 Y123.269 E10.13467
G1 X90.690 Y122.000 E10.20191
G1 X90.801 Y120.731 E10.26915
G1 X91.131 Y119.500 E10.33639
G1 X91.669 Y118.345 E10.40363
G1 X92.400 Y117.301 E10.47087
G1 X93.301 Y116.400 E10.53811
G1 X94.345 Y115.669 E10.60535
G1 X95.500 Y115.131 E10.67259
G1 X96.731 Y114.801 E10.73983
G1 X98.000 Y114.690 E10.80707
G1 X99.269 Y114.801 E10.87431
G1 X100.500 Y115.131 E10.94155 F1200.000
G1 X101.655 Y115.669 E11.00879
G1 X102.699 Y116.400 E11.07603
G1 X103.600 Y117.301 E11.14327
G1 X104.331 Y118.345 E11.21051
G1 X104.869 Y119.500 E11.27775
G1 X105.199 Y120.731 E11.34499
G1 X105.310 Y122.000 E11.41223
G1 X105.199 Y123.269 E11.47947
G1 X104.869 Y124.500 E11.54672
G1 X104.331 Y125.655 E11.61396
G1 X103.600 Y126.699 E11.68120
G1 X103.192 Y127.107 E11.71165
G1 X95.564 Y128.490 F5400.000
G1 X91.510 Y124.436 E12.01549 F1200.000
G1 X91.186 Y123.368 E12.07468
G1 X96.632 Y128.814 E12.48293
G1 X97.503 Y128.942 E12.52960
G1 X91.058 Y122.497 E13.01272
G1 X91.020 Y121.715 E13.05421
G1 X98.285 Y128.980 E13.59877
G1 X98.969 Y128.920 E13.63516
G1 X91.080 Y121.031 E14.22651
G1 X91.190 Y120.396 E14.26065
G1 X99.604 Y128.810 E14.89138
G1 X100.190 Y128.653 E14.92357
G1 X91.347 Y119.810 E15.58650
G1 X91.546 Y119.265 E15.61724
G1 X100.735 Y128.454 E16.30604
G1 X101.242 Y128.217 E16.33571
G1 X91.783 Y118.758 E17.04480
G1 X92.046 Y118.278 E17.07384
G1 X101.722 Y127.954 E17.79918
G1 X102.160 Y127.648 E17.82748
G1 X92.352 Y117.840 E18.56265
G1 X92.682 Y117.426 E18.59071
G1 X102.574 Y127.318 E19.33221
G1 X102.946 Y126.946 E19.36009
G1 X93.054 Y117.054 E20.10158
G1 X93.426 Y116.682 E20.12946
G1 X103.318 Y126.574 E20.87096
G1 X103.647 Y126.160 E20.89902
G1 X93.840 Y116.352 E21.63419
G1 X94.278 Y116.046 E21.66249
G1 X103.954 Y125.722 E22.38783
G1 X104.217 Y125.242 E22.41687
G1 X94.758 Y115.783 E23.12597
G1 X95.265 Y115.546 E23.15563
G1 X104.454 Y124.735 E23.84444
G1 X104.653 Y124.190 E23.87517
G1 X95.810 Y115.347 E24.53810
G1 X96.396 Y115.190 E24.57029
G1 X104.810 Y123.604 E25.20103
G1 X104.920 Y122.969 E25.23516
G1 X97.031 Y115.080 E25.82651
G1 X97.715 Y115.020 E25.86291
G1 X104.980 Y122.285 E26.40747
G1 X104.942 Y121.503 E26.44896
G1 X98.497 Y115.058 E26.93208
G1 X99.368 Y115.186 E26.97875
G1 X104.814 Y120.632 E27.38701
G1 X104.490 Y119.564 E27.44619
G1 X100.436 Y115.510 E27.75004
G1 X102.219 Y116.550 F5400.000
G1 X103.450 Y117.781 E27.84232 F1200.000
G1 X93.781 Y127.450 F5400.000
G1 X92.550 Y126.219 E27.93459 F1200.000
G1 E25.93459 F1800.00000
G92 E0
G1 X104.198 Y104.198 F5400.000
G1 E2.00000 F1800.00000
G1 X103.656 Y104.741 E2.02694 F1200.000
G1 X102.400 Y105.620 E2.08080
G1 X101.010 Y106.269 E2.13467
G1 X99.528 Y106.666 E2.18854
G1 X98.000 Y106.799 E2.24241
G1 X96.472 Y106.666 E2.29628
G1 X94.990 Y106.269 E2.35015
G1 X93.600 Y105.620 E2.40402
G1 X92.344 Y104.741 E2.45788
G1 X91.259 Y103.656 E2.51175
G1 X90.380 Y102.400 E2.56562
G1 X89.731 Y101.010 E2.61949
G1 X89.334 Y99.528 E2.67336
G1 X89.201 Y98.000 E2.72723
G1 X89.334 Y96.472 E2.78110
G1 X89.731 Y94.990 E2.83496
G1 X90.347 Y93.670 E2.88614
G1 X90.380 Y93.600 E2.88883
G1 X91.259 Y92.344 E2.94270
G1 X92.344 Y91.259 E2.99657
G1 X93.600 Y90.380 E3.05044
G1 X94.990 Y89.731 E3.10431
G1 X96.472 Y89.334 E3.15817
G1 X98.000 Y89.201 E3.21204
G1 X98.076 Y89.207 E3.21473
G1 X99.528 Y89.334 E3.26591 F1200.000
G1 X101.010 Y89.731 E3.31978
G1 X102.400 Y90.380 E3.37365
G1 X103.656 Y91.259 E3.42752
G1 X104.741 Y92.344 E3.48139
G1 X105.620 Y93.600 E3.53525
G1 X106.269 Y94.990 E3.58912
G1 X106.666 Y96.472 E3.64299
G1 X106.799 Y98.000 E3.69686
G1 X106.666 Y99.528 E3.75073
G1 X106.269 Y101.010 E3.80460
G1 X105.620 Y102.400 E3.85847
G1 X104.741 Y103.656 E3.91233
G1 X104.241 Y104.156 E3.93716
G1 X103.812 Y104.095 F5400.000
