; generated by Slic3r 1.2.9 on 2019-06-23 at 17:53:55

; external perimeters extrusion width = 0.40mm
; perimeters extrusion width = 0.67mm
; infill extrusion width = 0.67mm
; solid infill extrusion width = 0.67mm
; top infill extrusion width = 0.67mm
; support material extrusion width = 0.40mm

M107
M83 ; use relative distances for extrusion
G28 ; home axes
M201 X900 Y900 ; Set max acceleration in X and Y [mm/s^2] ; MM
M204 S900 P500 ; Set actual acceleration S..Travel P..Print ; MM
M203 Z20 E200 ; Set max feedrate
M205 X8 Y8 ; Set xy max jerk [mm/s] starting from that speed it uses
acceleration ; MM
M84 S0 ; Disable Stepper Timeout
G0 Z6 F4000
M104 S160 ;
M140 S55;
G1 X10 Y10 F9000 ; go to front of bed
G1 X100 Y10 F9000 ; go to front of bed
G1 Z0.10 ; use the bed to block the nozzle to prevent ooze
M190 S55;
M109 S210;
G92 E0    ; zero the extruder
G1 X80 E24 F500 ; make a blob/line (2cm)
G1 X10 F4000 ; wipe along the edge of the bed
G1 Y15 F4000 ; wipe along the edge of the bed
G1 X180 F4000 ; wipe along the edge of the bed
G1 Z0.5     ; lift before move to center
M82 ;
G21 ; set units to millimeters
G90 ; use absolute coordinates
M82 ; use absolute distances for extrusion
G92 E0
G1 E-2.00000 F1800.00000
G92 E0
G1 Z0.240 F5400.000
G1 X96.893 Y96.893 F5400.000
G1 E2.00000 F1800.00000
G1 X97.447 Y96.338 E2.04139 F1200.000
G1 X98.725 Y95.266 E2.12942
G1 X100.010 Y94.366 E2.21220
G1 X101.455 Y93.532 E2.30023
G1 X102.877 Y92.869 E2.38302
G1 X104.445 Y92.298 E2.47105
G1 X105.960 Y91.892 E2.55383
G1 X107.603 Y91.602 E2.64186
G1 X109.166 Y91.466 E2.72464
G1 X110.928 Y91.474 E2.81762
G1 X112.397 Y91.602 E2.89544 F1200.000
G1 X114.040 Y91.892 E2.98347
G1 X115.555 Y92.298 E3.06625
G1 X117.123 Y92.869 E3.15428
G1 X118.545 Y93.532 E3.23706
G1 X119.990 Y94.366 E3.32510
G1 X121.275 Y95.266 E3.40788
G1 X122.553 Y96.338 E3.49591
G1 X123.662 Y97.447 E3.57869
G1 X124.734 Y98.725 E3.66672
G1 X125.634 Y100.010 E3.74950
G1 X126.468 Y101.455 E3.83754
G1 X127.131 Y102.877 E3.92032
G1 X127.702 Y104.445 E4.00835
G1 X128.108 Y105.960 E4.09113
G1 X128.398 Y107.603 E4.17916
G1 X128.534 Y109.166 E4.26194
G1 X128.534 Y110.834 E4.34997
G1 X128.398 Y112.397 E4.43276
G1 X128.108 Y114.040 E4.52079
G1 X127.702 Y115.555 E4.60357
G1 X127.131 Y117.123 E4.69160
G1 X126.468 Y118.545 E4.77438
G1 X125.634 Y119.990 E4.86242
G1 X124.734 Y121.275 E4.94520
G1 X123.662 Y122.553 E5.03323
G1 X122.553 Y123.662 E5.11601
G1 X121.275 Y124.734 E5.20404
G1 X119.990 Y125.634 E5.28682
G1 X118.545 Y126.468 E5.37486
G1 X117.123 Y127.131 E5.45764
G1 X115.555 Y127.702 E5.54567
G1 X114.040 Y128.108 E5.62845
G1 X112.397 Y128.398 E5.71648
G1 X110.834 Y128.534 E5.79926
G1 X109.166 Y128.534 E5.88730
G1 X107.603 Y128.398 E5.97008
G1 X105.960 Y128.108 E6.05811
G1 X104.445 Y127.702 E6.14089
G1 X102.877 Y127.131 E6.22892
G1 X101.455 Y126.468 E6.31170
G1 X100.010 Y125.634 E6.39974
G1 X98.725 Y124.734 E6.48252
G1 X97.447 Y123.662 E6.57055
G1 X96.338 Y122.553 E6.65333
G1 X95.266 Y121.275 E6.74136
G1 X94.366 Y119.990 E6.82414
G1 X93.532 Y118.545 E6.91218
G1 X92.869 Y117.123 E6.99496
G1 X92.298 Y115.555 E7.08299
G1 X91.892 Y114.040 E7.16578
G1 X91.602 Y112.397 E7.25380
G1 X91.466 Y110.834 E7.33659
G1 X91.466 Y109.166 E7.42462
G1 X91.602 Y107.603 E7.50740
G1 X91.892 Y105.960 E7.59543
G1 X92.298 Y104.445 E7.67821
G1 X92.869 Y102.877 E7.76624
G1 X93.532 Y101.455 E7.84903
G1 X94.366 Y100.010 E7.93706
G1 X95.266 Y98.725 E8.01984
G1 X96.338 Y97.447 E8.10787
G1 X96.850 Y96.935 E8.14610
G1 X97.263 Y97.263 F5400.000
G1 X97.818 Y96.708 E8.18748 F1200.000
G1 X99.026 Y95.695 E8.27070
G1 X100.311 Y94.795 E8.35348
G1 X101.677 Y94.006 E8.43670
G1 X103.098 Y93.343 E8.51948
G1 X104.580 Y92.804 E8.60269
G1 X106.096 Y92.398 E8.68548
G1 X107.649 Y92.124 E8.76869
G1 X109.211 Y91.987 E8.85147
G1 X110.882 Y91.995 E8.93964
G1 X112.351 Y92.124 E9.01745 F1200.000
G1 X113.904 Y92.398 E9.10067
G1 X115.420 Y92.804 E9.18345
G1 X116.902 Y93.343 E9.26666
G1 X118.323 Y94.006 E9.34945
G1 X119.689 Y94.795 E9.43266
G1 X120.974 Y95.695 E9.51545
G1 X122.182 Y96.708 E9.59866
G1 X123.292 Y97.818 E9.68144
G1 X124.305 Y99.026 E9.76466
G1 X125.205 Y100.311 E9.84744
G1 X125.994 Y101.677 E9.93066
G1 X126.657 Y103.098 E10.01344
G1 X127.196 Y104.580 E10.09665
G1 X127.602 Y106.096 E10.17943
G1 X127.876 Y107.649 E10.26265
G1 X128.013 Y109.211 E10.34543
G1 X128.013 Y110.789 E10.42865
G1 X127.876 Y112.351 E10.51143
G1 X127.602 Y113.904 E10.59465
G1 X127.196 Y115.420 E10.67743
G1 X126.657 Y116.902 E10.76064
G1 X125.994 Y118.323 E10.84342
G1 X125.205 Y119.689 E10.92664
G1 X124.305 Y120.974 E11.00943
G1 X123.292 Y122.182 E11.09264
G1 X122.182 Y123.292 E11.17542
G1 X120.974 Y124.305 E11.25863
G1 X119.689 Y125.205 E11.34142
G1 X118.323 Y125.994 E11.42463
G1 X116.902 Y126.657 E11.50742
G1 X115.420 Y127.196 E11.59063
G1 X113.904 Y127.602 E11.67341
G1 X112.351 Y127.876 E11.75663
G1 X110.789 Y128.013 E11.83941
G1 X109.211 Y128.013 E11.92262
G1 X107.649 Y127.876 E12.00541
G1 X106.096 Y127.602 E12.08862
G1 X104.580 Y127.196 E12.17140
G1 X103.098 Y126.657 E12.25462
G1 X101.677 Y125.994 E12.33740
G1 X100.311 Y125.205 E12.42062
G1 X99.026 Y124.305 E12.50340
G1 X97.818 Y123.292 E12.58661
G1 X96.708 Y122.182 E12.66940
G1 X95.695 Y120.974 E12.75261
G1 X94.795 Y119.689 E12.83539
G1 X94.006 Y118.323 E12.91861
G1 X93.343 Y116.902 E13.00140
G1 X92.804 Y115.420 E13.08460
G1 X92.398 Y113.904 E13.16739
G1 X92.124 Y112.351 E13.25060
G1 X91.987 Y110.788 E13.33339
G1 X91.987 Y109.211 E13.41660
G1 X92.124 Y107.649 E13.49938
G1 X92.398 Y106.096 E13.58260
G1 X92.804 Y104.580 E13.66538
G1 X93.343 Y103.098 E13.74859
G1 X94.006 Y101.676 E13.83138
G1 X94.795 Y100.311 E13.91459
G1 X95.695 Y99.026 E13.99738
G1 X96.708 Y97.818 E14.08059
G1 X97.221 Y97.305 E14.11882
G1 X97.633 Y97.633 F5400.000
G1 X98.188 Y97.079 E14.16021 F1200.000
G1 X99.326 Y96.123 E14.23860
G1 X100.611 Y95.224 E14.32139
G1 X101.898 Y94.481 E14.39979
G1 X103.320 Y93.818 E14.48257
G1 X104.716 Y93.310 E14.56097
G1 X106.231 Y92.904 E14.64375
G1 X107.694 Y92.646 E14.72215
G1 X109.257 Y92.509 E14.80493
G1 X110.837 Y92.517 E14.88828
G1 X112.306 Y92.646 E14.96609 F1200.000
G1 X113.769 Y92.904 E15.04449
G1 X115.284 Y93.310 E15.12728
G1 X116.680 Y93.818 E15.20567
G1 X118.102 Y94.481 E15.28845
G1 X119.389 Y95.224 E15.36686
G1 X120.674 Y96.123 E15.44964
G1 X121.812 Y97.078 E15.52804
G1 X122.921 Y98.188 E15.61082
G1 X123.877 Y99.326 E15.68922
G1 X124.776 Y100.611 E15.77200
G1 X125.519 Y101.898 E15.85040
G1 X126.182 Y103.320 E15.93318
G1 X126.690 Y104.716 E16.01158
G1 X127.096 Y106.231 E16.09436
G1 X127.354 Y107.694 E16.17276
G1 X127.491 Y109.257 E16.25554
G1 X127.491 Y110.743 E16.33394
G1 X127.354 Y112.306 E16.41673
G1 X127.096 Y113.769 E16.49513
G1 X126.690 Y115.284 E16.57791
G1 X126.182 Y116.680 E16.65631
G1 X125.519 Y118.102 E16.73909
G1 X124.776 Y119.389 E16.81749
G1 X123.876 Y120.674 E16.90027
G1 X122.921 Y121.812 E16.97867
G1 X121.812 Y122.921 E17.06145
G1 X120.674 Y123.877 E17.13985
G1 X119.389 Y124.776 E17.22263
G1 X118.102 Y125.519 E17.30103
G1 X116.680 Y126.182 E17.38381
G1 X115.284 Y126.690 E17.46221
G1 X113.769 Y127.096 E17.54499
G1 X112.306 Y127.354 E17.62339
G1 X110.743 Y127.491 E17.70618
G1 X109.257 Y127.491 E17.78458
G1 X107.694 Y127.354 E17.86736
G1 X106.231 Y127.096 E17.94576
G1 X104.716 Y126.690 E18.02854
G1 X103.320 Y126.182 E18.10694
G1 X101.898 Y125.519 E18.18972
G1 X100.611 Y124.776 E18.26812
G1 X99.326 Y123.877 E18.35090
G1 X98.188 Y122.921 E18.42930
G1 X97.079 Y121.812 E18.51208
G1 X96.123 Y120.674 E18.59048
G1 X95.224 Y119.389 E18.67326
G1 X94.481 Y118.102 E18.75167
G1 X93.818 Y116.680 E18.83445
G1 X93.310 Y115.284 E18.91284
G1 X92.904 Y113.769 E18.99563
G1 X92.646 Y112.306 E19.07403
G1 X92.509 Y110.743 E19.15682
G1 X92.509 Y109.257 E19.23521
G1 X92.646 Y107.694 E19.31799
G1 X92.904 Y106.231 E19.39639
G1 X93.310 Y104.716 E19.47917
G1 X93.818 Y103.320 E19.55757
G1 X94.481 Y101.898 E19.64035
G1 X95.224 Y100.611 E19.71875
G1 X96.124 Y99.326 E19.80154
G1 X97.079 Y98.188 E19.87993
G1 X97.591 Y97.676 E19.91816
G1 E17.91816 F1800.00000
G92 E0
G1 X100.143 Y100.143 F5400.000
G1 E2.00000 F1800.00000
G1 X100.851 Y99.435 E2.05285 F1200.000
G1 X101.184 Y99.156 E2.07577
G1 X102.825 Y98.007 E2.18147
G1 X103.201 Y97.789 E2.20439
G1 X105.016 Y96.943 E2.31009
G1 X105.425 Y96.794 E2.33301
G1 X107.360 Y96.276 E2.43871
G1 X107.787 Y96.200 E2.46163
G1 X109.783 Y96.026 E2.56733
G1 X110.217 Y96.026 E2.59025
G1 X110.527 Y96.053 E2.60668
G1 X112.213 Y96.200 E2.69595 F1200.000
G1 X112.640 Y96.276 E2.71887
G1 X114.575 Y96.794 E2.82457
G1 X114.984 Y96.943 E2.84749
G1 X116.799 Y97.789 E2.95319
G1 X117.175 Y98.007 E2.97612
G1 X118.816 Y99.156 E3.08182
G1 X119.149 Y99.435 E3.10474
G1 X120.565 Y100.851 E3.21044
G1 X120.844 Y101.184 E3.23336
G1 X121.993 Y102.825 E3.33906
G1 X122.211 Y103.201 E3.36198
G1 X123.057 Y105.016 E3.46768
G1 X123.206 Y105.425 E3.49060
G1 X123.724 Y107.360 E3.59630
G1 X123.800 Y107.787 E3.61922
G1 X123.974 Y109.783 E3.72492
G1 X123.974 Y110.217 E3.74784
G1 X123.800 Y112.213 E3.85354
G1 X123.724 Y112.640 E3.87646
G1 X123.206 Y114.575 E3.98216
G1 X123.057 Y114.984 E4.00508
G1 X122.211 Y116.799 E4.11078
G1 X121.993 Y117.175 E4.13370
G1 X120.844 Y118.816 E4.23941
G1 X120.565 Y119.149 E4.26233
G1 X119.149 Y120.565 E4.36803
G1 X118.816 Y120.844 E4.39095
G1 X117.175 Y121.993 E4.49665
G1 X116.799 Y122.211 E4.51957
G1 X114.984 Y123.057 E4.62527
G1 X114.575 Y123.206 E4.64819
G1 X112.640 Y123.724 E4.75389
G1 X112.213 Y123.800 E4.77681
G1 X110.217 Y123.974 E4.88251
G1 X109.783 Y123.974 E4.90543
G1 X107.787 Y123.800 E5.01113
G1 X107.360 Y123.724 E5.03405
G1 X105.425 Y123.206 E5.13975
G1 X105.016 Y123.057 E5.16267
G1 X103.201 Y122.211 E5.26837
G1 X102.825 Y121.993 E5.29130
G1 X101.184 Y120.844 E5.39700
G1 X100.851 Y120.565 E5.41992
G1 X99.435 Y119.149 E5.52562
G1 X99.156 Y118.816 E5.54854
G1 X98.007 Y117.175 E5.65424
G1 X97.789 Y116.799 E5.67716
G1 X96.943 Y114.983 E5.78286
G1 X96.794 Y114.575 E5.80578
G1 X96.276 Y112.640 E5.91148
G1 X96.200 Y112.213 E5.93440
G1 X96.026 Y110.217 E6.04011
G1 X96.026 Y109.783 E6.06302
G1 X96.200 Y107.787 E6.16872
G1 X96.276 Y107.360 E6.19164
G1 X96.794 Y105.425 E6.29734
G1 X96.943 Y105.016 E6.32026
G1 X97.789 Y103.201 E6.42597
G1 X98.007 Y102.825 E6.44888
G1 X99.156 Y101.184 E6.55459
G1 X99.435 Y100.851 E6.57751
G1 X100.101 Y100.185 E6.62719
G1 X100.513 Y100.513 F5400.000
G1 X101.205 Y99.821 E6.67883 F1200.000
G1 X101.503 Y99.571 E6.69934
G1 X103.106 Y98.449 E6.80263
G1 X103.443 Y98.254 E6.82314
G1 X105.217 Y97.427 E6.92643
G1 X105.582 Y97.294 E6.94693
G1 X107.473 Y96.788 E7.05022
G1 X107.856 Y96.720 E7.07073
G1 X109.806 Y96.549 E7.17402
G1 X110.194 Y96.549 E7.19452
G1 X112.144 Y96.720 E7.29781 F1200.000
G1 X112.527 Y96.787 E7.31832
G1 X114.418 Y97.294 E7.42161
G1 X114.783 Y97.427 E7.44212
G1 X116.557 Y98.254 E7.54541
G1 X116.894 Y98.449 E7.56591
G1 X118.497 Y99.571 E7.66920
G1 X118.795 Y99.821 E7.68971
G1 X120.179 Y101.205 E7.79300
G1 X120.429 Y101.503 E7.81350
G1 X121.551 Y103.106 E7.91679
G1 X121.746 Y103.443 E7.93730
G1 X122.573 Y105.217 E8.04059
G1 X122.706 Y105.582 E8.06110
G1 X123.212 Y107.473 E8.16438
G1 X123.280 Y107.856 E8.18489
G1 X123.451 Y109.806 E8.28818
G1 X123.451 Y110.194 E8.30869
G1 X123.280 Y112.144 E8.41198
G1 X123.212 Y112.527 E8.43249
G1 X122.706 Y114.418 E8.53577
G1 X122.573 Y114.783 E8.55628
G1 X121.746 Y116.557 E8.65957
G1 X121.551 Y116.894 E8.68008
G1 X120.429 Y118.497 E8.78337
G1 X120.179 Y118.795 E8.80387
G1 X118.795 Y120.179 E8.90716
G1 X118.497 Y120.429 E8.92767
G1 X116.894 Y121.551 E9.03096
G1 X116.557 Y121.746 E9.05147
G1 X114.783 Y122.573 E9.15475
G1 X114.418 Y122.706 E9.17526
G1 X112.527 Y123.212 E9.27855
G1 X112.144 Y123.280 E9.29906
G1 X110.194 Y123.451 E9.40234
G1 X109.806 Y123.451 E9.42285
G1 X107.856 Y123.280 E9.52614
G1 X107.473 Y123.212 E9.54665
G1 X105.582 Y122.706 E9.64994
G1 X105.217 Y122.573 E9.67044
G1 X103.443 Y121.746 E9.77373
G1 X103.106 Y121.551 E9.79424
G1 X101.503 Y120.429 E9.89753
G1 X101.205 Y120.179 E9.91804
G1 X99.821 Y118.795 E10.02132
G1 X99.571 Y118.497 E10.04183
G1 X98.449 Y116.894 E10.14512
G1 X98.254 Y116.557 E10.16563
G1 X97.427 Y114.783 E10.26892
G1 X97.294 Y114.418 E10.28942
G1 X96.787 Y112.527 E10.39271
G1 X96.720 Y112.144 E10.41322
G1 X96.549 Y110.194 E10.51651
G1 X96.549 Y109.806 E10.53702
G1 X96.720 Y107.856 E10.64030
G1 X96.788 Y107.473 E10.66081
G1 X97.294 Y105.582 E10.76410
G1 X97.427 Y105.217 E10.78461
G1 X98.254 Y103.443 E10.88790
G1 X98.449 Y103.106 E10.90840
G1 X99.571 Y101.503 E11.01169
G1 X99.821 Y101.205 E11.03220
G1 X100.471 Y100.556 E11.08068
G1 X100.884 Y100.883 F5400.000
G1 X101.559 Y100.208 E11.13112 F1200.000
G1 X101.822 Y99.987 E11.14921
G1 X103.388 Y98.891 E11.25009
G1 X103.685 Y98.719 E11.26818
G1 X105.418 Y97.911 E11.36906
G1 X105.740 Y97.794 E11.38715
G1 X107.586 Y97.299 E11.48803
G1 X107.924 Y97.240 E11.50612
G1 X109.829 Y97.073 E11.60700
G1 X110.171 Y97.073 E11.62509
G1 X110.436 Y97.096 E11.63911
G1 X112.076 Y97.240 E11.72597 F1200.000
G1 X112.414 Y97.299 E11.74406
G1 X114.260 Y97.794 E11.84494
G1 X114.582 Y97.911 E11.86303
G1 X116.315 Y98.719 E11.96391
G1 X116.612 Y98.891 E11.98200
G1 X118.178 Y99.987 E12.08288
G1 X118.441 Y100.208 E12.10098
G1 X119.792 Y101.559 E12.20185
G1 X120.013 Y101.822 E12.21995
G1 X121.109 Y103.388 E12.32082
G1 X121.281 Y103.685 E12.33892
G1 X122.089 Y105.418 E12.43979
G1 X122.206 Y105.740 E12.45789
G1 X122.701 Y107.586 E12.55876
G1 X122.760 Y107.924 E12.57686
G1 X122.927 Y109.829 E12.67773
G1 X122.927 Y110.171 E12.69583
G1 X122.760 Y112.076 E12.79670
G1 X122.701 Y112.414 E12.81480
G1 X122.206 Y114.260 E12.91567
G1 X122.089 Y114.582 E12.93377
G1 X121.281 Y116.315 E13.03465
G1 X121.109 Y116.612 E13.05274
G1 X120.013 Y118.178 E13.15362
G1 X119.792 Y118.441 E13.17171
G1 X118.441 Y119.792 E13.27259
G1 X118.178 Y120.013 E13.29068
G1 X116.612 Y121.109 E13.39156
G1 X116.315 Y121.281 E13.40965
G1 X114.582 Y122.089 E13.51053
G1 X114.260 Y122.206 E13.52862
G1 X112.414 Y122.701 E13.62950
G1 X112.076 Y122.760 E13.64760
G1 X110.171 Y122.927 E13.74847
G1 X109.829 Y122.927 E13.76657
G1 X107.924 Y122.760 E13.86744
G1 X107.586 Y122.701 E13.88554
G1 X105.740 Y122.206 E13.98641
G1 X105.418 Y122.089 E14.00451
G1 X103.685 Y121.281 E14.10538
G1 X103.388 Y121.109 E14.12348
G1 X101.822 Y120.013 E14.22435
G1 X101.559 Y119.792 E14.24245
G1 X100.208 Y118.441 E14.34332
G1 X99.987 Y118.178 E14.36142
G1 X98.891 Y116.612 E14.46229
G1 X98.719 Y116.315 E14.48039
G1 X97.911 Y114.582 E14.58127
G1 X97.794 Y114.260 E14.59936
G1 X97.299 Y112.414 E14.70024
G1 X97.240 Y112.076 E14.71833
G1 X97.073 Y110.171 E14.81921
G1 X97.073 Y109.829 E14.83730
G1 X97.240 Y107.924 E14.93818
G1 X97.299 Y107.586 E14.95627
G1 X97.794 Y105.740 E15.05715
G1 X97.911 Y105.418 E15.07524
G1 X98.719 Y103.685 E15.17612
G1 X98.891 Y103.388 E15.19421
G1 X99.987 Y101.822 E15.29509
G1 X100.208 Y101.559 E15.31318
G1 X100.841 Y100.926 E15.36046
G1 X101.254 Y101.254 F5400.000
G1 X101.913 Y100.594 E15.40969 F1200.000
G1 X102.141 Y100.403 E15.42537
G1 X103.670 Y99.333 E15.52383
G1 X103.927 Y99.184 E15.53952
G1 X105.618 Y98.395 E15.63798
G1 X105.897 Y98.294 E15.65366
G1 X107.700 Y97.811 E15.75212
G1 X108.234 Y97.738 E15.78059
G1 X109.851 Y97.597 E15.86624
G1 X110.149 Y97.597 E15.88192
G1 X112.007 Y97.759 E15.98039 F1200.000
G1 X112.300 Y97.811 E15.99607
G1 X114.103 Y98.294 E16.09453
G1 X114.382 Y98.395 E16.11021
G1 X116.073 Y99.184 E16.20868
G1 X116.330 Y99.333 E16.22436
G1 X117.859 Y100.403 E16.32282
G1 X118.087 Y100.594 E16.33851
G1 X119.406 Y101.913 E16.43697
G1 X119.597 Y102.141 E16.45265
G1 X120.667 Y103.670 E16.55111
G1 X120.816 Y103.927 E16.56680
G1 X121.605 Y105.618 E16.66526
G1 X121.706 Y105.897 E16.68094
G1 X122.189 Y107.700 E16.77941
G1 X122.241 Y107.993 E16.79509
G1 X122.403 Y109.851 E16.89355
G1 X122.403 Y110.149 E16.90923
G1 X122.241 Y112.007 E17.00770
G1 X122.189 Y112.300 E17.02338
G1 X121.706 Y114.103 E17.12184
G1 X121.605 Y114.382 E17.13752
G1 X120.816 Y116.073 E17.23599
G1 X120.667 Y116.330 E17.25167
G1 X119.597 Y117.859 E17.35014
G1 X119.406 Y118.087 E17.36582
G1 X118.087 Y119.406 E17.46428
