; generated by Slic3r 1.2.9 on 2019-08-08 at 00:11:26

; external perimeters extrusion width = 0.40mm
; perimeters extrusion width = 0.67mm
; infill extrusion width = 0.67mm
; solid infill extrusion width = 0.67mm
; top infill extrusion width = 0.67mm
; support material extrusion width = 0.40mm

M107
M83 ; use relative distances for extrusion
G28 ; home axes
M201 X900 Y900 ; Set max acceleration in X and Y [mm/s^2] ; MM
M204 S900 P500 ; Set actual acceleration S..Travel P..Print ; MM
M203 Z20 E200 ; Set max feedrate
M205 X8 Y8 ; Set xy max jerk [mm/s] starting from that speed it uses
acceleration ; MM
M84 S0 ; Disable Stepper Timeout
G0 Z6 F4000
M104 S160 ;
M140 S55;
G1 X10 Y10 F9000 ; go to front of bed
G1 X100 Y10 F9000 ; go to front of bed
G1 Z0.10 ; use the bed to block the nozzle to prevent ooze
M190 S55;
M109 S210;
G92 E0    ; zero the extruder
G1 X80 E24 F500 ; make a blob/line (2cm)
G1 X10 F4000 ; wipe along the edge of the bed
G1 Y15 F4000 ; wipe along the edge of the bed
G1 X180 F4000 ; wipe along the edge of the bed
G1 Z0.5     ; lift before move to center
M82 ;
G21 ; set units to millimeters
G90 ; use absolute coordinates
M82 ; use absolute distances for extrusion
G92 E0
G1 E-2.00000 F1800.00000
G92 E0
G1 Z0.240 F3600.000
M117 Printing layer 0
G1 X94.394 Y94.394 F3600.000
G1 E2.00000 F1800.00000
G1 X95.163 Y93.661 E2.05607 F1200.000
G1 X95.890 Y93.029 E2.10689
G1 X96.486 Y92.551 E2.14718
G1 X97.259 Y91.979 E2.19797
G1 X98.058 Y91.440 E2.24881
G1 X99.051 Y90.837 E2.31010
G1 X99.898 Y90.378 E2.36093
G1 X100.763 Y89.956 E2.41174
G1 X101.647 Y89.572 E2.46256
G1 X102.546 Y89.227 E2.51336
G1 X103.269 Y88.982 E2.55365
G1 X104.191 Y88.708 E2.60444
G1 X105.126 Y88.475 E2.65526
G1 X106.070 Y88.283 E2.70609
G1 X107.218 Y88.106 E2.76742
G1 X108.176 Y88.006 E2.81823
G1 X109.137 Y87.947 E2.86901
G1 X110.205 Y87.933 E2.92538
G1 X111.062 Y87.956 E2.97063 F1200.000
G1 X112.023 Y88.023 E3.02144
G1 X112.980 Y88.132 E3.07227
G1 X113.930 Y88.283 E3.12306
G1 X114.874 Y88.475 E3.17389
G1 X115.809 Y88.708 E3.22471
G1 X116.731 Y88.982 E3.27549
G1 X117.642 Y89.295 E3.32630
G1 X118.538 Y89.648 E3.37712
G1 X119.417 Y90.040 E3.42793
G1 X120.279 Y90.470 E3.47876
G1 X121.121 Y90.937 E3.52956
G1 X121.942 Y91.440 E3.58034
G1 X122.741 Y91.979 E3.63118
G1 X123.514 Y92.551 E3.68197
G1 X124.263 Y93.158 E3.73280
G1 X124.983 Y93.796 E3.78359
G1 X125.676 Y94.465 E3.83442
G1 X126.339 Y95.163 E3.88522
G1 X126.971 Y95.890 E3.93604
G1 X127.570 Y96.644 E3.98683
G1 X128.136 Y97.423 E4.03768
G1 X128.667 Y98.226 E4.08846
G1 X129.163 Y99.051 E4.13926
G1 X129.530 Y99.721 E4.17955
G1 X129.960 Y100.583 E4.23037
G1 X130.352 Y101.462 E4.28119
G1 X130.705 Y102.358 E4.33200
G1 X131.018 Y103.269 E4.38281
G1 X131.292 Y104.191 E4.43360
G1 X131.525 Y105.126 E4.48442
G1 X131.717 Y106.070 E4.53525
G1 X131.868 Y107.020 E4.58603
G1 X131.977 Y107.977 E4.63687
G1 X132.044 Y108.938 E4.68767
G1 X132.070 Y109.900 E4.73846
G1 X132.053 Y110.863 E4.78930
G1 X131.994 Y111.824 E4.84009
G1 X131.868 Y112.980 E4.90144
G1 X131.717 Y113.930 E4.95222
G1 X131.525 Y114.874 E5.00305
G1 X131.292 Y115.809 E5.05387
G1 X131.019 Y116.730 E5.10458
G1 X130.705 Y117.642 E5.15545
G1 X130.352 Y118.538 E5.20628
G1 X129.960 Y119.417 E5.25709
G1 X129.530 Y120.279 E5.30792
G1 X129.063 Y121.121 E5.35872
G1 X128.560 Y121.942 E5.40950
G1 X128.021 Y122.741 E5.46035
G1 X127.449 Y123.514 E5.51113
G1 X126.842 Y124.263 E5.56196
G1 X126.204 Y124.983 E5.61275
G1 X125.535 Y125.676 E5.66358
G1 X124.837 Y126.339 E5.71438
G1 X124.110 Y126.971 E5.76520
G1 X123.356 Y127.570 E5.81599
G1 X122.577 Y128.136 E5.86684
G1 X121.774 Y128.667 E5.91762
G1 X120.949 Y129.163 E5.96842
G1 X120.102 Y129.622 E6.01924
G1 X119.237 Y130.044 E6.07006
G1 X118.353 Y130.428 E6.12087
G1 X117.455 Y130.773 E6.17168
G1 X116.542 Y131.078 E6.22247
G1 X115.616 Y131.343 E6.27328
G1 X114.679 Y131.568 E6.32411
G1 X113.735 Y131.752 E6.37489
G1 X112.782 Y131.894 E6.42573
G1 X111.824 Y131.994 E6.47654
G1 X110.863 Y132.053 E6.52733
G1 X109.900 Y132.070 E6.57817
G1 X109.137 Y132.053 E6.61846
G1 X108.176 Y131.994 E6.66924
G1 X107.218 Y131.894 E6.72005
G1 X106.266 Y131.752 E6.77089
G1 X105.321 Y131.568 E6.82167
G1 X104.384 Y131.343 E6.87250
G1 X103.458 Y131.078 E6.92331
G1 X102.546 Y130.773 E6.97411
G1 X101.647 Y130.428 E7.02491
G1 X100.763 Y130.044 E7.07573
G1 X99.898 Y129.622 E7.12654
G1 X99.051 Y129.163 E7.17737
G1 X98.226 Y128.667 E7.22817
G1 X97.423 Y128.136 E7.27894
G1 X96.644 Y127.570 E7.32979
G1 X95.890 Y126.971 E7.38058
G1 X95.163 Y126.339 E7.43140
G1 X94.465 Y125.676 E7.48220
G1 X93.796 Y124.983 E7.53304
G1 X93.158 Y124.263 E7.58383
G1 X92.551 Y123.514 E7.63466
G1 X91.979 Y122.741 E7.68544
G1 X91.440 Y121.942 E7.73629
G1 X90.937 Y121.121 E7.78707
G1 X90.470 Y120.279 E7.83787
G1 X90.040 Y119.417 E7.88869
G1 X89.648 Y118.538 E7.93951
G1 X89.295 Y117.642 E7.99033
G1 X88.981 Y116.730 E8.04119
G1 X88.708 Y115.809 E8.09192
G1 X88.488 Y114.927 E8.13989
G1 X88.248 Y113.734 E8.20405
G1 X88.106 Y112.782 E8.25489
G1 X88.006 Y111.824 E8.30570
G1 X87.947 Y110.863 E8.35648
G1 X87.930 Y109.900 E8.40732
G1 X87.956 Y108.938 E8.45811
G1 X88.023 Y107.977 E8.50892
G1 X88.132 Y107.020 E8.55975
G1 X88.283 Y106.070 E8.61053
G1 X88.475 Y105.126 E8.66137
G1 X88.708 Y104.191 E8.71218
G1 X88.982 Y103.269 E8.76297
G1 X89.295 Y102.358 E8.81378
G1 X89.648 Y101.462 E8.86460
G1 X90.040 Y100.583 E8.91541
G1 X90.470 Y99.721 E8.96624
G1 X90.937 Y98.879 E9.01703
G1 X91.440 Y98.058 E9.06781
G1 X91.979 Y97.259 E9.11866
G1 X92.551 Y96.486 E9.16945
G1 X93.158 Y95.737 E9.22027
G1 X93.796 Y95.017 E9.27107
G1 X94.352 Y94.437 E9.31346
G1 X94.764 Y94.764 F3600.000
G1 X95.509 Y94.055 E9.36773 F1200.000
G1 X96.218 Y93.438 E9.41734
G1 X96.814 Y92.960 E9.45763
G1 X97.569 Y92.401 E9.50721
G1 X98.349 Y91.875 E9.55685
G1 X99.303 Y91.296 E9.61573
G1 X100.129 Y90.847 E9.66535
G1 X100.974 Y90.435 E9.71496
G1 X101.836 Y90.060 E9.76457
G1 X102.714 Y89.723 E9.81417
G1 X103.605 Y89.425 E9.86376
G1 X104.338 Y89.211 E9.90405
G1 X105.250 Y88.984 E9.95366
G1 X106.172 Y88.796 E10.00329
G1 X107.275 Y88.627 E10.06220
G1 X108.210 Y88.528 E10.11180
G1 X109.148 Y88.470 E10.16139
G1 X110.193 Y88.456 E10.21655
G1 X111.028 Y88.478 E10.26059 F1200.000
G1 X111.966 Y88.543 E10.31020
G1 X112.900 Y88.650 E10.35982
G1 X113.828 Y88.796 E10.40941
G1 X114.750 Y88.984 E10.45903
G1 X115.662 Y89.211 E10.50864
G1 X116.563 Y89.478 E10.55822
G1 X117.452 Y89.783 E10.60783
G1 X118.327 Y90.128 E10.65744
G1 X119.186 Y90.510 E10.70705
G1 X120.027 Y90.929 E10.75667
G1 X120.850 Y91.385 E10.80626
G1 X121.651 Y91.875 E10.85584
G1 X122.431 Y92.401 E10.90548
G1 X123.186 Y92.960 E10.95506
G1 X123.917 Y93.551 E11.00468
G1 X124.621 Y94.174 E11.05427
G1 X125.298 Y94.827 E11.10390
G1 X125.945 Y95.509 E11.15349
G1 X126.562 Y96.218 E11.20310
G1 X127.147 Y96.953 E11.25269
G1 X127.701 Y97.714 E11.30233
G1 X128.219 Y98.498 E11.35191
G1 X128.704 Y99.303 E11.40150
G1 X129.071 Y99.973 E11.44179
G1 X129.490 Y100.814 E11.49141
G1 X129.872 Y101.673 E11.54102
G1 X130.217 Y102.548 E11.59063
G1 X130.522 Y103.437 E11.64023
G1 X130.789 Y104.338 E11.68982
G1 X131.016 Y105.250 E11.73943
G1 X131.204 Y106.172 E11.78905
G1 X131.350 Y107.100 E11.83863
G1 X131.457 Y108.034 E11.88826
G1 X131.522 Y108.972 E11.93786
G1 X131.546 Y109.911 E11.98744
G1 X131.530 Y110.852 E12.03707
G1 X131.472 Y111.790 E12.08666
G1 X131.350 Y112.900 E12.14560
G1 X131.204 Y113.828 E12.19518
G1 X131.016 Y114.750 E12.24480
G1 X130.789 Y115.662 E12.29441
G1 X130.523 Y116.562 E12.34393
G1 X130.217 Y117.452 E12.39359
G1 X129.872 Y118.327 E12.44321
G1 X129.490 Y119.186 E12.49282
G1 X129.071 Y120.027 E12.54244
G1 X128.615 Y120.850 E12.59203
G1 X128.125 Y121.651 E12.64161
G1 X127.599 Y122.431 E12.69125
G1 X127.040 Y123.186 E12.74083
G1 X126.449 Y123.917 E12.79045
G1 X125.826 Y124.621 E12.84004
G1 X125.173 Y125.298 E12.88967
G1 X124.491 Y125.945 E12.93926
G1 X123.782 Y126.562 E12.98887
G1 X123.047 Y127.147 E13.03846
G1 X122.286 Y127.701 E13.08810
G1 X121.502 Y128.219 E13.13768
G1 X120.697 Y128.704 E13.18727
G1 X119.871 Y129.153 E13.23689
G1 X119.026 Y129.565 E13.28650
G1 X118.164 Y129.940 E13.33611
G1 X117.286 Y130.277 E13.38571
G1 X116.395 Y130.575 E13.43530
G1 X115.491 Y130.835 E13.48490
G1 X114.577 Y131.055 E13.53453
G1 X113.655 Y131.234 E13.58411
G1 X112.725 Y131.373 E13.63374
G1 X111.790 Y131.472 E13.68334
G1 X110.852 Y131.530 E13.73292
G1 X110.089 Y131.546 E13.77321
G1 X109.148 Y131.530 E13.82284
G1 X108.210 Y131.472 E13.87243
G1 X107.275 Y131.373 E13.92203
G1 X106.345 Y131.234 E13.97166
G1 X105.423 Y131.055 E14.02124
G1 X104.509 Y130.835 E14.07086
G1 X103.605 Y130.575 E14.12047
G1 X102.714 Y130.277 E14.17006
G1 X101.836 Y129.940 E14.21966
G1 X100.974 Y129.565 E14.26927
G1 X100.129 Y129.153 E14.31888
G1 X99.303 Y128.704 E14.36850
G1 X98.498 Y128.219 E14.41809
G1 X97.714 Y127.701 E14.46767
G1 X96.953 Y127.147 E14.51731
G1 X96.218 Y126.562 E14.56689
G1 X95.509 Y125.945 E14.61651
G1 X94.827 Y125.298 E14.66610
G1 X94.174 Y124.621 E14.71573
G1 X93.551 Y123.917 E14.76532
G1 X92.960 Y123.186 E14.81494
G1 X92.401 Y122.431 E14.86452
G1 X91.875 Y121.651 E14.91416
G1 X91.385 Y120.850 E14.96374
G1 X90.929 Y120.027 E15.01333
G1 X90.510 Y119.186 E15.06295
G1 X90.128 Y118.327 E15.11256
G1 X89.783 Y117.452 E15.16217
G1 X89.477 Y116.562 E15.21182
G1 X89.211 Y115.662 E15.26136
G1 X88.984 Y114.750 E15.31097
G1 X88.796 Y113.828 E15.36059
G1 X88.650 Y112.900 E15.41017
G1 X88.528 Y111.790 E15.46911
G1 X88.470 Y110.852 E15.51869
G1 X88.454 Y109.911 E15.56832
G1 X88.478 Y108.972 E15.61791
G1 X88.543 Y108.034 E15.66751
G1 X88.650 Y107.100 E15.71714
G1 X88.796 Y106.172 E15.76672
G1 X88.984 Y105.250 E15.81634
G1 X89.211 Y104.338 E15.86595
G1 X89.478 Y103.437 E15.91554
G1 X89.783 Y102.548 E15.96514
G1 X90.128 Y101.673 E16.01475
G1 X90.510 Y100.814 E16.06436
G1 X90.929 Y99.973 E16.11398
G1 X91.385 Y99.150 E16.16357
G1 X91.875 Y98.349 E16.21315
G1 X92.401 Y97.569 E16.26279
G1 X92.960 Y96.814 E16.31237
G1 X93.551 Y96.083 E16.36199
G1 X94.174 Y95.379 E16.41158
G1 X94.722 Y94.807 E16.45337
G1 X95.135 Y95.135 F3600.000
G1 X95.854 Y94.448 E16.50583 F1200.000
G1 X96.546 Y93.846 E16.55423
G1 X97.263 Y93.275 E16.60262
G1 X97.879 Y92.823 E16.64291
G1 X98.640 Y92.311 E16.69134
G1 X99.555 Y91.755 E16.74781
G1 X100.361 Y91.317 E16.79622
G1 X101.185 Y90.914 E16.84463
G1 X102.026 Y90.548 E16.89303
G1 X102.882 Y90.219 E16.94143
G1 X103.605 Y89.973 E16.98172
G1 X104.484 Y89.714 E17.03010
G1 X105.375 Y89.492 E17.07851
G1 X106.274 Y89.310 E17.12692
G1 X107.332 Y89.147 E17.18343
G1 X108.244 Y89.051 E17.23183
G1 X109.160 Y88.994 E17.28021
G1 X110.182 Y88.980 E17.33416
G1 X110.994 Y89.001 E17.37700 F1200.000
G1 X111.909 Y89.064 E17.42540
G1 X112.820 Y89.167 E17.47382
G1 X113.726 Y89.310 E17.52220
G1 X114.625 Y89.492 E17.57062
G1 X115.516 Y89.714 E17.61902
G1 X116.395 Y89.973 E17.66740
G1 X117.262 Y90.271 E17.71580
G1 X118.116 Y90.607 E17.76421
G1 X118.954 Y90.979 E17.81261
G1 X119.776 Y91.388 E17.86102
G1 X120.578 Y91.832 E17.90941
G1 X121.360 Y92.311 E17.95779
G1 X122.121 Y92.823 E18.00622
G1 X122.859 Y93.368 E18.05460
G1 X123.572 Y93.945 E18.10301
G1 X124.259 Y94.552 E18.15140
G1 X124.920 Y95.189 E18.19981
G1 X125.552 Y95.854 E18.24820
G1 X126.154 Y96.546 E18.29661
G1 X126.725 Y97.263 E18.34500
G1 X127.265 Y98.005 E18.39342
G1 X127.772 Y98.769 E18.44180
G1 X128.245 Y99.555 E18.49019
G1 X128.683 Y100.361 E18.53860
G1 X129.021 Y101.046 E18.57889
G1 X129.393 Y101.884 E18.62730
G1 X129.729 Y102.738 E18.67570
G1 X130.027 Y103.605 E18.72409
G1 X130.286 Y104.485 E18.77248
G1 X130.508 Y105.375 E18.82088
G1 X130.690 Y106.274 E18.86930
G1 X130.833 Y107.180 E18.91768
G1 X130.936 Y108.091 E18.96610
G1 X130.999 Y109.006 E19.01449
G1 X131.023 Y109.923 E19.06287
G1 X131.006 Y110.840 E19.11130
G1 X130.953 Y111.702 E19.15683
G1 X130.833 Y112.820 E19.21620
G1 X130.690 Y113.726 E19.26458
G1 X130.508 Y114.625 E19.31299
G1 X130.286 Y115.516 E19.36140
G1 X130.027 Y116.394 E19.40972
G1 X129.729 Y117.262 E19.45817
G1 X129.393 Y118.116 E19.50659
G1 X129.021 Y118.954 E19.55499
G1 X128.612 Y119.776 E19.60340
G1 X128.168 Y120.578 E19.65179
G1 X127.689 Y121.360 E19.70017
G1 X127.177 Y122.121 E19.74860
G1 X126.632 Y122.859 E19.79698
G1 X126.055 Y123.572 E19.84539
G1 X125.448 Y124.259 E19.89377
G1 X124.811 Y124.920 E19.94219
G1 X124.146 Y125.552 E19.99058
G1 X123.454 Y126.154 E20.03899
G1 X122.737 Y126.725 E20.08737
G1 X121.995 Y127.265 E20.13580
G1 X121.231 Y127.772 E20.18418
G1 X120.445 Y128.245 E20.23257
G1 X119.639 Y128.683 E20.28098
G1 X118.815 Y129.086 E20.32938
G1 X117.974 Y129.452 E20.37779
G1 X117.118 Y129.781 E20.42618
G1 X116.249 Y130.073 E20.47457
G1 X115.367 Y130.326 E20.52297
G1 X114.475 Y130.541 E20.57138
G1 X113.575 Y130.717 E20.61976
G1 X112.668 Y130.853 E20.66818
G1 X111.756 Y130.949 E20.71658
G1 X110.840 Y131.006 E20.76496
G1 X109.923 Y131.023 E20.81339
G1 X109.006 Y130.999 E20.86177
G1 X108.091 Y130.936 E20.91016
G1 X107.180 Y130.833 E20.95859
G1 X106.274 Y130.690 E21.00696
G1 X105.375 Y130.508 E21.05538
G1 X104.485 Y130.286 E21.10378
G1 X103.605 Y130.027 E21.15217
G1 X102.738 Y129.729 E21.20056
G1 X101.884 Y129.393 E21.24896
G1 X101.046 Y129.021 E21.29737
G1 X100.224 Y128.612 E21.34578
G1 X99.422 Y128.168 E21.39417
G1 X98.640 Y127.689 E21.44255
G1 X97.879 Y127.177 E21.49098
G1 X97.141 Y126.632 E21.53936
G1 X96.428 Y126.055 E21.58777
G1 X95.741 Y125.448 E21.63616
G1 X95.189 Y124.920 E21.67645
G1 X94.552 Y124.259 E21.72487
G1 X93.945 Y123.572 E21.77325
G1 X93.368 Y122.859 E21.82166
G1 X92.823 Y122.121 E21.87004
G1 X92.311 Y121.360 E21.91847
G1 X91.832 Y120.578 E21.96685
G1 X91.388 Y119.776 E22.01524
G1 X90.979 Y118.954 E22.06365
G1 X90.607 Y118.116 E22.11205
G1 X90.271 Y117.262 E22.16046
G1 X89.973 Y116.394 E22.20890
G1 X89.714 Y115.516 E22.25724
G1 X89.505 Y114.678 E22.30280
G1 X89.283 Y113.575 E22.36214
G1 X89.147 Y112.668 E22.41056
G1 X89.051 Y111.756 E22.45896
G1 X88.994 Y110.840 E22.50734
G1 X88.977 Y109.923 E22.55576
G1 X89.001 Y109.006 E22.60414
G1 X89.064 Y108.091 E22.65255
G1 X89.167 Y107.180 E22.70096
G1 X89.310 Y106.274 E22.74934
G1 X89.492 Y105.375 E22.79775
G1 X89.714 Y104.484 E22.84616
G1 X89.973 Y103.605 E22.89454
G1 X90.271 Y102.738 E22.94294
G1 X90.607 Y101.884 E22.99135
G1 X90.979 Y101.046 E23.03975
G1 X91.388 Y100.224 E23.08816
G1 X91.832 Y99.422 E23.13655
G1 X92.311 Y98.640 E23.18493
G1 X92.823 Y97.879 E23.23336
G1 X93.368 Y97.141 E23.28174
G1 X93.945 Y96.428 E23.33015
G1 X94.552 Y95.741 E23.37853
G1 X95.092 Y95.177 E23.41972
G1 E21.41972 F1800.00000
G92 E0
G1 X114.728 Y114.729 F3600.000
G1 E2.00000 F1800.00000
G1 X114.085 Y115.293 E2.04515 F1200.000
G1 X113.592 Y115.638 E2.07690
G1 X113.087 Y115.930 E2.10767
G1 X112.558 Y116.176 E2.13844
G1 X112.010 Y116.375 E2.16921
G1 X111.429 Y116.531 E2.20096
G1 X110.601 Y116.659 E2.24517
G1 X110.000 Y116.685 E2.27691
G1 X109.399 Y116.659 E2.30865
G1 X108.571 Y116.531 E2.35286
G1 X107.990 Y116.375 E2.38461
G1 X107.442 Y116.176 E2.41538
G1 X106.913 Y115.930 E2.44615
G1 X106.408 Y115.638 E2.47693
G1 X105.915 Y115.293 E2.50867
G1 X105.272 Y114.728 E2.55385
G1 X104.707 Y114.085 E2.59903
G1 X104.362 Y113.592 E2.63078
G1 X104.070 Y113.087 E2.66155
G1 X103.816 Y112.542 E2.69330
G1 X103.547 Y111.748 E2.73751
G1 X103.417 Y111.161 E2.76925
G1 X103.341 Y110.583 E2.80002
G1 X103.315 Y110.000 E2.83080
G1 X103.341 Y109.417 E2.86157
G1 X103.417 Y108.838 E2.89241
G1 X103.550 Y108.240 E2.92474
G1 X103.816 Y107.458 E2.96833
G1 X104.071 Y106.912 E3.00011
G1 X104.378 Y106.382 E3.03243
G1 X104.867 Y105.716 E3.07602
G1 X105.286 Y105.260 E3.10871
G1 X105.915 Y104.707 E3.15292
G1 X106.408 Y104.362 E3.18466
G1 X106.913 Y104.070 E3.21543
G1 X107.442 Y103.824 E3.24621
G1 X107.990 Y103.625 E3.27698
G1 X108.553 Y103.474 E3.30775
G1 X109.145 Y103.369 E3.33946
G1 X109.969 Y103.315 E3.38305 F1200.000
G1 X110.581 Y103.340 E3.41538
G1 X111.161 Y103.417 E3.44622
G1 X111.748 Y103.547 E3.47797
G1 X112.542 Y103.816 E3.52218
G1 X113.087 Y104.070 E3.55392
G1 X113.592 Y104.362 E3.58469
G1 X114.085 Y104.707 E3.61644
G1 X114.728 Y105.272 E3.66162
G1 X115.293 Y105.915 E3.70680
G1 X115.638 Y106.408 E3.73855
