; generated by Slic3r 1.2.9 on 2019-09-01 at 21:29:17

; external perimeters extrusion width = 0.40mm
; perimeters extrusion width = 0.67mm
; infill extrusion width = 0.67mm
; solid infill extrusion width = 0.67mm
; top infill extrusion width = 0.67mm

M107
M83 ; use relative distances for extrusion
G28 ; home axes
M201 X900 Y900 ; Set max acceleration in X and Y [mm/s^2] ; MM
M204 S900 P500 ; Set actual acceleration S..Travel P..Print ; MM
M203 Z20 E200 ; Set max feedrate
M205 X8 Y8 ; Set xy max jerk [mm/s] starting from that speed it uses
acceleration ; MM
M84 S0 ; Disable Stepper Timeout
G0 Z6 F4000
M104 S160 ;
M140 S55;
G1 X10 Y10 F9000 ; go to front of bed
G1 X100 Y10 F9000 ; go to front of bed
G1 Z0.10 ; use the bed to block the nozzle to prevent ooze
M190 S55;
M109 S210;
G92 E0    ; zero the extruder
G1 X80 E24 F500 ; make a blob/line (2cm)
G1 X10 F4000 ; wipe along the edge of the bed
G1 Y15 F4000 ; wipe along the edge of the bed
G1 X180 F4000 ; wipe along the edge of the bed
G1 Z0.5     ; lift before move to center
M82 ;
G21 ; set units to millimeters
G90 ; use absolute coordinates
M82 ; use absolute distances for extrusion
G92 E0
G1 E-2.00000 F1800.00000
G92 E0
G1 Z0.240 F3600.000
M117 Printing layer 0
G1 X77.274 Y63.788 F3600.000
G1 E2.00000 F1800.00000
G1 X98.835 Y37.669 E3.78716 F1200.000
G1 X99.823 Y36.604 E3.86381
G1 X100.768 Y35.756 E3.93083
G1 X101.787 Y34.992 E3.99802
G1 X102.861 Y34.324 E4.06478
G1 X103.711 Y33.881 E4.11532
G1 X104.878 Y33.383 E4.18229
G1 X105.171 Y33.277 E4.19872
G1 X106.384 Y32.908 E4.26564
G1 X107.627 Y32.647 E4.33268
G1 X108.577 Y32.522 E4.38323
G1 X109.844 Y32.453 E4.45018
G1 X111.113 Y32.494 E4.51716
G1 X112.373 Y32.647 E4.58412 F1200.000
G1 X113.616 Y32.908 E4.65116
G1 X114.829 Y33.277 E4.71807
G1 X115.122 Y33.383 E4.73450
G1 X116.289 Y33.881 E4.80148
G1 X117.409 Y34.479 E4.86844
G1 X118.471 Y35.172 E4.93535
G1 X119.470 Y35.956 E5.00239
G1 X120.397 Y36.823 E5.06935
G1 X121.165 Y37.669 E5.12964
G1 X158.716 Y83.160 E8.24224
G1 X161.982 Y87.412 E8.52515
G1 X162.161 Y87.667 E8.54159
G1 X164.973 Y92.081 E8.81779
G1 X165.129 Y92.351 E8.83422
G1 X167.546 Y96.994 E9.11043
G1 X167.677 Y97.276 E9.12687
G1 X169.681 Y102.112 E9.40307
G1 X169.787 Y102.405 E9.41951
G1 X171.361 Y107.397 E9.69571
G1 X171.442 Y107.698 E9.71215
G1 X172.575 Y112.808 E9.98835
G1 X172.629 Y113.115 E10.00479
G1 X173.312 Y118.305 E10.28099
G1 X173.339 Y118.615 E10.29743
G1 X173.567 Y123.844 E10.57363
G1 X173.567 Y124.156 E10.59006
G1 X173.339 Y129.385 E10.86626
G1 X173.312 Y129.695 E10.88270
G1 X172.629 Y134.885 E11.15890
G1 X172.575 Y135.192 E11.17534
G1 X171.442 Y140.302 E11.45154
G1 X171.361 Y140.603 E11.46798
G1 X169.787 Y145.595 E11.74418
G1 X169.681 Y145.888 E11.76062
G1 X167.677 Y150.724 E12.03682
G1 X167.546 Y151.006 E12.05326
G1 X165.129 Y155.649 E12.32947
G1 X164.973 Y155.919 E12.34590
G1 X162.161 Y160.333 E12.62210
G1 X161.982 Y160.588 E12.63854
G1 X158.796 Y164.741 E12.91473
G1 X158.595 Y164.979 E12.93117
G1 X155.059 Y168.838 E13.20737
G1 X154.839 Y169.058 E13.22378
G1 X150.980 Y172.595 E13.50001
G1 X150.741 Y172.796 E13.51648
G1 X146.588 Y175.982 E13.79266
G1 X146.333 Y176.160 E13.80907
G1 X141.919 Y178.973 E14.08529
G1 X141.648 Y179.130 E14.10178
G1 X137.005 Y181.546 E14.37795
G1 X136.724 Y181.677 E14.39433
G1 X131.888 Y183.681 E14.67055
G1 X131.595 Y183.788 E14.68702
G1 X126.603 Y185.362 E14.96322
G1 X126.301 Y185.442 E14.97969
G1 X121.191 Y186.574 E15.25588
G1 X120.885 Y186.628 E15.27226
G1 X115.696 Y187.312 E15.54847
G1 X115.385 Y187.339 E15.56494
G1 X110.156 Y187.567 E15.84115
G1 X109.844 Y187.567 E15.85756
G1 X104.615 Y187.339 E16.13376
G1 X104.304 Y187.312 E16.15024
G1 X99.115 Y186.628 E16.42644
G1 X98.809 Y186.574 E16.44282
G1 X93.699 Y185.442 E16.71901
G1 X93.397 Y185.362 E16.73548
G1 X88.405 Y183.788 E17.01168
G1 X88.112 Y183.681 E17.02815
G1 X83.276 Y181.677 E17.30437
G1 X82.995 Y181.546 E17.32075
G1 X78.352 Y179.130 E17.59693
G1 X78.081 Y178.973 E17.61341
G1 X73.667 Y176.160 E17.88963
G1 X73.412 Y175.982 E17.90604
G1 X69.259 Y172.796 E18.18223
G1 X69.020 Y172.595 E18.19870
G1 X65.161 Y169.058 E18.47493
G1 X64.941 Y168.838 E18.49134
G1 X61.405 Y164.979 E18.76753
G1 X61.204 Y164.741 E18.78397
G1 X58.018 Y160.588 E19.06016
G1 X57.839 Y160.333 E19.07660
G1 X55.027 Y155.919 E19.35281
G1 X54.871 Y155.649 E19.36924
G1 X52.454 Y151.006 E19.64544
G1 X52.323 Y150.724 E19.66188
G1 X50.319 Y145.888 E19.93809
G1 X50.213 Y145.595 E19.95452
G1 X48.639 Y140.603 E20.23073
G1 X48.558 Y140.302 E20.24717
G1 X47.425 Y135.192 E20.52336
G1 X47.371 Y134.885 E20.53980
G1 X46.688 Y129.695 E20.81601
G1 X46.661 Y129.385 E20.83244
G1 X46.433 Y124.156 E21.10864
G1 X46.433 Y123.844 E21.12508
G1 X46.647 Y118.929 E21.38471
G1 X46.688 Y118.305 E21.41771
G1 X47.371 Y113.115 E21.69391
G1 X47.425 Y112.808 E21.71035
G1 X48.558 Y107.698 E21.98655
G1 X48.639 Y107.397 E22.00299
G1 X50.213 Y102.405 E22.27919
G1 X50.319 Y102.112 E22.29563
G1 X52.323 Y97.276 E22.57183
G1 X52.454 Y96.994 E22.58827
G1 X54.871 Y92.351 E22.86447
G1 X55.027 Y92.081 E22.88091
G1 X57.839 Y87.667 E23.15711
G1 X58.018 Y87.412 E23.17355
G1 X61.284 Y83.160 E23.45645
G1 X77.236 Y63.835 E24.77873
G1 X77.678 Y64.122 F3600.000
G1 X99.239 Y38.002 E26.56589 F1200.000
G1 X100.177 Y36.990 E26.63871
G1 X101.087 Y36.171 E26.70332
G1 X102.068 Y35.433 E26.76811
G1 X103.103 Y34.788 E26.83244
G1 X103.953 Y34.346 E26.88299
G1 X105.079 Y33.867 E26.94755
G1 X106.498 Y33.419 E27.02608
G1 X107.696 Y33.166 E27.09069
G1 X108.645 Y33.041 E27.14124
G1 X109.867 Y32.976 E27.20578
G1 X111.090 Y33.018 E27.27036
G1 X112.304 Y33.166 E27.33491 F1200.000
G1 X113.502 Y33.419 E27.39953
G1 X114.921 Y33.867 E27.47805
G1 X116.047 Y34.346 E27.54261
G1 X117.127 Y34.921 E27.60717
G1 X118.152 Y35.588 E27.67168
G1 X119.116 Y36.342 E27.73630
G1 X120.011 Y37.177 E27.80085
G1 X120.761 Y38.002 E27.85971
G1 X158.313 Y83.493 E30.97232
G1 X161.567 Y87.730 E31.25424
G1 X164.531 Y92.363 E31.54445
G1 X167.194 Y97.477 E31.84869
G1 X169.288 Y102.562 E32.13890
G1 X170.862 Y107.555 E32.41511
G1 X172.063 Y112.922 E32.70532
G1 X172.816 Y118.638 E33.00955
G1 X173.044 Y124.133 E33.29976
G1 X172.793 Y129.627 E33.58998
G1 X172.110 Y134.817 E33.86618
G1 X170.931 Y140.189 E34.15640
G1 X169.288 Y145.438 E34.44661
G1 X167.194 Y150.523 E34.73683
G1 X164.664 Y155.407 E35.02705
G1 X161.719 Y160.052 E35.31727
G1 X158.209 Y164.626 E35.62149
G1 X154.485 Y168.672 E35.91167
G1 X150.422 Y172.381 E36.20195
G1 X146.052 Y175.719 E36.49212
G1 X141.407 Y178.665 E36.78240
G1 X136.524 Y181.193 E37.07254
G1 X131.688 Y183.197 E37.34876
G1 X126.445 Y184.862 E37.63900
G1 X121.078 Y186.063 E37.92923
G1 X115.628 Y186.793 E38.21940
G1 X110.133 Y187.044 E38.50965
G1 X104.638 Y186.816 E38.79985
G1 X99.183 Y186.109 E39.09010
G1 X93.555 Y184.862 E39.39429
G1 X88.312 Y183.197 E39.68454
G1 X83.476 Y181.193 E39.96076
G1 X78.593 Y178.665 E40.25090
G1 X73.948 Y175.719 E40.54118
G1 X69.578 Y172.381 E40.83135
G1 X65.515 Y168.672 E41.12162
G1 X61.620 Y164.422 E41.42583
G1 X58.281 Y160.052 E41.71603
G1 X55.336 Y155.407 E42.00625
G1 X52.806 Y150.523 E42.29647
G1 X50.712 Y145.438 E42.58669
G1 X49.069 Y140.189 E42.87690
G1 X47.890 Y134.817 E43.16712
G1 X47.184 Y129.362 E43.45734
G1 X46.956 Y124.133 E43.73354
G1 X47.170 Y118.952 E44.00718
G1 X47.207 Y118.373 E44.03777
G1 X47.890 Y113.183 E44.31397
G1 X49.069 Y107.811 E44.60419
G1 X50.712 Y102.562 E44.89440
G1 X52.806 Y97.477 E45.18462
G1 X55.336 Y92.593 E45.47484
G1 X58.281 Y87.948 E45.76506
G1 X61.687 Y83.493 E46.06099
G1 X77.640 Y64.168 E47.38327
G1 X78.082 Y64.455 F3600.000
G1 X99.643 Y38.336 E49.17043 F1200.000
G1 X100.530 Y37.376 E49.23942
G1 X101.406 Y36.587 E49.30161
G1 X102.350 Y35.875 E49.36399
G1 X103.345 Y35.253 E49.42592
G1 X104.194 Y34.810 E49.47647
G1 X105.279 Y34.351 E49.53862
G1 X106.611 Y33.931 E49.61234
G1 X107.764 Y33.685 E49.67454
G1 X108.714 Y33.560 E49.72508
G1 X109.890 Y33.499 E49.78722
G1 X111.067 Y33.541 E49.84938
G1 X112.236 Y33.685 E49.91152 F1200.000
G1 X113.389 Y33.931 E49.97373
G1 X114.721 Y34.351 E50.04744
G1 X115.806 Y34.810 E50.10959
G1 X116.846 Y35.363 E50.17175
G1 X117.833 Y36.003 E50.23385
G1 X118.763 Y36.728 E50.29605
G1 X119.625 Y37.531 E50.35820
G1 X120.357 Y38.336 E50.41563
G1 X157.909 Y83.826 E53.52824
G1 X161.151 Y88.049 E53.80918
G1 X164.090 Y92.644 E54.09698
G1 X166.710 Y97.677 E54.39640
G1 X168.788 Y102.720 E54.68421
G1 X170.362 Y107.712 E54.96041
G1 X171.552 Y113.035 E55.24822
G1 X172.293 Y118.661 E55.54763
G1 X172.521 Y124.110 E55.83544
G1 X172.274 Y129.559 E56.12324
G1 X171.591 Y134.748 E56.39945
G1 X170.419 Y140.075 E56.68725
G1 X168.788 Y145.280 E56.97506
G1 X166.710 Y150.323 E57.26287
G1 X164.200 Y155.165 E57.55068
G1 X161.277 Y159.771 E57.83849
G1 X157.823 Y164.272 E58.13789
G1 X154.132 Y168.286 E58.42568
G1 X150.103 Y171.965 E58.71353
G1 X145.771 Y175.277 E59.00131
G1 X141.165 Y178.201 E59.28917
G1 X136.522 Y180.617 E59.56534
G1 X131.487 Y182.713 E59.85313
G1 X126.288 Y184.363 E60.14096
G1 X120.965 Y185.552 E60.42878
G1 X115.559 Y186.274 E60.71655
G1 X110.110 Y186.521 E61.00438
G1 X104.661 Y186.293 E61.29217
G1 X99.251 Y185.590 E61.58002
G1 X93.712 Y184.363 E61.87939
G1 X88.513 Y182.713 E62.16723
G1 X83.677 Y180.709 E62.44345
G1 X78.835 Y178.201 E62.73119
G1 X74.229 Y175.277 E63.01905
G1 X69.897 Y171.965 E63.30682
G1 X65.868 Y168.286 E63.59468
G1 X62.035 Y164.103 E63.89407
G1 X58.723 Y159.771 E64.18187
G1 X55.800 Y155.165 E64.46968
G1 X53.290 Y150.323 E64.75749
G1 X51.212 Y145.280 E65.04530
G1 X49.581 Y140.075 E65.33311
G1 X48.409 Y134.748 E65.62091
G1 X47.707 Y129.339 E65.90872
G1 X47.479 Y124.110 E66.18492
G1 X47.693 Y118.974 E66.45615
G1 X47.726 Y118.441 E66.48434
G1 X48.409 Y113.252 E66.76054
G1 X49.581 Y107.925 E67.04835
G1 X51.212 Y102.720 E67.33616
G1 X53.290 Y97.677 E67.62397
G1 X55.800 Y92.835 E67.91178
G1 X58.723 Y88.229 E68.19958
G1 X62.091 Y83.826 E68.49213
G1 X78.044 Y64.501 E69.81441
G1 E67.81441 F1800.00000
G92 E0
G1 X145.475 Y77.787 F3600.000
G1 E2.00000 F1800.00000
G1 X147.484 Y79.328 E2.13362 F1200.000
G1 X151.235 Y82.765 E2.40206
G1 X154.672 Y86.516 E2.67051
G1 X157.769 Y90.552 E2.93895
G1 X160.502 Y94.842 E3.20740
G1 X162.852 Y99.355 E3.47584
G1 X164.798 Y104.055 E3.74429
G1 X166.328 Y108.907 E4.01274
G1 X167.429 Y113.874 E4.28118
G1 X168.093 Y118.918 E4.54963
G1 X168.315 Y124.000 E4.81807
G1 X168.093 Y129.082 E5.08652
G1 X167.429 Y134.126 E5.35496
G1 X166.328 Y139.093 E5.62341
G1 X164.798 Y143.945 E5.89185
G1 X162.852 Y148.645 E6.16030
G1 X160.502 Y153.158 E6.42875
G1 X157.769 Y157.448 E6.69719
G1 X154.672 Y161.484 E6.96562
G1 X151.235 Y165.235 E7.23407
G1 X147.484 Y168.672 E7.50254
G1 X143.448 Y171.769 E7.77097
G1 X139.158 Y174.503 E8.03943
G1 X134.645 Y176.851 E8.30785
G1 X129.945 Y178.799 E8.57633
G1 X125.093 Y180.329 E8.84476
G1 X120.126 Y181.429 E9.11320
G1 X115.082 Y182.094 E9.38166
G1 X110.000 Y182.315 E9.65010
G1 X104.918 Y182.094 E9.91854
G1 X99.874 Y181.429 E10.18699
G1 X94.907 Y180.329 E10.45543
G1 X90.055 Y178.799 E10.72387
G1 X85.355 Y176.851 E10.99234
G1 X80.842 Y174.503 E11.26076
G1 X76.552 Y171.769 E11.52922
G1 X72.516 Y168.672 E11.79765
G1 X68.765 Y165.235 E12.06612
G1 X65.328 Y161.484 E12.33457
G1 X62.231 Y157.448 E12.60300
G1 X59.498 Y153.158 E12.87145
G1 X57.148 Y148.645 E13.13989
G1 X55.202 Y143.945 E13.40834
G1 X53.672 Y139.093 E13.67679
G1 X52.571 Y134.126 E13.94523
G1 X51.907 Y129.082 E14.21368
G1 X51.685 Y124.000 E14.48212
G1 X51.907 Y118.918 E14.75056
G1 X52.571 Y113.874 E15.01901
G1 X53.672 Y108.907 E15.28745
G1 X55.202 Y104.055 E15.55590
G1 X57.148 Y99.355 E15.82435
G1 X59.498 Y94.842 E16.09279
G1 X62.231 Y90.552 E16.36124
G1 X65.328 Y86.516 E16.62969
G1 X68.765 Y82.765 E16.89813
G1 X72.516 Y79.328 E17.16658
G1 X76.552 Y76.231 E17.43502
G1 X80.842 Y73.498 E17.70347
G1 X85.355 Y71.149 E17.97191
G1 X90.055 Y69.202 E18.24036
G1 X94.907 Y67.672 E18.50881
G1 X99.874 Y66.571 E18.77725
G1 X104.918 Y65.907 E19.04570
G1 X110.000 Y65.685 E19.31414
G1 X111.704 Y65.759 E19.40413
G1 X115.082 Y65.907 E19.58259 F1200.000
G1 X120.126 Y66.571 E19.85103
G1 X125.093 Y67.672 E20.11948
G1 X129.945 Y69.202 E20.38792
G1 X134.645 Y71.149 E20.65637
G1 X139.158 Y73.498 E20.92482
G1 X143.448 Y76.231 E21.19326
G1 X145.428 Y77.750 E21.32493
G1 X145.794 Y77.371 F3600.000
G1 X147.821 Y78.926 E21.45975 F1200.000
G1 X151.606 Y82.394 E21.73061
G1 X155.074 Y86.179 E22.00146
G1 X158.198 Y90.251 E22.27232
G1 X160.956 Y94.580 E22.54318
G1 X163.327 Y99.133 E22.81404
G1 X165.291 Y103.876 E23.08490
G1 X166.834 Y108.771 E23.35576
G1 X167.945 Y113.783 E23.62661
G1 X168.615 Y118.872 E23.89747
G1 X168.839 Y124.000 E24.16833
G1 X168.615 Y129.128 E24.43919
G1 X167.945 Y134.217 E24.71005
G1 X166.834 Y139.229 E24.98090
G1 X165.291 Y144.124 E25.25176
G1 X163.327 Y148.867 E25.52262
G1 X160.956 Y153.420 E25.79348
G1 X158.198 Y157.749 E26.06434
G1 X155.074 Y161.821 E26.33518
G1 X151.606 Y165.605 E26.60604
G1 X147.821 Y169.074 E26.87692
G1 X143.749 Y172.198 E27.14777
G1 X139.420 Y174.957 E27.41864
G1 X134.867 Y177.326 E27.68948
G1 X130.124 Y179.291 E27.96036
G1 X125.229 Y180.835 E28.23121
G1 X120.217 Y181.945 E28.50206
G1 X115.128 Y182.616 E28.77293
G1 X110.000 Y182.839 E29.04378
G1 X104.872 Y182.616 E29.31464
G1 X99.783 Y181.945 E29.58550
G1 X94.771 Y180.835 E29.85635
G1 X89.876 Y179.291 E30.12720
G1 X85.133 Y177.326 E30.39808
G1 X80.580 Y174.957 E30.66892
G1 X76.251 Y172.198 E30.93980
G1 X72.179 Y169.074 E31.21064
G1 X68.394 Y165.605 E31.48152
G1 X64.926 Y161.821 E31.75238
G1 X61.802 Y157.749 E32.02322
G1 X59.044 Y153.420 E32.29408
G1 X56.673 Y148.867 E32.56494
G1 X54.709 Y144.124 E32.83580
G1 X53.166 Y139.229 E33.10666
G1 X52.055 Y134.217 E33.37751
G1 X51.385 Y129.128 E33.64838
G1 X51.161 Y124.000 E33.91923
G1 X51.385 Y118.872 E34.19009
G1 X52.055 Y113.783 E34.46095
G1 X53.166 Y108.771 E34.73180
G1 X54.709 Y103.876 E35.00266
G1 X56.673 Y99.133 E35.27352
G1 X59.044 Y94.580 E35.54438
G1 X61.802 Y90.251 E35.81524
G1 X64.926 Y86.179 E36.08610
G1 X68.394 Y82.394 E36.35696
G1 X72.179 Y78.926 E36.62781
G1 X76.251 Y75.802 E36.89867
G1 X80.580 Y73.044 E37.16953
G1 X85.133 Y70.674 E37.44039
G1 X89.876 Y68.709 E37.71125
G1 X94.771 Y67.166 E37.98211
G1 X99.783 Y66.055 E38.25296
G1 X104.872 Y65.385 E38.52382
G1 X110.000 Y65.161 E38.79468
G1 X111.180 Y65.212 E38.85702
G1 X115.128 Y65.385 E39.06554 F1200.000
G1 X120.217 Y66.055 E39.33640
G1 X125.229 Y67.166 E39.60725
G1 X130.124 Y68.709 E39.87811
G1 X134.867 Y70.674 E40.14897
G1 X139.420 Y73.044 E40.41983
G1 X143.749 Y75.802 E40.69069
G1 X145.747 Y77.335 E40.82356
G1 X146.113 Y76.956 F3600.000
G1 X148.158 Y78.525 E40.95959 F1200.000
G1 X151.976 Y82.024 E41.23286
G1 X155.475 Y85.842 E41.50613
G1 X158.628 Y89.951 E41.77940
G1 X161.410 Y94.318 E42.05267
G1 X163.802 Y98.912 E42.32594
G1 X165.783 Y103.697 E42.59921
G1 X167.341 Y108.636 E42.87249
G1 X168.462 Y113.692 E43.14575
G1 X169.137 Y118.826 E43.41903
G1 X169.363 Y124.000 E43.69230
G1 X169.137 Y129.174 E43.96556
G1 X168.462 Y134.308 E44.23884
G1 X167.341 Y139.364 E44.51211
G1 X165.783 Y144.303 E44.78538
G1 X163.802 Y149.088 E45.05865
G1 X161.410 Y153.682 E45.33192
G1 X158.628 Y158.049 E45.60519
G1 X155.475 Y162.158 E45.87845
G1 X151.976 Y165.976 E46.15172
G1 X148.158 Y169.475 E46.42501
G1 X144.049 Y172.627 E46.69827
G1 X139.682 Y175.411 E46.97156
G1 X135.088 Y177.801 E47.24481
G1 X130.303 Y179.784 E47.51810
G1 X125.364 Y181.341 E47.79137
G1 X120.308 Y182.461 E48.06463
G1 X115.174 Y183.138 E48.33790
G1 X110.000 Y183.363 E48.61117
G1 X104.826 Y183.138 E48.88444
G1 X99.692 Y182.461 E49.15772
G1 X94.636 Y181.341 E49.43098
G1 X89.697 Y179.784 E49.70425
G1 X84.912 Y177.801 E49.97754
G1 X80.318 Y175.411 E50.25079
G1 X75.951 Y172.627 E50.52408
G1 X71.842 Y169.475 E50.79733
G1 X68.024 Y165.976 E51.07063
G1 X64.525 Y162.158 E51.34390
G1 X61.372 Y158.049 E51.61715
G1 X58.590 Y153.682 E51.89043
G1 X56.198 Y149.088 E52.16370
G1 X54.217 Y144.303 E52.43697
G1 X52.659 Y139.364 E52.71024
G1 X51.538 Y134.308 E52.98351
G1 X50.863 Y129.174 E53.25678
G1 X50.637 Y124.000 E53.53005
G1 X50.863 Y118.826 E53.80332
G1 X51.538 Y113.692 E54.07659
G1 X52.659 Y108.636 E54.34986
