; generated by Slic3r 1.2.9 on 2019-07-01 at 20:31:55

; external perimeters extrusion width = 0.40mm
; perimeters extrusion width = 0.67mm
; infill extrusion width = 0.67mm
; solid infill extrusion width = 0.67mm
; top infill extrusion width = 0.67mm
; support material extrusion width = 0.40mm

M107
M83 ; use relative distances for extrusion
G28 ; home axes
M201 X900 Y900 ; Set max acceleration in X and Y [mm/s^2] ; MM
M204 S900 P500 ; Set actual acceleration S..Travel P..Print ; MM
M203 Z20 E200 ; Set max feedrate
M205 X8 Y8 ; Set xy max jerk [mm/s] starting from that speed it uses
acceleration ; MM
M84 S0 ; Disable Stepper Timeout
G0 Z6 F4000
M104 S160 ;
M140 S55;
G1 X10 Y10 F9000 ; go to front of bed
G1 X100 Y10 F9000 ; go to front of bed
G1 Z0.10 ; use the bed to block the nozzle to prevent ooze
M190 S55;
M109 S210;
G92 E0    ; zero the extruder
G1 X80 E24 F500 ; make a blob/line (2cm)
G1 X10 F4000 ; wipe along the edge of the bed
G1 Y15 F4000 ; wipe along the edge of the bed
G1 X180 F4000 ; wipe along the edge of the bed
G1 Z0.5     ; lift before move to center
M82 ;
G21 ; set units to millimeters
G90 ; use absolute coordinates
M82 ; use absolute distances for extrusion
G92 E0
G1 E-2.00000 F1800.00000
G92 E0
G1 Z0.240 F5400.000
M117 Printing layer 0
G1 X87.859 Y87.859 F5400.000
G1 E2.00000 F1800.00000
G1 X88.155 Y87.564 E2.02203 F1200.000
G1 X89.554 Y86.282 E2.12216
G1 X90.193 Y85.746 E2.16619
G1 X91.698 Y84.590 E2.26632
G1 X92.382 Y84.111 E2.31039
G1 X93.983 Y83.092 E2.41051
G1 X94.706 Y82.674 E2.45457
G1 X96.389 Y81.798 E2.55470
G1 X97.146 Y81.445 E2.59875
G1 X98.899 Y80.719 E2.69888
G1 X99.692 Y80.431 E2.74342
G1 X101.493 Y79.863 E2.84304
G1 X102.299 Y79.647 E2.88707
G1 X104.152 Y79.236 E2.98723
G1 X104.974 Y79.091 E3.03131
G1 X106.855 Y78.844 E3.13143
G1 X107.686 Y78.771 E3.17541
G1 X109.582 Y78.688 E3.27559
G1 X110.425 Y78.689 E3.32006
G1 X112.313 Y78.771 E3.41978 F1200.000
G1 X113.145 Y78.844 E3.46382
G1 X115.026 Y79.091 E3.56394
G1 X115.847 Y79.236 E3.60795
G1 X117.701 Y79.647 E3.70814
G1 X118.507 Y79.863 E3.75220
G1 X120.317 Y80.434 E3.85232
G1 X121.101 Y80.719 E3.89637
G1 X122.854 Y81.445 E3.99649
G1 X123.611 Y81.798 E4.04055
G1 X125.294 Y82.674 E4.14067
G1 X126.017 Y83.092 E4.18473
G1 X127.618 Y84.111 E4.28486
G1 X128.301 Y84.590 E4.32887
G1 X129.807 Y85.746 E4.42905
G1 X130.446 Y86.281 E4.47303
G1 X131.845 Y87.564 E4.57321
G1 X132.436 Y88.155 E4.61729
G1 X133.719 Y89.554 E4.71747
G1 X134.254 Y90.193 E4.76145
G1 X135.410 Y91.698 E4.86158
G1 X135.889 Y92.382 E4.90564
G1 X136.909 Y93.984 E5.00583
G1 X137.326 Y94.706 E5.04983
G1 X138.202 Y96.389 E5.14997
G1 X138.554 Y97.146 E5.19401
G1 X139.281 Y98.899 E5.29413
G1 X139.566 Y99.683 E5.33818
G1 X140.137 Y101.493 E5.43835
G1 X140.353 Y102.299 E5.48236
G1 X140.764 Y104.152 E5.58251
G1 X140.909 Y104.974 E5.62656
G1 X141.156 Y106.855 E5.72669
G1 X141.229 Y107.687 E5.77072
G1 X141.312 Y109.582 E5.87084
G1 X141.312 Y110.418 E5.91492
G1 X141.229 Y112.315 E6.01515
G1 X141.156 Y113.145 E6.05907
G1 X140.908 Y115.027 E6.15925
G1 X140.764 Y115.848 E6.20328
G1 X140.353 Y117.701 E6.30340
G1 X140.137 Y118.507 E6.34746
G1 X139.566 Y120.317 E6.44758
G1 X139.281 Y121.101 E6.49163
G1 X138.554 Y122.855 E6.59180
G1 X138.202 Y123.611 E6.63580
G1 X137.326 Y125.294 E6.73593
G1 X136.908 Y126.017 E6.77999
G1 X135.889 Y127.618 E6.88011
G1 X135.410 Y128.302 E6.92418
G1 X134.254 Y129.807 E7.02431
G1 X133.718 Y130.446 E7.06835
G1 X132.436 Y131.845 E7.16847
G1 X131.845 Y132.436 E7.21255
G1 X130.446 Y133.718 E7.31267
G1 X129.807 Y134.254 E7.35671
G1 X128.302 Y135.410 E7.45683
G1 X127.618 Y135.889 E7.50090
G1 X126.017 Y136.908 E7.60103
G1 X125.294 Y137.326 E7.64509
G1 X123.611 Y138.202 E7.74521
G1 X122.855 Y138.554 E7.78924
G1 X121.101 Y139.281 E7.88939
G1 X120.317 Y139.566 E7.93344
G1 X118.507 Y140.137 E8.03356
G1 X117.701 Y140.353 E8.07762
G1 X115.848 Y140.764 E8.17774
G1 X115.027 Y140.908 E8.22177
G1 X113.145 Y141.156 E8.32194
G1 X112.314 Y141.229 E8.36592
G1 X110.418 Y141.312 E8.46610
G1 X109.582 Y141.312 E8.51018
G1 X107.687 Y141.229 E8.61030
G1 X106.855 Y141.156 E8.65433
G1 X104.974 Y140.909 E8.75445
G1 X104.144 Y140.762 E8.79896
G1 X102.299 Y140.353 E8.89866
G1 X101.493 Y140.137 E8.94270
G1 X99.683 Y139.566 E9.04284
G1 X98.899 Y139.281 E9.08689
G1 X97.146 Y138.554 E9.18701
G1 X96.390 Y138.202 E9.23102
G1 X94.706 Y137.326 E9.33118
G1 X93.984 Y136.909 E9.37518
G1 X92.382 Y135.889 E9.47537
G1 X91.698 Y135.410 E9.51944
G1 X90.193 Y134.254 E9.61956
G1 X89.554 Y133.719 E9.66354
G1 X88.155 Y132.436 E9.76373
G1 X87.564 Y131.845 E9.80780
G1 X86.281 Y130.446 E9.90799
G1 X85.746 Y129.807 E9.95197
G1 X84.590 Y128.301 E10.05216
G1 X84.111 Y127.618 E10.09616
G1 X83.092 Y126.017 E10.19628
G1 X82.674 Y125.294 E10.24035
G1 X81.798 Y123.611 E10.34049
G1 X81.446 Y122.854 E10.38452
G1 X80.719 Y121.101 E10.48465
G1 X80.434 Y120.317 E10.52869
G1 X79.863 Y118.507 E10.62882
G1 X79.647 Y117.701 E10.67288
G1 X79.236 Y115.847 E10.77306
G1 X79.091 Y115.026 E10.81708
G1 X78.844 Y113.145 E10.91720
G1 X78.771 Y112.313 E10.96123
G1 X78.688 Y110.416 E11.06146
G1 X78.688 Y109.582 E11.10543
G1 X78.771 Y107.686 E11.20561
G1 X78.844 Y106.855 E11.24959
G1 X79.091 Y104.974 E11.34972
G1 X79.236 Y104.152 E11.39379
G1 X79.647 Y102.299 E11.49394
G1 X79.863 Y101.493 E11.53797
G1 X80.434 Y99.682 E11.63813
G1 X80.719 Y98.899 E11.68214
G1 X81.445 Y97.146 E11.78226
G1 X81.798 Y96.389 E11.82632
G1 X82.674 Y94.706 E11.92644
G1 X83.092 Y93.983 E11.97051
G1 X84.112 Y92.382 E12.07065
G1 X84.590 Y91.698 E12.11470
G1 X85.746 Y90.193 E12.21482
G1 X86.282 Y89.554 E12.25886
G1 X87.564 Y88.155 E12.35899
G1 X87.817 Y87.902 E12.37786
G1 X88.229 Y88.229 F5400.000
G1 X88.508 Y87.950 E12.39869 F1200.000
G1 X89.907 Y86.668 E12.49881
G1 X90.512 Y86.161 E12.54044
G1 X92.017 Y85.006 E12.64057
G1 X92.664 Y84.553 E12.68222
G1 X94.264 Y83.534 E12.78235
G1 X94.948 Y83.139 E12.82400
G1 X96.631 Y82.263 E12.92412
G1 X97.346 Y81.929 E12.96577
G1 X99.099 Y81.203 E13.06589
G1 X99.849 Y80.931 E13.10799
G1 X101.650 Y80.363 E13.20765
G1 X102.412 Y80.158 E13.24927
G1 X104.265 Y79.748 E13.34942
G1 X105.043 Y79.611 E13.39109
G1 X106.924 Y79.363 E13.49121
G1 X107.709 Y79.294 E13.53279
G1 X109.605 Y79.211 E13.63296
G1 X110.402 Y79.212 E13.67503
G1 X112.290 Y79.294 E13.77475 F1200.000
G1 X113.076 Y79.363 E13.81637
G1 X114.957 Y79.611 E13.91649
G1 X115.734 Y79.747 E13.95810
G1 X117.588 Y80.158 E14.05828
G1 X118.350 Y80.363 E14.09993
G1 X120.160 Y80.933 E14.20006
G1 X120.901 Y81.203 E14.24169
G1 X122.654 Y81.929 E14.34182
G1 X123.369 Y82.263 E14.38346
G1 X125.052 Y83.139 E14.48358
G1 X125.736 Y83.534 E14.52524
G1 X127.336 Y84.553 E14.62536
G1 X127.982 Y85.005 E14.66696
G1 X129.488 Y86.161 E14.76714
G1 X130.092 Y86.667 E14.80871
G1 X131.492 Y87.950 E14.90890
G1 X132.050 Y88.508 E14.95056
G1 X133.333 Y89.908 E15.05074
G1 X133.839 Y90.512 E15.09232
G1 X134.994 Y92.017 E15.19244
G1 X135.447 Y92.664 E15.23410
G1 X136.467 Y94.265 E15.33428
G1 X136.861 Y94.948 E15.37587
G1 X137.737 Y96.631 E15.47601
G1 X138.071 Y97.346 E15.51764
G1 X138.797 Y99.099 E15.61776
G1 X139.067 Y99.840 E15.65940
G1 X139.638 Y101.651 E15.75957
G1 X139.842 Y102.412 E15.80117
G1 X140.252 Y104.265 E15.90132
G1 X140.389 Y105.043 E15.94296
G1 X140.637 Y106.924 E16.04309
G1 X140.706 Y107.710 E16.08471
G1 X140.789 Y109.605 E16.18483
G1 X140.789 Y110.395 E16.22650
G1 X140.706 Y112.292 E16.32672
G1 X140.637 Y113.076 E16.36824
G1 X140.389 Y114.958 E16.46841
G1 X140.252 Y115.735 E16.51003
G1 X139.842 Y117.588 E16.61016
G1 X139.637 Y118.350 E16.65180
G1 X139.067 Y120.160 E16.75193
G1 X138.797 Y120.901 E16.79356
G1 X138.070 Y122.655 E16.89374
G1 X137.737 Y123.369 E16.93533
G1 X136.861 Y125.052 E17.03545
G1 X136.466 Y125.736 E17.07711
G1 X135.447 Y127.336 E17.17723
G1 X134.994 Y127.983 E17.21889
G1 X133.839 Y129.488 E17.31901
G1 X133.332 Y130.093 E17.36064
G1 X132.050 Y131.492 E17.46077
G1 X131.492 Y132.050 E17.50243
G1 X130.093 Y133.332 E17.60256
G1 X129.488 Y133.839 E17.64419
G1 X127.983 Y134.994 E17.74431
G1 X127.336 Y135.447 E17.78597
G1 X125.736 Y136.466 E17.88609
G1 X125.052 Y136.861 E17.92774
G1 X123.369 Y137.737 E18.02787
G1 X122.655 Y138.071 E18.06949
G1 X120.901 Y138.797 E18.16963
G1 X120.160 Y139.067 E18.21127
G1 X118.350 Y139.637 E18.31139
G1 X117.588 Y139.842 E18.35304
G1 X115.735 Y140.252 E18.45317
G1 X114.958 Y140.389 E18.49478
G1 X113.076 Y140.637 E18.59496
G1 X112.291 Y140.706 E18.63653
G1 X110.395 Y140.789 E18.73670
G1 X109.605 Y140.789 E18.77837
G1 X107.710 Y140.706 E18.87849
G1 X106.924 Y140.637 E18.92011
G1 X105.043 Y140.389 E19.02024
G1 X104.266 Y140.253 E19.06183
G1 X102.412 Y139.842 E19.16203
G1 X101.641 Y139.635 E19.20416
G1 X99.840 Y139.067 E19.30380
G1 X99.099 Y138.797 E19.34544
G1 X97.346 Y138.071 E19.44556
G1 X96.631 Y137.738 E19.48716
G1 X94.948 Y136.861 E19.58732
G1 X94.265 Y136.467 E19.62892
G1 X92.664 Y135.447 E19.72910
G1 X92.017 Y134.994 E19.77076
G1 X90.512 Y133.839 E19.87088
G1 X89.908 Y133.333 E19.91246
G1 X88.508 Y132.050 E20.01264
G1 X87.950 Y131.492 E20.05430
G1 X86.667 Y130.092 E20.15448
G1 X86.161 Y129.488 E20.19606
G1 X85.005 Y127.982 E20.29625
G1 X84.553 Y127.336 E20.33784
G1 X83.534 Y125.736 E20.43796
G1 X83.139 Y125.052 E20.47962
G1 X82.263 Y123.369 E20.57975
G1 X81.929 Y122.654 E20.62138
G1 X81.203 Y120.901 E20.72150
G1 X80.933 Y120.160 E20.76314
G1 X80.363 Y118.350 E20.86327
G1 X80.158 Y117.588 E20.90491
G1 X79.747 Y115.734 E21.00510
G1 X79.611 Y114.957 E21.04670
G1 X79.363 Y113.076 E21.14683
G1 X79.294 Y112.290 E21.18845
G1 X79.211 Y110.393 E21.28867
G1 X79.211 Y109.605 E21.33024
G1 X79.294 Y107.709 E21.43041
G1 X79.363 Y106.924 E21.47199
G1 X79.611 Y105.042 E21.57211
G1 X79.748 Y104.265 E21.61378
G1 X80.158 Y102.412 E21.71393
G1 X80.363 Y101.650 E21.75555
G1 X80.933 Y99.840 E21.85571
G1 X81.203 Y99.099 E21.89731
G1 X81.929 Y97.346 E21.99743
G1 X82.263 Y96.631 E22.03907
G1 X83.139 Y94.948 E22.13920
G1 X83.534 Y94.264 E22.18085
G1 X84.553 Y92.663 E22.28100
G1 X85.006 Y92.017 E22.32263
G1 X86.161 Y90.512 E22.42276
G1 X86.668 Y89.907 E22.46438
G1 X88.187 Y88.272 E22.58217
G1 X88.599 Y88.599 F5400.000
G1 X88.862 Y88.336 E22.60179 F1200.000
G1 X90.261 Y87.054 E22.70191
G1 X90.830 Y86.576 E22.74113
G1 X92.336 Y85.421 E22.84126
G1 X92.945 Y84.995 E22.88050
G1 X94.545 Y83.975 E22.98063
G1 X95.189 Y83.603 E23.01987
G1 X96.872 Y82.727 E23.11999
G1 X97.546 Y82.413 E23.15923
G1 X99.299 Y81.687 E23.25935
G1 X100.007 Y81.430 E23.29908
G1 X101.807 Y80.862 E23.39870
G1 X102.525 Y80.670 E23.43791
G1 X104.378 Y80.259 E23.53806
G1 X105.111 Y80.130 E23.57732
G1 X106.992 Y79.882 E23.67744
G1 X107.732 Y79.817 E23.71661
G1 X109.628 Y79.735 E23.81678
G1 X110.380 Y79.735 E23.85644
G1 X112.268 Y79.817 E23.95615 F1200.000
G1 X113.008 Y79.882 E23.99537
G1 X114.889 Y80.130 E24.09549
G1 X115.621 Y80.259 E24.13469
G1 X117.474 Y80.670 E24.23487
G1 X118.193 Y80.862 E24.27411
G1 X120.002 Y81.433 E24.37423
G1 X120.701 Y81.687 E24.41346
G1 X122.454 Y82.413 E24.51358
G1 X123.128 Y82.727 E24.55282
G1 X124.811 Y83.603 E24.65294
G1 X125.455 Y83.975 E24.69218
G1 X127.055 Y84.995 E24.79231
G1 X127.663 Y85.421 E24.83150
G1 X129.170 Y86.576 E24.93167
G1 X129.738 Y87.053 E24.97084
G1 X131.138 Y88.336 E25.07102
G1 X131.664 Y88.862 E25.11027
G1 X132.946 Y90.262 E25.21045
G1 X133.424 Y90.830 E25.24962
G1 X134.579 Y92.336 E25.34975
G1 X135.005 Y92.945 E25.38899
G1 X136.025 Y94.546 E25.48917
G1 X136.397 Y95.189 E25.52836
G1 X137.273 Y96.873 E25.62849
G1 X137.587 Y97.546 E25.66771
G1 X138.313 Y99.299 E25.76783
G1 X138.567 Y99.998 E25.80706
G1 X139.138 Y101.808 E25.90723
G1 X139.330 Y102.526 E25.94642
G1 X139.741 Y104.379 E26.04657
G1 X139.870 Y105.111 E26.08580
G1 X140.118 Y106.992 E26.18593
G1 X140.183 Y107.732 E26.22514
G1 X140.265 Y109.628 E26.32526
G1 X140.265 Y110.372 E26.36452
G1 X140.183 Y112.269 E26.46474
G1 X140.118 Y113.008 E26.50385
G1 X139.870 Y114.890 E26.60402
G1 X139.741 Y115.622 E26.64323
G1 X139.330 Y117.474 E26.74336
G1 X139.138 Y118.193 E26.78259
G1 X138.567 Y120.002 E26.88272
G1 X138.313 Y120.701 E26.92195
G1 X137.587 Y122.455 E27.02212
G1 X137.273 Y123.128 E27.06130
G1 X136.397 Y124.811 E27.16142
G1 X136.025 Y125.455 E27.20067
G1 X135.005 Y127.055 E27.30079
G1 X134.579 Y127.664 E27.34004
G1 X133.424 Y129.170 E27.44016
G1 X132.946 Y129.739 E27.47938
G1 X131.664 Y131.138 E27.57951
G1 X131.138 Y131.664 E27.61876
G1 X129.739 Y132.946 E27.71889
G1 X129.170 Y133.424 E27.75811
G1 X127.664 Y134.579 E27.85823
G1 X127.055 Y135.005 E27.89747
G1 X125.455 Y136.025 E27.99760
G1 X124.811 Y136.397 E28.03684
G1 X123.128 Y137.273 E28.13696
G1 X122.454 Y137.587 E28.17617
G1 X120.701 Y138.313 E28.27632
G1 X120.002 Y138.567 E28.31555
G1 X118.193 Y139.138 E28.41567
G1 X117.474 Y139.330 E28.45491
G1 X115.622 Y139.741 E28.55503
G1 X114.890 Y139.870 E28.59424
G1 X113.008 Y140.118 E28.69441
G1 X112.269 Y140.183 E28.73358
G1 X110.372 Y140.265 E28.83375
G1 X109.628 Y140.265 E28.87300
G1 X107.732 Y140.183 E28.97313
G1 X106.992 Y140.118 E29.01234
G1 X105.111 Y139.870 E29.11246
G1 X104.370 Y139.739 E29.15215
G1 X102.526 Y139.330 E29.25184
G1 X101.808 Y139.138 E29.29107
G1 X99.998 Y138.567 E29.39120
G1 X99.299 Y138.313 E29.43043
G1 X97.546 Y137.587 E29.53055
G1 X96.873 Y137.273 E29.56975
G1 X95.189 Y136.397 E29.66991
G1 X94.546 Y136.025 E29.70910
G1 X92.945 Y135.005 E29.80928
G1 X92.336 Y134.579 E29.84852
G1 X90.830 Y133.424 E29.94864
G1 X90.262 Y132.947 E29.98781
G1 X88.862 Y131.664 E30.08799
G1 X88.336 Y131.138 E30.12724
G1 X87.053 Y129.738 E30.22742
G1 X86.576 Y129.170 E30.26659
G1 X85.421 Y127.663 E30.36678
G1 X84.995 Y127.055 E30.40596
G1 X83.975 Y125.455 E30.50608
G1 X83.603 Y124.811 E30.54533
G1 X82.727 Y123.127 E30.64547
G1 X82.413 Y122.454 E30.68468
G1 X81.687 Y120.701 E30.78481
G1 X81.433 Y120.002 E30.82403
G1 X80.862 Y118.193 E30.92416
G1 X80.670 Y117.474 E30.96339
G1 X80.259 Y115.621 E31.06357
G1 X80.130 Y114.889 E31.10277
G1 X79.882 Y113.008 E31.20290
G1 X79.817 Y112.268 E31.24211
G1 X79.734 Y110.370 E31.34233
G1 X79.735 Y109.628 E31.38149
G1 X79.817 Y107.732 E31.48166
G1 X79.882 Y106.992 E31.52083
G1 X80.130 Y105.111 E31.62095
G1 X80.259 Y104.378 E31.66020
G1 X80.670 Y102.525 E31.76035
G1 X80.862 Y101.807 E31.79957
G1 X81.433 Y99.997 E31.89972
G1 X81.687 Y99.299 E31.93892
G1 X82.413 Y97.546 E32.03904
G1 X82.727 Y96.872 E32.07827
G1 X83.603 Y95.189 E32.17840
G1 X83.975 Y94.545 E32.21764
G1 X84.995 Y92.945 E32.31779
G1 X85.421 Y92.336 E32.35701
G1 X86.576 Y90.830 E32.45714
G1 X87.054 Y90.261 E32.49635
G1 X88.557 Y88.641 E32.61293
G1 E30.61293 F1800.00000
G92 E0
G1 X91.473 Y91.473 F5400.000
G1 E2.00000 F1800.00000
G1 X93.233 Y89.867 E2.12572 F1200.000
G1 X95.052 Y88.482 E2.24634
G1 X96.984 Y87.261 E2.36695
G1 X98.839 Y86.295 E2.47733
G1 X100.948 Y85.413 E2.59793
G1 X103.312 Y84.667 E2.72877
G1 X105.546 Y84.181 E2.84941
G1 X107.813 Y83.891 E2.96998
G1 X109.903 Y83.799 E3.08036
G1 X110.203 Y83.804 E3.09621
G1 X112.380 Y83.908 E3.21123 F1200.000
G1 X114.645 Y84.214 E3.33182
G1 X116.875 Y84.717 E3.45246
G1 X119.052 Y85.413 E3.57307
G1 X121.161 Y86.295 E3.69368
G1 X123.184 Y87.358 E3.81429
G1 X125.107 Y88.593 E3.93488
G1 X126.915 Y89.991 E4.05549
G1 X128.595 Y91.542 E4.17613
G1 X130.133 Y93.233 E4.29674
G1 X131.518 Y95.052 E4.41735
G1 X132.739 Y96.984 E4.53797
G1 X133.787 Y99.015 E4.65858
G1 X134.654 Y101.130 E4.77917
G1 X135.333 Y103.313 E4.89980
G1 X135.819 Y105.546 E5.02041
G1 X136.109 Y107.813 E5.14100
G1 X136.201 Y110.097 E5.26161
G1 X136.092 Y112.380 E5.38225
G1 X135.786 Y114.645 E5.50286
G1 X135.283 Y116.875 E5.62346
G1 X134.587 Y119.052 E5.74407
G1 X133.705 Y121.161 E5.86469
G1 X132.642 Y123.184 E5.98529
G1 X131.407 Y125.108 E6.10591
G1 X130.008 Y126.916 E6.22651
G1 X128.596 Y128.458 E6.33687
G1 X126.916 Y130.008 E6.45751
G1 X125.108 Y131.407 E6.57812
G1 X123.184 Y132.642 E6.69874
G1 X121.161 Y133.705 E6.81934
G1 X119.052 Y134.587 E6.93996
G1 X116.875 Y135.283 E7.06057
G1 X114.645 Y135.786 E7.18117
G1 X112.380 Y136.092 E7.30179
G1 X110.097 Y136.201 E7.42241
G1 X107.813 Y136.109 E7.54302
G1 X105.546 Y135.819 E7.66361
G1 X103.313 Y135.333 E7.78423
G1 X103.023 Y135.251 E7.80010
