; generated by Slic3r 1.2.9 on 2019-07-04 at 01:23:42

; external perimeters extrusion width = 0.40mm
; perimeters extrusion width = 0.67mm
; infill extrusion width = 0.67mm
; solid infill extrusion width = 0.67mm
; top infill extrusion width = 0.67mm
; support material extrusion width = 0.40mm

M107
M83 ; use relative distances for extrusion
G28 ; home axes
M201 X900 Y900 ; Set max acceleration in X and Y [mm/s^2] ; MM
M204 S900 P500 ; Set actual acceleration S..Travel P..Print ; MM
M203 Z20 E200 ; Set max feedrate
M205 X8 Y8 ; Set xy max jerk [mm/s] starting from that speed it uses
acceleration ; MM
M84 S0 ; Disable Stepper Timeout
G0 Z6 F4000
M104 S160 ;
M140 S55;
G1 X10 Y10 F9000 ; go to front of bed
G1 X100 Y10 F9000 ; go to front of bed
G1 Z0.10 ; use the bed to block the nozzle to prevent ooze
M190 S55;
M109 S210;
G92 E0    ; zero the extruder
G1 X80 E24 F500 ; make a blob/line (2cm)
G1 X10 F4000 ; wipe along the edge of the bed
G1 Y15 F4000 ; wipe along the edge of the bed
G1 X180 F4000 ; wipe along the edge of the bed
G1 Z0.5     ; lift before move to center
M82 ;
G21 ; set units to millimeters
G90 ; use absolute coordinates
M82 ; use absolute distances for extrusion
G92 E0
G1 E-2.00000 F1800.00000
G92 E0
G1 Z0.240 F5400.000
M117 Printing layer 0
G1 X86.622 Y86.622 F5400.000
G1 E2.00000 F1800.00000
G1 X86.917 Y86.327 E2.02203 F1200.000
G1 X88.429 Y84.942 E2.13021
G1 X89.068 Y84.405 E2.17424
G1 X90.695 Y83.157 E2.28244
G1 X91.378 Y82.679 E2.32644
G1 X93.108 Y81.576 E2.43468
G1 X93.830 Y81.159 E2.47872
G1 X95.649 Y80.212 E2.58692
G1 X96.406 Y79.860 E2.63096
G1 X98.300 Y79.075 E2.73914
G1 X99.094 Y78.786 E2.78375
G1 X101.040 Y78.173 E2.89139
G1 X101.845 Y77.957 E2.93540
G1 X103.848 Y77.513 E3.04363
G1 X104.670 Y77.368 E3.08767
G1 X106.703 Y77.100 E3.19586
G1 X107.534 Y77.028 E3.23988
G1 X109.583 Y76.938 E3.34811
G1 X110.427 Y76.939 E3.39264
G1 X112.466 Y77.028 E3.50033 F1200.000
G1 X113.297 Y77.100 E3.54440
G1 X115.330 Y77.368 E3.65258
G1 X116.152 Y77.513 E3.69660
G1 X118.154 Y77.957 E3.80481
G1 X118.960 Y78.173 E3.84887
G1 X120.916 Y78.789 E3.95705
G1 X121.700 Y79.075 E4.00110
G1 X123.594 Y79.860 E4.10930
G1 X124.350 Y80.212 E4.15332
G1 X126.169 Y81.159 E4.26152
G1 X126.892 Y81.576 E4.30557
G1 X128.621 Y82.678 E4.41376
G1 X129.305 Y83.157 E4.45781
G1 X130.932 Y84.405 E4.56600
G1 X131.571 Y84.942 E4.61005
G1 X133.083 Y86.327 E4.71823
G1 X133.673 Y86.917 E4.76230
G1 X135.059 Y88.429 E4.87053
G1 X135.595 Y89.068 E4.91452
G1 X136.844 Y90.695 E5.02274
G1 X137.322 Y91.379 E5.06677
G1 X138.424 Y93.108 E5.17494
G1 X138.841 Y93.831 E5.21901
G1 X139.788 Y95.650 E5.32722
G1 X140.140 Y96.406 E5.37122
G1 X140.925 Y98.300 E5.47941
G1 X141.211 Y99.084 E5.52347
G1 X141.827 Y101.040 E5.63165
G1 X142.043 Y101.846 E5.67572
G1 X142.487 Y103.848 E5.78390
G1 X142.632 Y104.670 E5.82795
G1 X142.900 Y106.703 E5.93612
G1 X142.972 Y107.534 E5.98019
G1 X143.062 Y109.583 E6.08837
G1 X143.062 Y110.417 E6.13242
G1 X142.972 Y112.466 E6.24065
G1 X142.900 Y113.297 E6.28466
G1 X142.632 Y115.332 E6.39294
G1 X142.487 Y116.152 E6.43689
G1 X142.043 Y118.155 E6.54514
G1 X141.827 Y118.960 E6.58914
G1 X141.210 Y120.916 E6.69736
G1 X140.925 Y121.700 E6.74138
G1 X140.140 Y123.595 E6.84959
G1 X139.788 Y124.351 E6.89360
G1 X138.841 Y126.169 E7.00178
G1 X138.424 Y126.892 E7.04584
G1 X137.322 Y128.622 E7.15405
G1 X136.843 Y129.305 E7.19808
G1 X135.595 Y130.932 E7.30627
G1 X135.058 Y131.571 E7.35031
G1 X133.673 Y133.083 E7.45851
G1 X133.083 Y133.673 E7.50255
G1 X131.571 Y135.058 E7.61074
G1 X130.932 Y135.595 E7.65478
G1 X129.305 Y136.843 E7.76296
G1 X128.622 Y137.322 E7.80700
G1 X126.892 Y138.424 E7.91520
G1 X126.169 Y138.841 E7.95927
G1 X124.351 Y139.788 E8.06745
G1 X123.595 Y140.140 E8.11146
G1 X121.700 Y140.925 E8.21967
G1 X120.917 Y141.210 E8.26366
G1 X118.960 Y141.827 E8.37191
G1 X118.154 Y142.043 E8.41595
G1 X116.152 Y142.487 E8.52416
G1 X115.332 Y142.632 E8.56811
G1 X113.297 Y142.900 E8.67639
G1 X112.457 Y142.973 E8.72090
G1 X110.417 Y143.062 E8.82863
G1 X109.583 Y143.062 E8.87268
G1 X107.534 Y142.972 E8.98086
G1 X106.703 Y142.900 E9.02492
G1 X104.670 Y142.632 E9.13310
G1 X103.848 Y142.487 E9.17715
G1 X101.846 Y142.043 E9.28533
G1 X101.040 Y141.827 E9.32940
G1 X99.084 Y141.211 E9.43758
G1 X98.300 Y140.925 E9.48164
G1 X96.406 Y140.140 E9.58982
G1 X95.650 Y139.788 E9.63380
G1 X93.831 Y138.841 E9.74204
G1 X93.108 Y138.424 E9.78611
G1 X91.379 Y137.322 E9.89428
G1 X90.695 Y136.843 E9.93832
G1 X89.068 Y135.595 E10.04653
G1 X88.429 Y135.059 E10.09052
G1 X86.917 Y133.673 E10.19875
G1 X86.327 Y133.083 E10.24282
G1 X84.942 Y131.571 E10.35100
G1 X84.405 Y130.932 E10.39504
G1 X83.157 Y129.305 E10.50324
G1 X82.678 Y128.621 E10.54729
G1 X81.576 Y126.892 E10.65548
G1 X81.159 Y126.169 E10.69953
G1 X80.212 Y124.351 E10.80771
G1 X79.860 Y123.594 E10.85175
G1 X79.075 Y121.700 E10.95995
G1 X78.789 Y120.916 E11.00399
G1 X78.173 Y118.960 E11.11219
G1 X77.957 Y118.154 E11.15624
G1 X77.513 Y116.152 E11.26442
G1 X77.368 Y115.330 E11.30847
G1 X77.100 Y113.297 E11.41665
G1 X77.028 Y112.466 E11.46072
G1 X76.938 Y110.416 E11.56894
G1 X76.938 Y109.583 E11.61294
G1 X77.028 Y107.534 E11.72117
G1 X77.100 Y106.703 E11.76518
G1 X77.368 Y104.670 E11.87337
G1 X77.513 Y103.848 E11.91741
G1 X77.957 Y101.846 E12.02559
G1 X78.173 Y101.040 E12.06966
G1 X78.789 Y99.084 E12.17784
G1 X79.075 Y98.300 E12.22190
G1 X79.860 Y96.406 E12.33009
G1 X80.212 Y95.649 E12.37412
G1 X81.159 Y93.831 E12.48231
G1 X81.576 Y93.108 E12.52637
G1 X82.678 Y91.378 E12.63458
G1 X83.157 Y90.695 E12.67861
G1 X84.405 Y89.068 E12.78681
G1 X84.942 Y88.429 E12.83084
G1 X86.327 Y86.917 E12.93901
G1 X86.579 Y86.664 E12.95788
G1 X86.992 Y86.992 F5400.000
G1 X87.271 Y86.713 E12.97871 F1200.000
G1 X88.782 Y85.328 E13.08689
G1 X89.387 Y84.821 E13.12851
G1 X91.013 Y83.572 E13.23671
G1 X91.659 Y83.120 E13.27830
G1 X93.389 Y82.018 E13.38654
G1 X94.081 Y81.619 E13.42870
G1 X95.891 Y80.677 E13.53637
G1 X96.606 Y80.343 E13.57800
G1 X98.500 Y79.559 E13.68618
G1 X99.252 Y79.286 E13.72837
G1 X101.197 Y78.672 E13.83601
G1 X101.959 Y78.468 E13.87762
G1 X103.961 Y78.024 E13.98585
G1 X104.738 Y77.887 E14.02748
G1 X106.771 Y77.620 E14.13567
G1 X107.556 Y77.551 E14.17728
G1 X109.605 Y77.461 E14.28550
G1 X110.404 Y77.462 E14.32763
G1 X112.443 Y77.551 E14.43532 F1200.000
G1 X113.229 Y77.620 E14.47697
G1 X115.262 Y77.887 E14.58515
G1 X116.038 Y78.024 E14.62676
G1 X118.040 Y78.468 E14.73497
G1 X118.803 Y78.672 E14.77663
G1 X120.758 Y79.289 E14.88481
G1 X121.500 Y79.559 E14.92644
G1 X123.394 Y80.343 E15.03464
G1 X124.109 Y80.677 E15.07626
G1 X125.927 Y81.623 E15.18445
G1 X126.611 Y82.018 E15.22609
G1 X128.340 Y83.120 E15.33428
G1 X128.987 Y83.572 E15.37592
G1 X130.613 Y84.820 E15.48412
G1 X131.218 Y85.328 E15.52575
G1 X132.729 Y86.713 E15.63393
G1 X133.287 Y87.271 E15.67559
G1 X134.673 Y88.783 E15.78381
G1 X135.180 Y89.387 E15.82540
G1 X136.428 Y91.014 E15.93362
G1 X136.880 Y91.660 E15.97524
G1 X137.982 Y93.389 E16.08341
G1 X138.377 Y94.073 E16.12507
G1 X139.324 Y95.892 E16.23328
G1 X139.657 Y96.606 E16.27487
G1 X140.441 Y98.500 E16.38306
G1 X140.711 Y99.242 E16.42471
G1 X141.328 Y101.197 E16.53289
G1 X141.532 Y101.960 E16.57455
G1 X141.976 Y103.961 E16.68273
G1 X142.113 Y104.738 E16.72436
G1 X142.380 Y106.771 E16.83254
G1 X142.449 Y107.557 E16.87420
G1 X142.539 Y109.605 E16.98238
G1 X142.539 Y110.395 E17.02401
G1 X142.449 Y112.444 E17.13224
G1 X142.380 Y113.229 E17.17385
G1 X142.113 Y115.263 E17.28212
G1 X141.976 Y116.039 E17.32367
G1 X141.532 Y118.041 E17.43191
G1 X141.328 Y118.803 E17.47350
G1 X140.711 Y120.759 E17.58172
G1 X140.441 Y121.500 E17.62334
G1 X139.656 Y123.394 E17.73154
G1 X139.323 Y124.109 E17.77315
G1 X138.377 Y125.927 E17.88132
G1 X137.982 Y126.611 E17.92298
G1 X136.880 Y128.341 E18.03119
G1 X136.428 Y128.987 E18.07281
G1 X135.180 Y130.613 E18.18099
G1 X134.672 Y131.218 E18.22263
G1 X133.287 Y132.729 E18.33082
G1 X132.729 Y133.287 E18.37245
G1 X131.218 Y134.672 E18.48064
G1 X130.613 Y135.179 E18.52227
G1 X128.987 Y136.428 E18.63046
G1 X128.341 Y136.880 E18.67208
G1 X126.611 Y137.982 E18.78029
G1 X125.927 Y138.377 E18.82194
G1 X124.109 Y139.323 E18.93012
G1 X123.394 Y139.656 E18.97173
G1 X121.500 Y140.441 E19.07993
G1 X120.759 Y140.711 E19.12152
G1 X118.803 Y141.328 E19.22977
G1 X118.041 Y141.532 E19.27139
G1 X116.039 Y141.976 E19.37960
G1 X115.263 Y142.113 E19.42114
G1 X113.229 Y142.380 E19.52942
G1 X112.434 Y142.450 E19.57152
G1 X110.395 Y142.539 E19.67925
G1 X109.605 Y142.539 E19.72089
G1 X107.557 Y142.449 E19.82907
G1 X106.771 Y142.380 E19.87072
G1 X104.738 Y142.113 E19.97890
G1 X103.961 Y141.976 E20.02054
G1 X101.960 Y141.532 E20.12872
G1 X101.197 Y141.328 E20.17038
G1 X99.242 Y140.711 E20.27856
G1 X98.500 Y140.441 E20.32021
G1 X96.606 Y139.657 E20.42839
G1 X95.892 Y139.324 E20.46997
G1 X94.073 Y138.377 E20.57820
G1 X93.389 Y137.982 E20.61986
G1 X91.660 Y136.880 E20.72803
G1 X91.014 Y136.428 E20.76966
G1 X89.387 Y135.180 E20.87787
G1 X88.783 Y134.673 E20.91945
G1 X87.271 Y133.287 E21.02768
G1 X86.713 Y132.729 E21.06934
G1 X85.328 Y131.218 E21.17752
G1 X84.820 Y130.613 E21.21915
G1 X83.572 Y128.987 E21.32735
G1 X83.120 Y128.340 E21.36899
G1 X82.018 Y126.611 E21.47717
G1 X81.623 Y125.927 E21.51882
G1 X80.677 Y124.109 E21.62700
G1 X80.343 Y123.394 E21.66863
G1 X79.559 Y121.500 E21.77683
G1 X79.289 Y120.758 E21.81846
G1 X78.672 Y118.803 E21.92666
G1 X78.468 Y118.040 E21.96830
G1 X78.024 Y116.039 E22.07648
G1 X77.887 Y115.262 E22.11812
G1 X77.620 Y113.229 E22.22630
G1 X77.551 Y112.443 E22.26795
G1 X77.461 Y110.394 E22.37618
G1 X77.461 Y109.605 E22.41777
G1 X77.551 Y107.556 E22.52599
G1 X77.620 Y106.771 E22.56760
G1 X77.887 Y104.738 E22.67578
G1 X78.024 Y103.961 E22.71742
G1 X78.468 Y101.960 E22.82560
G1 X78.672 Y101.197 E22.86726
G1 X79.289 Y99.242 E22.97543
G1 X79.559 Y98.500 E23.01709
G1 X80.343 Y96.606 E23.12527
G1 X80.677 Y95.891 E23.16690
G1 X81.623 Y94.072 E23.27508
G1 X82.018 Y93.389 E23.31673
G1 X83.120 Y91.659 E23.42494
G1 X83.572 Y91.013 E23.46656
G1 X84.821 Y89.387 E23.57476
G1 X85.328 Y88.782 E23.61638
G1 X86.713 Y87.271 E23.72456
G1 X86.949 Y87.034 E23.74222
G1 X87.362 Y87.362 F5400.000
G1 X87.625 Y87.099 E23.76184 F1200.000
G1 X89.136 Y85.714 E23.87002
G1 X89.705 Y85.236 E23.90923
G1 X91.332 Y83.988 E24.01743
G1 X91.940 Y83.562 E24.05662
G1 X93.670 Y82.460 E24.16485
G1 X94.323 Y82.083 E24.20463
G1 X96.133 Y81.141 E24.31227
G1 X96.806 Y80.827 E24.35149
G1 X98.701 Y80.042 E24.45967
G1 X99.408 Y79.785 E24.49941
G1 X101.355 Y79.172 E24.60709
G1 X102.072 Y78.979 E24.64629
G1 X104.075 Y78.535 E24.75452
G1 X104.806 Y78.406 E24.79374
G1 X106.839 Y78.139 E24.90193
G1 X107.579 Y78.074 E24.94113
G1 X109.628 Y77.985 E25.04935
G1 X110.381 Y77.985 E25.08907
G1 X112.420 Y78.074 E25.19676 F1200.000
G1 X113.161 Y78.139 E25.23600
G1 X115.193 Y78.406 E25.34418
G1 X115.925 Y78.535 E25.38338
G1 X117.927 Y78.979 E25.49159
G1 X118.645 Y79.172 E25.53084
G1 X120.601 Y79.788 E25.63902
G1 X121.299 Y80.042 E25.67824
G1 X123.194 Y80.827 E25.78644
G1 X123.867 Y81.141 E25.82565
G1 X125.686 Y82.088 E25.93384
G1 X126.330 Y82.460 E25.97307
G1 X128.059 Y83.561 E26.08126
G1 X128.668 Y83.988 E26.12049
G1 X130.294 Y85.236 E26.22868
G1 X130.864 Y85.714 E26.26791
G1 X132.375 Y87.099 E26.37609
G1 X132.901 Y87.625 E26.41533
G1 X134.287 Y89.137 E26.52356
G1 X134.764 Y89.706 E26.56274
G1 X136.013 Y91.333 E26.67096
G1 X136.439 Y91.941 E26.71016
G1 X137.540 Y93.670 E26.81834
G1 X137.912 Y94.314 E26.85758
G1 X138.859 Y96.133 E26.96579
G1 X139.173 Y96.806 E27.00498
G1 X139.958 Y98.701 E27.11316
G1 X140.212 Y99.399 E27.15241
G1 X140.828 Y101.355 E27.26058
G1 X141.021 Y102.073 E27.29983
G1 X141.465 Y104.075 E27.40801
G1 X141.594 Y104.807 E27.44724
G1 X141.861 Y106.839 E27.55542
G1 X141.926 Y107.580 E27.59466
G1 X142.015 Y109.628 E27.70284
G1 X142.015 Y110.372 E27.74207
G1 X141.926 Y112.421 E27.85029
G1 X141.861 Y113.161 E27.88949
G1 X141.593 Y115.195 E27.99776
G1 X141.465 Y115.925 E28.03690
G1 X141.021 Y117.928 E28.14514
G1 X140.828 Y118.645 E28.18433
G1 X140.212 Y120.601 E28.29254
G1 X139.958 Y121.299 E28.33175
G1 X139.173 Y123.194 E28.43995
G1 X138.859 Y123.867 E28.47915
G1 X137.912 Y125.686 E28.58733
G1 X137.540 Y126.330 E28.62657
G1 X136.439 Y128.059 E28.73478
G1 X136.012 Y128.668 E28.77399
G1 X134.764 Y130.294 E28.88218
G1 X134.286 Y130.864 E28.92140
G1 X132.901 Y132.376 E29.02959
G1 X132.376 Y132.901 E29.06881
G1 X130.864 Y134.286 E29.17700
G1 X130.295 Y134.764 E29.21622
G1 X128.668 Y136.012 E29.32441
G1 X128.059 Y136.439 E29.36363
G1 X126.330 Y137.540 E29.47183
G1 X125.686 Y137.912 E29.51107
G1 X123.867 Y138.859 E29.61925
G1 X123.194 Y139.173 E29.65845
G1 X121.299 Y139.958 E29.76665
G1 X120.602 Y140.212 E29.80583
G1 X118.645 Y140.828 E29.91408
G1 X117.927 Y141.021 E29.95330
G1 X115.925 Y141.465 E30.06150
G1 X115.195 Y141.593 E30.10064
G1 X113.161 Y141.861 E30.20891
G1 X112.411 Y141.926 E30.24861
G1 X110.372 Y142.015 E30.35633
G1 X109.628 Y142.015 E30.39556
G1 X107.580 Y141.926 E30.50374
G1 X106.839 Y141.861 E30.54298
G1 X104.807 Y141.594 E30.65116
G1 X104.075 Y141.465 E30.69039
G1 X102.073 Y141.021 E30.79857
G1 X101.355 Y140.828 E30.83782
G1 X99.399 Y140.212 E30.94600
G1 X98.701 Y139.958 E30.98524
G1 X96.806 Y139.173 E31.09342
G1 X96.134 Y138.859 E31.13259
G1 X94.314 Y137.912 E31.24082
G1 X93.670 Y137.540 E31.28006
G1 X91.941 Y136.439 E31.38824
G1 X91.332 Y136.013 E31.42746
G1 X89.706 Y134.764 E31.53567
G1 X89.137 Y134.287 E31.57484
G1 X87.625 Y132.901 E31.68307
G1 X87.099 Y132.375 E31.72232
G1 X85.714 Y130.864 E31.83049
G1 X85.236 Y130.294 E31.86972
G1 X83.988 Y128.668 E31.97791
G1 X83.561 Y128.059 E32.01714
G1 X82.460 Y126.330 E32.12533
G1 X82.088 Y125.686 E32.16457
G1 X81.141 Y123.867 E32.27274
G1 X80.827 Y123.194 E32.31196
G1 X80.042 Y121.299 E32.42016
G1 X79.788 Y120.601 E32.45939
G1 X79.172 Y118.645 E32.56759
G1 X78.979 Y117.927 E32.60681
G1 X78.535 Y115.925 E32.71499
G1 X78.406 Y115.193 E32.75422
G1 X78.139 Y113.161 E32.86240
G1 X78.074 Y112.420 E32.90165
G1 X77.984 Y110.371 E33.00987
G1 X77.985 Y109.628 E33.04905
G1 X78.074 Y107.579 E33.15727
G1 X78.139 Y106.839 E33.19647
G1 X78.406 Y104.807 E33.30466
G1 X78.535 Y104.075 E33.34388
G1 X78.979 Y102.073 E33.45206
G1 X79.172 Y101.355 E33.49131
G1 X79.788 Y99.399 E33.59949
G1 X80.042 Y98.700 E33.63873
G1 X80.827 Y96.806 E33.74691
G1 X81.141 Y96.133 E33.78613
G1 X82.088 Y94.314 E33.89432
G1 X82.460 Y93.670 E33.93355
G1 X83.562 Y91.941 E34.04176
G1 X83.988 Y91.332 E34.08097
G1 X85.236 Y89.705 E34.18917
G1 X85.714 Y89.136 E34.22838
G1 X87.319 Y87.404 E34.35300
G1 E32.35300 F1800.00000
G92 E0
G1 X90.236 Y90.236 F5400.000
G1 E2.00000 F1800.00000
G1 X92.108 Y88.526 E2.13378 F1200.000
G1 X94.047 Y87.049 E2.26243
G1 X95.941 Y85.843 E2.38088
G1 X96.204 Y85.696 E2.39679
G1 X98.276 Y84.627 E2.51980
G1 X100.349 Y83.768 E2.63821
G1 X102.859 Y82.977 E2.77711
G1 X105.242 Y82.457 E2.90579
G1 X107.660 Y82.147 E3.03445
G1 X109.903 Y82.049 E3.15288
G1 X110.204 Y82.054 E3.16878
G1 X112.533 Y82.164 E3.29180 F1200.000
G1 X114.949 Y82.491 E3.42046
G1 X117.328 Y83.027 E3.54914
G1 X119.651 Y83.768 E3.67780
G1 X121.900 Y84.709 E3.80647
G1 X124.059 Y85.843 E3.93513
G1 X126.111 Y87.160 E4.06380
G1 X128.041 Y88.651 E4.19249
G1 X129.833 Y90.305 E4.32114
G1 X131.474 Y92.108 E4.44981
G1 X132.952 Y94.048 E4.57848
G1 X134.254 Y96.109 E4.70714
G1 X135.373 Y98.276 E4.83581
G1 X136.298 Y100.531 E4.96447
G1 X137.023 Y102.859 E5.09313
G1 X137.543 Y105.242 E5.22180
G1 X137.853 Y107.660 E5.35046
G1 X137.951 Y110.097 E5.47914
G1 X137.836 Y112.533 E5.60782
G1 X137.509 Y114.949 E5.73649
G1 X136.973 Y117.328 E5.86516
G1 X136.232 Y119.651 E5.99383
G1 X135.291 Y121.900 E6.12249
G1 X134.157 Y124.059 E6.25115
G1 X132.840 Y126.111 E6.37982
G1 X131.349 Y128.041 E6.50848
G1 X129.833 Y129.695 E6.62692
G1 X128.041 Y131.349 E6.75558
G1 X126.111 Y132.840 E6.88424
G1 X124.059 Y134.157 E7.01292
G1 X121.900 Y135.291 E7.14158
G1 X119.651 Y136.232 E7.27024
G1 X117.328 Y136.973 E7.39891
G1 X114.949 Y137.509 E7.52758
G1 X112.533 Y137.836 E7.65624
G1 X112.232 Y137.857 E7.67215
G1 X109.902 Y137.951 E7.79520
G1 X107.466 Y137.836 E7.92388
