; generated by Slic3r 1.2.9 on 2019-06-23 at 01:26:44

; external perimeters extrusion width = 0.40mm
; perimeters extrusion width = 0.67mm
; infill extrusion width = 0.67mm
; solid infill extrusion width = 0.67mm
; top infill extrusion width = 0.67mm
; support material extrusion width = 0.40mm

M107
M83 ; use relative distances for extrusion
G28 ; home axes
M201 X900 Y900 ; Set max acceleration in X and Y [mm/s^2] ; MM
M204 S900 P500 ; Set actual acceleration S..Travel P..Print ; MM
M203 Z20 E200 ; Set max feedrate
M205 X8 Y8 ; Set xy max jerk [mm/s] starting from that speed it uses
acceleration ; MM
M84 S0 ; Disable Stepper Timeout
G0 Z6 F4000
M104 S160 ;
M140 S55;
G1 X10 Y10 F9000 ; go to front of bed
G1 X100 Y10 F9000 ; go to front of bed
G1 Z0.10 ; use the bed to block the nozzle to prevent ooze
M190 S55;
M109 S210;
G92 E0    ; zero the extruder
G1 X80 E24 F500 ; make a blob/line (2cm)
G1 X10 F4000 ; wipe along the edge of the bed
G1 Y15 F4000 ; wipe along the edge of the bed
G1 X180 F4000 ; wipe along the edge of the bed
G1 Z0.5     ; lift before move to center
M82 ;
G21 ; set units to millimeters
G90 ; use absolute coordinates
M82 ; use absolute distances for extrusion
G92 E0
G1 E-2.00000 F1800.00000
G92 E0
G1 Z0.240 F5400.000
G1 X76.287 Y96.143 F5400.000
G1 E2.00000 F1800.00000
G1 X78.007 Y95.358 E2.09977 F1200.000
G1 X106.780 Y85.519 E3.70436
G1 X107.670 Y85.276 E3.75303
G1 X108.577 Y85.113 E3.80167
G1 X109.495 Y85.029 E3.85034
G1 X110.277 Y85.020 E3.89160
G1 X111.423 Y85.113 E3.95226 F1200.000
G1 X112.330 Y85.276 E4.00089
G1 X113.220 Y85.519 E4.04957
G1 X142.606 Y95.358 E5.68479
G1 X145.069 Y96.602 E5.83042
G1 X147.075 Y98.498 E5.97605
G1 X148.456 Y100.887 E6.12168
G1 X149.138 Y104.433 E6.31221
G1 X149.138 Y121.544 E7.21510
G1 X148.740 Y124.275 E7.36073
G1 X148.123 Y125.833 E7.44912
G1 X147.301 Y127.472 E7.54591
G1 X145.722 Y129.736 E7.69154
G1 X143.562 Y131.454 E7.83717
G1 X141.002 Y132.485 E7.98279
G1 X138.745 Y132.755 E8.10275
G1 X81.052 Y132.755 E11.14706
G1 X78.321 Y132.357 E11.29269
G1 X76.647 Y131.681 E11.38795
G1 X76.028 Y131.360 E11.42473
G1 X73.787 Y129.750 E11.57036
G1 X72.098 Y127.567 E11.71599
G1 X71.102 Y124.993 E11.86162
G1 X70.862 Y122.863 E11.97471
G1 X70.862 Y105.752 E12.87761
G1 X71.260 Y103.021 E13.02324
G1 X71.877 Y101.464 E13.11162
G1 X72.548 Y100.125 E13.19066
G1 X74.127 Y97.862 E13.33629
G1 X76.240 Y96.181 E13.47875
G1 X76.618 Y96.570 F5400.000
G1 X76.680 Y96.521 E13.48293 F1200.000
G1 X78.176 Y95.853 E13.56938
G1 X106.937 Y86.018 E15.17330
G1 X107.783 Y85.788 E15.21956
G1 X108.645 Y85.632 E15.26579
G1 X109.518 Y85.552 E15.31205
G1 X110.262 Y85.543 E15.35131
G1 X111.355 Y85.632 E15.40915 F1200.000
G1 X112.217 Y85.788 E15.45537
G1 X113.063 Y86.018 E15.50164
G1 X142.440 Y95.854 E17.13637
G1 X144.829 Y97.074 E17.27794
G1 X146.756 Y98.941 E17.41951
G1 X148.051 Y101.291 E17.56107
G1 X148.614 Y104.433 E17.72954
G1 X148.614 Y121.544 E18.63243
G1 X148.216 Y124.197 E18.77400
G1 X147.655 Y125.598 E18.85362
G1 X146.833 Y127.238 E18.95041
G1 X145.289 Y129.432 E19.09197
G1 X143.169 Y131.076 E19.23354
G1 X140.660 Y132.026 E19.37511
G1 X138.745 Y132.231 E19.47673
G1 X81.052 Y132.231 E22.52104
G1 X78.399 Y131.833 E22.66261
G1 X76.888 Y131.216 E22.74873
G1 X76.269 Y130.895 E22.78551
G1 X74.097 Y129.321 E22.92708
G1 X72.482 Y127.179 E23.06864
G1 X71.566 Y124.657 E23.21021
G1 X71.386 Y122.863 E23.30534
G1 X71.386 Y105.752 E24.20823
G1 X71.784 Y103.099 E24.34980
G1 X72.345 Y101.699 E24.42942
G1 X73.016 Y100.359 E24.50846
G1 X74.561 Y98.166 E24.65003
G1 X76.571 Y96.607 E24.78425
G1 X76.943 Y97.001 F5400.000
G1 X77.071 Y96.904 E24.79273 F1200.000
G1 X78.346 Y96.348 E24.86610
G1 X107.095 Y86.518 E26.46935
G1 X107.897 Y86.299 E26.51320
G1 X108.714 Y86.151 E26.55702
G1 X109.541 Y86.075 E26.60086
G1 X110.247 Y86.066 E26.63812
G1 X111.286 Y86.151 E26.69314 F1200.000
G1 X112.103 Y86.299 E26.73696
G1 X112.905 Y86.518 E26.78081
G1 X142.273 Y96.351 E28.41506
G1 X144.587 Y97.545 E28.55244
G1 X146.432 Y99.382 E28.68983
G1 X147.637 Y101.690 E28.82722
G1 X148.090 Y104.433 E28.97394
G1 X148.090 Y121.544 E29.87683
G1 X147.693 Y124.117 E30.01421
G1 X147.187 Y125.363 E30.08518
G1 X146.365 Y127.003 E30.18197
G1 X144.857 Y129.125 E30.31935
G1 X142.778 Y130.693 E30.45674
G1 X140.323 Y131.560 E30.59413
G1 X138.745 Y131.708 E30.67776
G1 X81.052 Y131.708 E33.72206
G1 X78.479 Y131.310 E33.85945
G1 X77.129 Y130.751 E33.93654
G1 X76.510 Y130.430 E33.97332
G1 X74.409 Y128.893 E34.11071
G1 X72.870 Y126.793 E34.24810
G1 X72.036 Y124.326 E34.38548
G1 X71.910 Y122.863 E34.46299
G1 X71.910 Y105.752 E35.36588
G1 X72.307 Y103.179 E35.50327
G1 X72.813 Y101.933 E35.57423
G1 X73.484 Y100.594 E35.65327
G1 X74.993 Y98.472 E35.79066
G1 X76.895 Y97.037 E35.91640
G1 E33.91640 F1800.00000
G92 E0
G1 X91.096 Y108.825 F5400.000
G1 E2.00000 F1800.00000
G1 X90.905 Y109.149 E2.01986 F1200.000
G1 X91.081 Y110.251 E2.07875
G1 X90.931 Y110.549 E2.09636
G1 X90.906 Y110.712 E2.10503
G1 X91.081 Y111.807 E2.16353
G1 X90.931 Y112.105 E2.18114
G1 X90.906 Y112.267 E2.18981
G1 X91.081 Y113.362 E2.24831
G1 X90.931 Y113.660 E2.26592
G1 X90.906 Y113.823 E2.27460
G1 X91.081 Y114.918 E2.33309
G1 X90.931 Y115.216 E2.35070
G1 X90.906 Y115.378 E2.35938
G1 X91.081 Y116.473 E2.41787
G1 X90.931 Y116.772 E2.43548
G1 X90.906 Y116.934 E2.44416
G1 X91.081 Y118.029 E2.50265
G1 X90.931 Y118.327 E2.52026
G1 X90.906 Y118.490 E2.52894
G1 X91.081 Y119.584 E2.58743
G1 X90.931 Y119.883 E2.60504
G1 X90.906 Y120.045 E2.61372
G1 X91.081 Y121.140 E2.67221
G1 X90.931 Y121.438 E2.68982
G1 X90.906 Y121.601 E2.69850
G1 X91.081 Y122.695 E2.75699
G1 X88.731 Y127.384 E3.03372
G1 X84.820 Y128.683 E3.25116
G1 X83.367 Y127.955 E3.33694
G1 X83.159 Y127.940 E3.34793
G1 X80.922 Y128.683 E3.47232
G1 X79.879 Y128.173 E3.53358
G1 X77.969 Y127.851 E3.63580
G1 X75.424 Y125.284 E3.82657
G1 X74.919 Y122.122 E3.99554
G1 X75.069 Y121.823 E4.01316
G1 X75.094 Y121.661 E4.02183
G1 X74.919 Y120.566 E4.08032
G1 X75.069 Y120.268 E4.09794
G1 X75.094 Y120.105 E4.10661
G1 X74.919 Y119.010 E4.16510
G1 X75.069 Y118.712 E4.18272
G1 X75.094 Y118.550 E4.19139
G1 X74.919 Y117.455 E4.24988
G1 X75.069 Y117.157 E4.26750
G1 X75.094 Y116.994 E4.27617
G1 X74.919 Y115.899 E4.33466
G1 X75.069 Y115.601 E4.35228
G1 X75.094 Y115.439 E4.36095
G1 X74.919 Y114.344 E4.41944
G1 X75.069 Y114.045 E4.43706
G1 X75.094 Y113.883 E4.44573
G1 X74.919 Y112.788 E4.50422
G1 X75.069 Y112.490 E4.52184
G1 X75.094 Y112.328 E4.53051
G1 X74.919 Y111.233 E4.58901
G1 X75.069 Y110.934 E4.60662
G1 X75.094 Y110.772 E4.61529
G1 X74.919 Y109.677 E4.67379
G1 X75.069 Y109.379 E4.69140
G1 X75.094 Y109.216 E4.70007
G1 X74.919 Y108.122 E4.75857
G1 X75.069 Y107.823 E4.77618
G1 X75.094 Y107.661 E4.78485
G1 X74.919 Y106.566 E4.84335
G1 X75.066 Y106.273 E4.86066
G1 X75.081 Y106.065 E4.87166
G1 X74.806 Y105.237 E4.91772
G1 X77.129 Y100.602 E5.19131
G1 X79.605 Y99.114 E5.34372
G1 X82.590 Y99.186 E5.50129
G1 X82.687 Y99.170 E5.50646
G1 X108.135 Y89.911 E6.93541
G1 X108.562 Y89.787 E6.95889
G1 X109.081 Y89.682 E6.98679
G1 X109.372 Y89.644 E7.00230
G1 X109.873 Y89.613 E7.02879
G1 X110.571 Y89.639 E7.06565
G1 X110.947 Y89.686 E7.08561
G1 X111.450 Y89.790 E7.11272
G1 X111.992 Y89.954 E7.14263
G1 X137.845 Y99.364 E8.59439
G1 X137.985 Y99.375 E8.60179
G1 X140.174 Y98.969 E8.71927
G1 X142.814 Y99.997 E8.86873
G1 X144.730 Y102.545 E9.03698
G1 X144.985 Y105.366 E9.18643
G1 X144.931 Y105.473 E9.19279
G1 X144.906 Y105.636 E9.20147
G1 X145.081 Y106.731 E9.25996
G1 X144.931 Y107.029 E9.27757
G1 X144.906 Y107.191 E9.28625
G1 X145.081 Y108.286 E9.34474
G1 X144.931 Y108.584 E9.36235
G1 X144.906 Y108.747 E9.37103
G1 X145.081 Y109.842 E9.42952
G1 X144.931 Y110.140 E9.44713
G1 X144.906 Y110.302 E9.45581
G1 X145.081 Y111.397 E9.51430
G1 X144.931 Y111.696 E9.53191
G1 X144.906 Y111.858 E9.54059
G1 X145.081 Y112.953 E9.59908
G1 X144.931 Y113.251 E9.61669
G1 X144.906 Y113.414 E9.62537
G1 X145.081 Y114.508 E9.68386
G1 X144.931 Y114.807 E9.70147
G1 X144.906 Y114.969 E9.71015
G1 X145.081 Y116.064 E9.76864
G1 X144.931 Y116.362 E9.78625
G1 X144.906 Y116.525 E9.79493
G1 X145.081 Y117.619 E9.85342
G1 X144.931 Y117.918 E9.87103
G1 X144.906 Y118.080 E9.87971
G1 X145.081 Y119.175 E9.93820
G1 X144.931 Y119.473 E9.95582
G1 X144.906 Y119.636 E9.96449
G1 X145.081 Y120.730 E10.02298
G1 X144.931 Y121.029 E10.04060
G1 X144.906 Y121.191 E10.04927
G1 X145.081 Y122.286 E10.10776
G1 X142.526 Y127.384 E10.40865
G1 X138.615 Y128.683 E10.62610
G1 X137.162 Y127.955 E10.71187
G1 X136.954 Y127.940 E10.72286
G1 X134.717 Y128.683 E10.84726
G1 X132.414 Y127.529 E10.98320
G1 X131.969 Y127.442 E11.00712
G1 X131.662 Y127.152 E11.02941
G1 X130.519 Y126.579 E11.09687
G1 X130.239 Y125.736 E11.14375
G1 X130.175 Y125.633 E11.15014
G1 X129.424 Y124.874 E11.20648
G1 X128.919 Y121.712 E11.37545
G1 X129.069 Y121.414 E11.39307
G1 X129.094 Y121.251 E11.40174
G1 X128.919 Y120.157 E11.46023
G1 X129.069 Y119.858 E11.47785
G1 X129.094 Y119.696 E11.48652
G1 X128.919 Y118.601 E11.54502
G1 X129.069 Y118.303 E11.56263
G1 X129.094 Y118.140 E11.57130
G1 X128.919 Y117.046 E11.62979
G1 X129.069 Y116.747 E11.64741
G1 X129.094 Y116.585 E11.65608
G1 X128.919 Y115.490 E11.71457
G1 X129.069 Y115.192 E11.73219
G1 X129.094 Y115.029 E11.74086
G1 X128.919 Y113.935 E11.79935
G1 X129.069 Y113.636 E11.81697
G1 X129.094 Y113.474 E11.82564
G1 X128.919 Y112.379 E11.88414
G1 X129.069 Y112.081 E11.90175
G1 X129.094 Y111.918 E11.91042
G1 X128.919 Y110.823 E11.96892
G1 X129.069 Y110.525 E11.98653
G1 X129.094 Y110.363 E11.99520
G1 X128.871 Y108.966 E12.06981
G1 X128.690 Y108.746 E12.08486
G1 X110.092 Y101.978 E13.12917
G1 X109.908 Y101.978 E13.13891
G1 X91.152 Y108.804 E14.19211
G1 E12.19211 F1800.00000
G92 E0
G1 X129.505 Y108.486 F5400.000
G1 E2.00000 F1800.00000
G1 X110.092 Y101.420 E3.09007 F1200.000
G1 X109.908 Y101.420 E3.09982
G1 X90.725 Y108.402 E4.17700
G1 X90.575 Y108.536 E4.18759
G1 X90.388 Y108.910 E4.20967
G1 X90.362 Y109.072 E4.21835
G1 X90.537 Y110.167 E4.27684
G1 X90.388 Y110.465 E4.29445
G1 X90.363 Y110.628 E4.30313
G1 X90.537 Y111.723 E4.36162
G1 X90.388 Y112.021 E4.37923
G1 X90.363 Y112.183 E4.38791
G1 X90.537 Y113.278 E4.44640
G1 X90.388 Y113.577 E4.46401
G1 X90.363 Y113.739 E4.47269
G1 X90.537 Y114.834 E4.53118
G1 X90.388 Y115.132 E4.54879
G1 X90.363 Y115.295 E4.55747
G1 X90.537 Y116.389 E4.61596
G1 X90.388 Y116.688 E4.63358
G1 X90.363 Y116.850 E4.64225
G1 X90.537 Y117.945 E4.70074
G1 X90.388 Y118.243 E4.71836
G1 X90.363 Y118.406 E4.72703
G1 X90.537 Y119.500 E4.78552
G1 X90.388 Y119.799 E4.80314
G1 X90.363 Y119.961 E4.81181
G1 X90.537 Y121.056 E4.87030
G1 X90.388 Y121.354 E4.88792
G1 X90.362 Y121.517 E4.89659
G1 X90.537 Y122.611 E4.95508
G1 X88.360 Y126.955 E5.21147
G1 X84.861 Y128.118 E5.40603
G1 X83.408 Y127.389 E5.49180
G1 X83.200 Y127.374 E5.50279
G1 X80.963 Y128.118 E5.62719
G1 X80.044 Y127.670 E5.68114
G1 X78.222 Y127.363 E5.77861
G1 X75.914 Y125.035 E5.95160
G1 X75.463 Y122.205 E6.10278
G1 X75.612 Y121.907 E6.12040
G1 X75.637 Y121.745 E6.12907
G1 X75.463 Y120.650 E6.18756
G1 X75.612 Y120.352 E6.20518
G1 X75.637 Y120.189 E6.21385
G1 X75.463 Y119.094 E6.27235
G1 X75.612 Y118.796 E6.28996
G1 X75.637 Y118.634 E6.29863
G1 X75.463 Y117.539 E6.35713
G1 X75.612 Y117.240 E6.37474
G1 X75.637 Y117.078 E6.38341
G1 X75.463 Y115.983 E6.44191
G1 X75.612 Y115.685 E6.45952
G1 X75.637 Y115.522 E6.46819
G1 X75.463 Y114.428 E6.52669
G1 X75.612 Y114.129 E6.54430
G1 X75.637 Y113.967 E6.55297
G1 X75.463 Y112.872 E6.61147
G1 X75.612 Y112.574 E6.62908
G1 X75.637 Y112.411 E6.63776
G1 X75.463 Y111.317 E6.69625
G1 X75.612 Y111.018 E6.71386
G1 X75.637 Y110.856 E6.72254
G1 X75.463 Y109.761 E6.78103
G1 X75.612 Y109.463 E6.79864
G1 X75.637 Y109.300 E6.80732
G1 X75.463 Y108.206 E6.86581
G1 X75.612 Y107.907 E6.88342
G1 X75.637 Y107.745 E6.89210
G1 X75.463 Y106.650 E6.95059
G1 X75.632 Y106.314 E6.97046
G1 X75.647 Y106.106 E6.98145
G1 X75.371 Y105.277 E7.02751
G1 X77.529 Y100.972 E7.28163
G1 X79.744 Y99.641 E7.41800
G1 X82.676 Y99.712 E7.57277
G1 X82.773 Y99.696 E7.57794
G1 X108.497 Y90.346 E9.02217
G1 X109.159 Y90.200 E9.05797
G1 X109.624 Y90.148 E9.08267
G1 X110.048 Y90.135 E9.10505
G1 X110.520 Y90.160 E9.13000
G1 X110.865 Y90.204 E9.14834
G1 X111.527 Y90.353 E9.18415
G1 X137.801 Y99.905 E10.65930
G1 X137.940 Y99.916 E10.66670
G1 X140.123 Y99.511 E10.78386
G1 X142.485 Y100.430 E10.91758
G1 X144.222 Y102.741 E11.07010
G1 X144.450 Y105.264 E11.20382
G1 X144.388 Y105.389 E11.21121
G1 X144.363 Y105.552 E11.21988
G1 X144.537 Y106.647 E11.27837
G1 X144.388 Y106.945 E11.29599
G1 X144.363 Y107.107 E11.30466
G1 X144.537 Y108.202 E11.36315
G1 X144.388 Y108.501 E11.38077
G1 X144.363 Y108.663 E11.38944
G1 X144.537 Y109.758 E11.44793
G1 X144.388 Y110.056 E11.46555
G1 X144.363 Y110.219 E11.47422
G1 X144.537 Y111.313 E11.53272
G1 X144.388 Y111.612 E11.55033
G1 X144.363 Y111.774 E11.55900
G1 X144.537 Y112.869 E11.61750
G1 X144.388 Y113.167 E11.63511
G1 X144.363 Y113.330 E11.64378
G1 X144.537 Y114.424 E11.70228
G1 X144.388 Y114.723 E11.71989
G1 X144.363 Y114.885 E11.72856
G1 X144.537 Y115.980 E11.78706
G1 X144.388 Y116.278 E11.80467
G1 X144.363 Y116.441 E11.81334
G1 X144.537 Y117.535 E11.87184
G1 X144.388 Y117.834 E11.88945
G1 X144.363 Y117.996 E11.89812
G1 X144.537 Y119.091 E11.95662
G1 X144.388 Y119.389 E11.97423
G1 X144.363 Y119.552 E11.98291
G1 X144.537 Y120.646 E12.04140
G1 X144.388 Y120.945 E12.05901
G1 X144.363 Y121.107 E12.06769
G1 X144.537 Y122.202 E12.12618
G1 X142.155 Y126.955 E12.40673
G1 X138.656 Y128.118 E12.60129
G1 X137.203 Y127.389 E12.68706
G1 X136.995 Y127.374 E12.69805
G1 X134.758 Y128.118 E12.82245
G1 X132.578 Y127.025 E12.95109
G1 X132.222 Y126.954 E12.97026
G1 X131.973 Y126.722 E12.98820
G1 X130.947 Y126.208 E13.04874
G1 X130.697 Y125.454 E13.09065
G1 X130.634 Y125.351 E13.09703
G1 X129.914 Y124.625 E13.15096
G1 X129.463 Y121.796 E13.30214
G1 X129.612 Y121.498 E13.31976
G1 X129.637 Y121.335 E13.32843
G1 X129.463 Y120.241 E13.38692
G1 X129.612 Y119.942 E13.40454
G1 X129.638 Y119.780 E13.41321
G1 X129.463 Y118.685 E13.47170
G1 X129.612 Y118.387 E13.48932
G1 X129.637 Y118.224 E13.49799
G1 X129.463 Y117.130 E13.55648
G1 X129.612 Y116.831 E13.57410
G1 X129.637 Y116.669 E13.58277
G1 X129.463 Y115.574 E13.64126
G1 X129.612 Y115.276 E13.65888
G1 X129.637 Y115.113 E13.66755
G1 X129.463 Y114.018 E13.72604
G1 X129.612 Y113.720 E13.74366
G1 X129.637 Y113.558 E13.75233
G1 X129.463 Y112.463 E13.81083
G1 X129.612 Y112.165 E13.82844
G1 X129.637 Y112.002 E13.83711
G1 X129.463 Y110.907 E13.89561
G1 X129.612 Y110.609 E13.91322
G1 X129.637 Y110.447 E13.92189
G1 X129.463 Y109.352 E13.98039
G1 X129.678 Y108.922 E14.00574
G1 X129.527 Y108.542 E14.02736
G1 X129.684 Y107.994 F5400.000
G1 X110.092 Y100.863 E15.12749 F1200.000
G1 X109.908 Y100.863 E15.13723
G1 X90.160 Y108.051 E16.24614
G1 X89.969 Y108.375 E16.26600
G1 X89.994 Y108.528 E16.27415
G1 X89.844 Y108.826 E16.29176
G1 X89.819 Y108.988 E16.30043
G1 X89.994 Y110.083 E16.35893
G1 X89.844 Y110.382 E16.37654
G1 X89.819 Y110.544 E16.38521
G1 X89.994 Y111.639 E16.44371
G1 X89.844 Y111.937 E16.46132
G1 X89.819 Y112.100 E16.46999
G1 X89.994 Y113.194 E16.52849
G1 X89.844 Y113.493 E16.54610
G1 X89.819 Y113.655 E16.55477
G1 X89.994 Y114.750 E16.61327
G1 X89.844 Y115.048 E16.63088
G1 X89.819 Y115.211 E16.63955
G1 X89.994 Y116.305 E16.69805
G1 X89.844 Y116.604 E16.71566
G1 X89.819 Y116.766 E16.72433
G1 X89.994 Y117.861 E16.78283
G1 X89.844 Y118.159 E16.80044
G1 X89.819 Y118.322 E16.80911
G1 X89.994 Y119.416 E16.86761
G1 X89.844 Y119.715 E16.88522
G1 X89.819 Y119.877 E16.89390
G1 X89.994 Y120.972 E16.95239
G1 X89.844 Y121.270 E16.97000
G1 X89.819 Y121.433 E16.97868
G1 X89.994 Y122.527 E17.03717
G1 X87.989 Y126.527 E17.27322
G1 X84.902 Y127.552 E17.44489
G1 X83.449 Y126.824 E17.53066
G1 X83.241 Y126.809 E17.54165
G1 X81.004 Y127.552 E17.66605
G1 X80.208 Y127.167 E17.71270
G1 X78.475 Y126.875 E17.80542
G1 X76.405 Y124.786 E17.96062
G1 X76.006 Y122.289 E18.09402
G1 X76.156 Y121.991 E18.11163
G1 X76.181 Y121.829 E18.12031
G1 X76.006 Y120.734 E18.17880
G1 X76.156 Y120.435 E18.19641
G1 X76.181 Y120.273 E18.20509
