; generated by Slic3r 1.2.9 on 2019-08-06 at 22:56:19

; external perimeters extrusion width = 0.40mm
; perimeters extrusion width = 0.67mm
; infill extrusion width = 0.67mm
; solid infill extrusion width = 0.67mm
; top infill extrusion width = 0.67mm

M107
M83 ; use relative distances for extrusion
G28 ; home axes
M201 X900 Y900 ; Set max acceleration in X and Y [mm/s^2] ; MM
M204 S900 P500 ; Set actual acceleration S..Travel P..Print ; MM
M203 Z20 E200 ; Set max feedrate
M205 X8 Y8 ; Set xy max jerk [mm/s] starting from that speed it uses
acceleration ; MM
M84 S0 ; Disable Stepper Timeout
G0 Z6 F4000
M104 S160 ;
M140 S55;
G1 X10 Y10 F9000 ; go to front of bed
G1 X100 Y10 F9000 ; go to front of bed
G1 Z0.10 ; use the bed to block the nozzle to prevent ooze
M190 S55;
M109 S210;
G92 E0    ; zero the extruder
G1 X80 E24 F500 ; make a blob/line (2cm)
G1 X10 F4000 ; wipe along the edge of the bed
G1 Y15 F4000 ; wipe along the edge of the bed
G1 X180 F4000 ; wipe along the edge of the bed
G1 Z0.5     ; lift before move to center
M82 ;
G21 ; set units to millimeters
G90 ; use absolute coordinates
M82 ; use absolute distances for extrusion
G92 E0
G1 E-2.00000 F1800.00000
G92 E0
G1 Z0.240 F3600.000
M117 Printing layer 0
G1 X13.656 Y45.334 F3600.000
G1 E2.00000 F1800.00000
G1 X17.500 Y44.528 E2.20726 F1200.000
G1 X202.500 Y44.528 E11.96922
G1 X205.231 Y44.926 E12.11485 F1200.000
G1 X207.735 Y46.086 E12.26048
G1 X209.804 Y47.913 E12.40610
G1 X211.265 Y50.254 E12.55173
G1 X212.071 Y54.098 E12.75899
G1 X212.071 Y165.902 E18.65854
G1 X211.673 Y168.632 E18.80417
G1 X210.512 Y171.136 E18.94980
G1 X208.685 Y173.205 E19.09543
G1 X206.344 Y174.666 E19.24105
G1 X202.500 Y175.472 E19.44831
G1 X112.318 Y175.471 E24.20696
G1 X17.318 Y173.668 E29.22076
G1 X14.595 Y173.218 E29.36639
G1 X12.114 Y172.010 E29.51202
G1 X10.080 Y170.144 E29.65764
G1 X8.664 Y167.776 E29.80327
G1 X7.929 Y164.098 E30.00114
G1 X7.929 Y54.098 E35.80555
G1 X8.327 Y51.368 E35.95118
G1 X9.488 Y48.864 E36.09681
G1 X11.315 Y46.795 E36.24244
G1 X13.605 Y45.365 E36.38490
G1 X13.938 Y45.817 F3600.000
G1 X14.142 Y45.698 E36.39736 F1200.000
G1 X17.500 Y45.051 E36.57780
G1 X202.500 Y45.051 E46.33976
G1 X205.153 Y45.449 E46.48133 F1200.000
G1 X207.573 Y46.607 E46.62290
G1 X209.547 Y48.425 E46.76446
G1 X210.901 Y50.741 E46.90603
G1 X211.547 Y54.098 E47.08647
G1 X211.547 Y165.902 E52.98602
G1 X211.149 Y168.555 E53.12758
G1 X209.991 Y170.975 E53.26915
G1 X208.174 Y172.948 E53.41072
G1 X205.858 Y174.303 E53.55229
G1 X202.500 Y174.949 E53.73272
G1 X112.328 Y174.947 E58.49084
G1 X17.328 Y173.144 E63.50464
G1 X14.683 Y172.696 E63.64621
G1 X12.286 Y171.492 E63.78778
G1 X10.347 Y169.638 E63.92935
G1 X9.037 Y167.296 E64.07091
G1 X8.453 Y164.098 E64.24245
G1 X8.453 Y54.098 E70.04685
G1 X8.851 Y51.445 E70.18842
G1 X10.009 Y49.025 E70.32999
G1 X11.826 Y47.052 E70.47156
G1 X13.886 Y45.847 E70.59749
G1 X14.203 Y46.304 F3600.000
G1 X14.624 Y46.075 E70.62280 F1200.000
G1 X17.500 Y45.575 E70.77683
G1 X202.500 Y45.575 E80.53879
G1 X205.073 Y45.973 E80.67618 F1200.000
G1 X207.406 Y47.128 E80.81356
G1 X209.281 Y48.935 E80.95095
G1 X210.524 Y51.223 E81.08834
G1 X211.024 Y54.098 E81.24236
G1 X211.024 Y165.902 E87.14191
G1 X210.626 Y168.475 E87.27930
G1 X209.470 Y170.808 E87.41668
G1 X207.664 Y172.683 E87.55407
G1 X205.376 Y173.925 E87.69146
G1 X202.500 Y174.425 E87.84548
G1 X112.338 Y174.424 E92.60308
G1 X17.338 Y172.621 E97.61688
G1 X14.773 Y172.174 E97.75427
G1 X12.463 Y170.974 E97.89165
G1 X10.622 Y169.133 E98.02904
G1 X9.423 Y166.822 E98.16643
G1 X8.976 Y164.098 E98.31204
G1 X8.976 Y54.098 E104.11645
G1 X9.374 Y51.525 E104.25383
G1 X10.530 Y49.192 E104.39122
G1 X12.336 Y47.317 E104.52861
G1 X14.150 Y46.332 E104.63752
G1 E102.63752 F1800.00000
G92 E0
G1 X116.817 Y59.975 F3600.000
G1 E2.00000 F1800.00000
G1 X120.775 Y59.975 E2.20889 F1200.000
G1 X121.663 Y58.415 E2.30359
G1 X130.537 Y58.415 E2.77185
G1 X131.452 Y59.975 E2.86725
G1 X136.471 Y59.975 E3.13213
G1 X137.359 Y58.415 E3.22684
G1 X146.233 Y58.415 E3.69510
G1 X147.148 Y59.975 E3.79050
G1 X152.167 Y59.975 E4.05537
G1 X153.055 Y58.415 E4.15008
G1 X161.945 Y58.415 E4.61914
G1 X162.833 Y59.975 E4.71385
G1 X167.852 Y59.975 E4.97872
G1 X168.767 Y58.415 E5.07412
G1 X177.641 Y58.415 E5.54238
G1 X178.529 Y59.975 E5.63709
G1 X183.548 Y59.975 E5.90197
G1 X184.463 Y58.415 E5.99737
G1 X193.337 Y58.415 E6.46562
G1 X194.225 Y59.975 E6.56033
G1 X198.183 Y59.975 E6.76922
G1 X198.183 Y160.026 E12.04863
G1 X194.229 Y160.026 E12.25728
G1 X193.331 Y161.585 E12.35222
G1 X184.468 Y161.585 E12.81987
G1 X183.544 Y160.026 E12.91552
G1 X178.533 Y160.026 E13.17990
G1 X177.635 Y161.585 E13.27485
G1 X168.772 Y161.585 E13.74249
G1 X167.848 Y160.026 E13.83814
G1 X162.837 Y160.026 E14.10253
G1 X161.939 Y161.585 E14.19747
G1 X153.061 Y161.585 E14.66591
G1 X152.163 Y160.026 E14.76086
G1 X147.152 Y160.026 E15.02525
G1 X146.228 Y161.585 E15.12090
G1 X137.365 Y161.585 E15.58855
G1 X136.467 Y160.026 E15.68349
G1 X131.456 Y160.026 E15.94788
G1 X130.532 Y161.585 E16.04353
G1 X121.669 Y161.585 E16.51118
G1 X120.771 Y160.026 E16.60612
G1 X116.817 Y160.026 E16.81477
G1 X116.817 Y60.035 E22.09102
G1 E20.09102 F1800.00000
G92 E0
G1 X184.048 Y159.850 F3600.000
G1 E2.00000 F1800.00000
G1 X186.472 Y155.652 E2.25582 F1200.000
G1 X191.312 Y155.652 E2.51116
G1 X193.731 Y159.842 E2.76647
G1 X193.028 Y161.061 E2.84072
G1 X184.767 Y161.061 E3.27666
G1 X184.079 Y159.902 E3.34778
G1 X184.655 Y159.847 F3600.000
G1 X186.775 Y156.175 E3.57148 F1200.000
G1 X191.009 Y156.175 E3.79492
G1 X193.126 Y159.842 E4.01834
G1 X192.726 Y160.538 E4.06069
G1 X185.065 Y160.538 E4.46493
G1 X184.686 Y159.898 E4.50414
G1 X185.313 Y160.102 F3600.000
G1 X185.160 Y159.844 E4.51466 F1200.000
G1 X187.027 Y156.611 E4.64575
G1 X190.757 Y156.612 E4.77678
G1 X192.623 Y159.842 E4.90781
G1 X192.474 Y160.102 E4.91831
G1 X185.373 Y160.102 E5.16768
G1 X185.032 Y160.206 F3600.000
G1 E3.16768 F1800.00000
G92 E0
G1 X183.464 Y151.120 F3600.000
G1 E2.00000 F1800.00000
G1 X185.883 Y155.312 E2.25536 F1200.000
G1 X183.464 Y159.502 E2.51070
G1 X178.624 Y159.502 E2.76604
G1 X176.205 Y155.312 E3.02138
G1 X178.624 Y151.120 E3.27674
G1 X183.404 Y151.120 E3.52892
G1 X183.161 Y151.644 F3600.000
G1 X185.278 Y155.312 E3.75238 F1200.000
G1 X183.161 Y158.979 E3.97582
G1 X178.927 Y158.979 E4.19926
G1 X176.810 Y155.312 E4.42269
G1 X178.927 Y151.644 E4.64615
G1 X183.101 Y151.644 E4.86643
G1 X182.909 Y152.080 F3600.000
G1 X184.775 Y155.312 E4.99747 F1200.000
G1 X182.909 Y158.542 E5.12850
G1 X179.179 Y158.542 E5.25954
G1 X177.313 Y155.312 E5.39057
G1 X179.179 Y152.080 E5.52161
G1 X182.849 Y152.080 E5.65054
G1 X183.285 Y151.943 F3600.000
G1 E3.65054 F1800.00000
G92 E0
G1 X186.472 Y146.589 F3600.000
G1 E2.00000 F1800.00000
G1 X191.311 Y146.589 E2.25534 F1200.000
G1 X191.668 Y147.206 E2.29293
G1 X193.731 Y150.780 E2.51069
G1 X191.312 Y154.971 E2.76603
G1 X186.472 Y154.971 E3.02137
G1 X184.053 Y150.780 E3.27672
G1 X186.442 Y146.641 E3.52890
G1 X186.775 Y147.113 F3600.000
G1 X191.009 Y147.113 E3.75233 F1200.000
G1 X191.214 Y147.468 E3.77397
G1 X193.126 Y150.780 E3.97578
G1 X191.009 Y154.447 E4.19922
G1 X186.775 Y154.447 E4.42266
G1 X184.658 Y150.780 E4.64610
G1 X186.745 Y147.165 E4.86637
G1 X187.027 Y147.549 F3600.000
G1 X190.757 Y147.549 E4.99741 F1200.000
G1 X190.837 Y147.686 E5.00296
G1 X192.623 Y150.780 E5.12844
G1 X190.757 Y154.011 E5.25947
G1 X187.027 Y154.011 E5.39051
G1 X185.161 Y150.780 E5.52154
G1 X186.997 Y147.601 E5.65047
G1 X187.096 Y147.155 F3600.000
G1 E3.65047 F1800.00000
G92 E0
G1 X194.320 Y151.120 F3600.000
G1 E2.00000 F1800.00000
G1 X197.660 Y151.120 E2.17620 F1200.000
G1 X197.660 Y159.502 E2.61849
G1 X194.320 Y159.502 E2.79468
G1 X191.901 Y155.312 E3.05002
G1 X194.290 Y151.172 E3.30222
G1 X194.623 Y151.644 F3600.000
G1 X197.136 Y151.644 E3.43484 F1200.000
G1 X197.136 Y158.979 E3.82186
G1 X194.623 Y158.979 E3.95448
G1 X192.506 Y155.312 E4.17792
G1 X194.593 Y151.696 E4.39821
G1 X194.875 Y152.080 F3600.000
G1 X196.700 Y152.080 E4.46232 F1200.000
G1 X196.700 Y158.542 E4.68929
G1 X194.875 Y158.542 E4.75340
G1 X193.009 Y155.312 E4.88443
G1 X194.845 Y152.132 E5.01337
G1 X194.944 Y151.686 F3600.000
G1 E3.01337 F1800.00000
G92 E0
G1 X197.660 Y150.440 F3600.000
G1 E2.00000 F1800.00000
G1 X194.320 Y150.440 E2.17620 F1200.000
G1 X191.901 Y146.249 E2.43154
G1 X194.320 Y142.058 E2.68689
G1 X197.660 Y142.058 E2.86309
G1 X197.660 Y150.380 E3.30219
G1 X197.136 Y149.916 F3600.000
G1 X194.623 Y149.916 E3.43481 F1200.000
G1 X192.506 Y146.249 E3.65825
G1 X194.623 Y142.582 E3.88169
G1 X197.136 Y142.582 E4.01431
G1 X197.136 Y149.856 E4.39815
G1 X196.700 Y149.480 F3600.000
G1 X194.875 Y149.480 E4.46227 F1200.000
G1 X193.009 Y146.249 E4.59330
G1 X194.875 Y143.018 E4.72433
G1 X196.700 Y143.018 E4.78845
G1 X196.700 Y149.420 E5.01330
G1 X196.700 Y149.880 F3600.000
G1 E3.01330 F1800.00000
G92 E0
G1 X186.472 Y137.527 F3600.000
G1 E2.00000 F1800.00000
G1 X191.311 Y137.527 E2.25534 F1200.000
G1 X191.668 Y138.144 E2.29293
G1 X193.731 Y141.718 E2.51069
G1 X191.312 Y145.909 E2.76603
G1 X186.472 Y145.909 E3.02137
G1 X184.053 Y141.718 E3.27672
G1 X186.442 Y137.579 E3.52890
G1 X186.775 Y138.051 F3600.000
G1 X191.009 Y138.051 E3.75233 F1200.000
G1 X191.214 Y138.406 E3.77397
G1 X193.126 Y141.718 E3.97578
G1 X191.009 Y145.385 E4.19922
G1 X186.775 Y145.385 E4.42266
G1 X184.658 Y141.718 E4.64610
G1 X186.745 Y138.103 E4.86637
G1 X187.027 Y138.487 F3600.000
G1 X190.757 Y138.487 E4.99741 F1200.000
G1 X190.837 Y138.624 E5.00296
G1 X192.623 Y141.718 E5.12844
G1 X190.757 Y144.949 E5.25947
G1 X187.027 Y144.949 E5.39051
G1 X185.161 Y141.718 E5.52154
G1 X186.997 Y138.539 E5.65047
G1 X187.096 Y138.093 F3600.000
G1 E3.65047 F1800.00000
G92 E0
G1 X183.464 Y150.440 F3600.000
G1 E2.00000 F1800.00000
G1 X178.625 Y150.440 E2.25534 F1200.000
G1 X178.268 Y149.823 E2.29293
G1 X176.205 Y146.249 E2.51069
G1 X178.624 Y142.058 E2.76603
G1 X183.464 Y142.058 E3.02137
G1 X185.883 Y146.249 E3.27672
G1 X183.494 Y150.388 E3.52890
G1 X183.161 Y149.916 F3600.000
G1 X178.927 Y149.916 E3.75233 F1200.000
G1 X178.722 Y149.561 E3.77397
G1 X176.810 Y146.249 E3.97578
G1 X178.927 Y142.582 E4.19922
G1 X183.161 Y142.582 E4.42266
G1 X185.278 Y146.249 E4.64610
G1 X183.191 Y149.864 E4.86637
G1 X182.909 Y149.480 F3600.000
G1 X179.179 Y149.480 E4.99741 F1200.000
G1 X179.099 Y149.343 E5.00296
G1 X177.313 Y146.249 E5.12844
G1 X179.179 Y143.018 E5.25947
G1 X182.909 Y143.018 E5.39051
G1 X184.775 Y146.249 E5.52154
G1 X182.939 Y149.428 E5.65047
G1 X182.840 Y149.874 F3600.000
G1 E3.65047 F1800.00000
G92 E0
G1 X178.624 Y141.377 F3600.000
G1 E2.00000 F1800.00000
G1 X176.205 Y137.187 E2.25535 F1200.000
G1 X178.559 Y133.111 E2.50369
G1 X183.531 Y133.111 E2.76605
G1 X185.883 Y137.187 E3.01437
G1 X183.464 Y141.377 E3.26971
G1 X178.684 Y141.377 E3.52189
G1 X178.927 Y140.854 F3600.000
G1 X176.810 Y137.187 E3.74533 F1200.000
G1 X178.861 Y133.635 E3.96177
G1 X183.228 Y133.635 E4.19223
G1 X185.278 Y137.187 E4.40864
G1 X183.161 Y140.854 E4.63208
G1 X178.987 Y140.854 E4.85236
G1 X179.179 Y140.418 F3600.000
G1 X177.313 Y137.187 E4.98339 F1200.000
G1 X179.113 Y134.071 E5.10976
G1 X182.976 Y134.071 E5.24547
G1 X184.775 Y137.187 E5.37183
G1 X182.909 Y140.418 E5.50286
G1 X179.239 Y140.418 E5.63178
G1 X178.803 Y140.555 F3600.000
G1 E3.63178 F1800.00000
G92 E0
G1 X175.616 Y145.909 F3600.000
G1 E2.00000 F1800.00000
G1 X170.776 Y145.909 E2.25534 F1200.000
G1 X168.357 Y141.718 E2.51069
G1 X170.776 Y137.527 E2.76603
G1 X175.615 Y137.527 E3.02137
G1 X178.035 Y141.718 E3.27672
G1 X175.646 Y145.857 E3.52890
G1 X175.313 Y145.385 F3600.000
G1 X171.079 Y145.385 E3.75234 F1200.000
G1 X168.962 Y141.718 E3.97578
G1 X171.079 Y138.051 E4.19922
G1 X175.313 Y138.051 E4.42266
G1 X177.430 Y141.718 E4.64610
G1 X175.343 Y145.333 E4.86637
G1 X175.061 Y144.949 F3600.000
G1 X171.331 Y144.949 E4.99741 F1200.000
G1 X169.465 Y141.718 E5.12844
G1 X171.331 Y138.487 E5.25947
G1 X175.061 Y138.487 E5.39051
G1 X176.927 Y141.718 E5.52154
G1 X175.091 Y144.897 E5.65047
G1 X174.992 Y145.343 F3600.000
G1 E3.65047 F1800.00000
G92 E0
G1 X170.776 Y136.846 F3600.000
G1 E2.00000 F1800.00000
G1 X168.621 Y133.111 E2.22756 F1200.000
G1 X177.773 Y133.111 E2.71049
G1 X175.615 Y136.846 E2.93811
G1 X170.836 Y136.846 E3.19029
G1 X171.079 Y136.323 F3600.000
G1 X169.528 Y133.635 E3.35405 F1200.000
G1 X176.866 Y133.635 E3.74128
G1 X175.313 Y136.323 E3.90509
G1 X171.139 Y136.323 E4.12536
G1 X171.330 Y135.887 F3600.000
G1 X170.283 Y134.071 E4.19900 F1200.000
G1 X176.111 Y134.071 E4.40367
G1 X175.061 Y135.887 E4.47733
G1 X171.390 Y135.887 E4.60626
G1 X170.955 Y136.023 F3600.000
G1 E2.60626 F1800.00000
G92 E0
G1 X167.835 Y133.111 F3600.000
G1 E2.00000 F1800.00000
G1 X170.187 Y137.187 E2.24832 F1200.000
G1 X167.768 Y141.377 E2.50366
G1 X162.928 Y141.377 E2.75900
G1 X160.509 Y137.187 E3.01435
G1 X162.863 Y133.111 E3.26269
G1 X167.775 Y133.111 E3.52189
G1 X167.532 Y133.635 F3600.000
G1 X169.582 Y137.187 E3.73830 F1200.000
G1 X167.465 Y140.854 E3.96174
G1 X163.231 Y140.854 E4.18518
G1 X161.114 Y137.187 E4.40862
G1 X163.165 Y133.635 E4.62506
G1 X167.472 Y133.635 E4.85235
G1 X167.280 Y134.071 F3600.000
G1 X169.079 Y137.187 E4.97871 F1200.000
G1 X167.213 Y140.418 E5.10974
G1 X163.483 Y140.418 E5.24078
G1 X161.617 Y137.187 E5.37181
G1 X163.417 Y134.071 E5.49819
G1 X167.220 Y134.071 E5.63178
G1 X167.656 Y133.934 F3600.000
G1 E3.63178 F1800.00000
G92 E0
G1 X155.080 Y137.527 F3600.000
G1 E2.00000 F1800.00000
G1 X159.919 Y137.527 E2.25534 F1200.000
G1 X160.276 Y138.144 E2.29293
G1 X162.339 Y141.718 E2.51069
G1 X159.920 Y145.909 E2.76603
G1 X155.080 Y145.909 E3.02137
G1 X152.661 Y141.718 E3.27672
G1 X155.050 Y137.579 E3.52890
G1 X155.383 Y138.051 F3600.000
G1 X159.617 Y138.051 E3.75234 F1200.000
G1 X159.822 Y138.406 E3.77397
G1 X161.734 Y141.718 E3.97578
G1 X159.617 Y145.385 E4.19922
G1 X155.383 Y145.385 E4.42266
G1 X153.266 Y141.718 E4.64610
G1 X155.353 Y138.103 E4.86637
G1 X155.635 Y138.487 F3600.000
G1 X159.365 Y138.487 E4.99741 F1200.000
G1 X159.445 Y138.624 E5.00297
G1 X161.231 Y141.718 E5.12844
G1 X159.365 Y144.949 E5.25947
G1 X155.635 Y144.949 E5.39051
G1 X153.769 Y141.718 E5.52154
G1 X155.605 Y138.539 E5.65047
G1 X155.704 Y138.093 F3600.000
G1 E3.65047 F1800.00000
G92 E0
G1 X152.923 Y133.111 F3600.000
G1 E2.00000 F1800.00000
G1 X162.077 Y133.111 E2.48305 F1200.000
G1 X159.919 Y136.846 E2.71067
G1 X155.081 Y136.846 E2.96600
G1 X152.953 Y133.163 E3.19046
G1 X153.830 Y133.635 F3600.000
G1 X161.170 Y133.635 E3.57777 F1200.000
G1 X159.617 Y136.323 E3.74158
G1 X155.383 Y136.323 E3.96501
G1 X153.860 Y133.687 E4.12565
G1 X154.585 Y134.071 F3600.000
G1 X160.415 Y134.071 E4.33037 F1200.000
G1 X159.365 Y135.887 E4.40403
G1 X155.635 Y135.887 E4.53506
G1 X154.616 Y134.123 E4.60661
G1 X154.516 Y133.677 F3600.000
G1 E2.60661 F1800.00000
G92 E0
G1 X154.491 Y137.187 F3600.000
G1 E2.00000 F1800.00000
G1 X152.072 Y141.377 E2.25535 F1200.000
G1 X147.232 Y141.377 E2.51069
G1 X144.813 Y137.187 E2.76603
G1 X147.165 Y133.111 E3.01435
G1 X152.137 Y133.111 E3.27671
G1 X154.461 Y137.135 E3.52189
G1 X153.886 Y137.187 F3600.000
G1 X151.769 Y140.854 E3.74533 F1200.000
G1 X147.535 Y140.854 E3.96877
G1 X145.418 Y137.187 E4.19221
G1 X147.468 Y133.635 E4.40862
G1 X151.835 Y133.635 E4.63908
G1 X153.856 Y137.135 E4.85236
G1 X153.383 Y137.187 F3600.000
G1 X151.517 Y140.418 E4.98339 F1200.000
G1 X147.787 Y140.418 E5.11442
G1 X145.921 Y137.187 E5.24546
G1 X147.720 Y134.071 E5.37181
G1 X151.583 Y134.071 E5.50752
G1 X153.353 Y137.135 E5.63178
G1 X153.689 Y137.444 F3600.000
G1 E3.63178 F1800.00000
G92 E0
G1 X147.232 Y142.058 F3600.000
G1 E2.00000 F1800.00000
G1 X152.072 Y142.058 E2.25534 F1200.000
G1 X154.491 Y146.249 E2.51069
G1 X152.072 Y150.440 E2.76603
G1 X147.232 Y150.440 E3.02137
G1 X144.813 Y146.249 E3.27672
G1 X147.202 Y142.110 E3.52890
G1 X147.535 Y142.582 F3600.000
G1 X151.769 Y142.582 E3.75234 F1200.000
G1 X153.886 Y146.249 E3.97578
G1 X151.769 Y149.916 E4.19922
G1 X147.535 Y149.916 E4.42266
G1 X145.418 Y146.249 E4.64610
G1 X147.505 Y142.634 E4.86637
G1 X147.787 Y143.018 F3600.000
G1 X151.517 Y143.018 E4.99741 F1200.000
