; generated by Slic3r 1.2.9 on 2019-08-11 at 02:04:27

; external perimeters extrusion width = 0.40mm
; perimeters extrusion width = 0.67mm
; infill extrusion width = 0.67mm
; solid infill extrusion width = 0.67mm
; top infill extrusion width = 0.67mm
; support material extrusion width = 0.40mm

M107
M83 ; use relative distances for extrusion
G28 ; home axes
M201 X900 Y900 ; Set max acceleration in X and Y [mm/s^2] ; MM
M204 S900 P500 ; Set actual acceleration S..Travel P..Print ; MM
M203 Z20 E200 ; Set max feedrate
M205 X8 Y8 ; Set xy max jerk [mm/s] starting from that speed it uses
acceleration ; MM
M84 S0 ; Disable Stepper Timeout
G0 Z6 F4000
M104 S160 ;
M140 S55;
G1 X10 Y10 F9000 ; go to front of bed
G1 X100 Y10 F9000 ; go to front of bed
G1 Z0.10 ; use the bed to block the nozzle to prevent ooze
M190 S55;
M109 S210;
G92 E0    ; zero the extruder
G1 X80 E24 F500 ; make a blob/line (2cm)
G1 X10 F4000 ; wipe along the edge of the bed
G1 Y15 F4000 ; wipe along the edge of the bed
G1 X180 F4000 ; wipe along the edge of the bed
G1 Z0.5     ; lift before move to center
M82 ;
G21 ; set units to millimeters
G90 ; use absolute coordinates
M82 ; use absolute distances for extrusion
G92 E0
G1 E-2.00000 F1800.00000
G92 E0
G1 Z0.240 F3600.000
M117 Printing layer 0
G1 X70.762 Y82.991 F3600.000
G1 E2.00000 F1800.00000
G1 X71.330 Y82.535 E2.03843 F1200.000
G1 X72.201 Y81.936 E2.09422
G1 X73.121 Y81.415 E2.15002
G1 X74.083 Y80.976 E2.20581
G1 X75.079 Y80.623 E2.26159
G1 X76.102 Y80.357 E2.31733
G1 X76.948 Y80.208 E2.36267
G1 X78.001 Y80.107 E2.41847
G1 X78.668 Y80.091 E2.45371
G1 X121.548 Y80.461 E4.71646
G1 X122.137 Y80.478 E4.74754 F1200.000
G1 X122.665 Y80.517 E4.77545
G1 X123.515 Y80.629 E4.82073
G1 X124.035 Y80.728 E4.84863
G1 X124.742 Y80.901 E4.88705
G1 X125.249 Y81.053 E4.91495
G1 X126.055 Y81.347 E4.96023
G1 X126.541 Y81.556 E4.98814
G1 X147.807 Y92.247 E6.24415
G1 X148.719 Y92.783 E6.29995
G1 X149.580 Y93.397 E6.35574
G1 X150.237 Y93.948 E6.40102
G1 X150.991 Y94.690 E6.45682
G1 X151.471 Y95.237 E6.49524
G1 X152.108 Y96.081 E6.55103
G1 X152.668 Y96.978 E6.60682
G1 X153.065 Y97.739 E6.65213
G1 X153.477 Y98.713 E6.70790
G1 X153.804 Y99.719 E6.76372
G1 X153.977 Y100.425 E6.80211
G1 X154.076 Y100.945 E6.83001
G1 X154.205 Y101.994 E6.88581
G1 X155.452 Y126.239 E8.16685
G1 X155.456 Y127.232 E8.21920
G1 X155.373 Y128.286 E8.27499
G1 X155.262 Y129.005 E8.31342
G1 X155.077 Y129.843 E8.35869
G1 X154.933 Y130.352 E8.38662
G1 X154.699 Y131.041 E8.42502
G1 X154.370 Y131.834 E8.47030
G1 X154.048 Y132.487 E8.50872
G1 X153.619 Y133.231 E8.55403
G1 X153.215 Y133.836 E8.59242
G1 X152.692 Y134.517 E8.63770
G1 X152.212 Y135.064 E8.67612
G1 X151.605 Y135.671 E8.72141
G1 X151.058 Y136.151 E8.75983
G1 X150.377 Y136.673 E8.80511
G1 X149.772 Y137.077 E8.84350
G1 X149.318 Y137.348 E8.87141
G1 X148.556 Y137.745 E8.91671
G1 X147.583 Y138.157 E8.97250
G1 X146.577 Y138.483 E9.02830
G1 X145.547 Y138.721 E9.08409
G1 X144.827 Y138.831 E9.12249
G1 X144.301 Y138.885 E9.15040
G1 X122.971 Y139.897 E10.27723
G1 X101.226 Y139.908 E11.42462
G1 X100.719 Y139.894 E11.45140
G1 X76.049 Y138.393 E12.75557
G1 X75.173 Y138.317 E12.80198
G1 X74.453 Y138.206 E12.84039
G1 X73.616 Y138.020 E12.88568
G1 X72.917 Y137.816 E12.92409
G1 X72.417 Y137.642 E12.95200
G1 X71.624 Y137.314 E12.99728
G1 X70.971 Y136.992 E13.03570
G1 X70.228 Y136.563 E13.08098
G1 X69.623 Y136.158 E13.11940
G1 X68.942 Y135.636 E13.16468
G1 X68.395 Y135.156 E13.20310
G1 X68.016 Y134.787 E13.23101
G1 X67.436 Y134.154 E13.27631
G1 X66.980 Y133.586 E13.31471
G1 X66.491 Y132.888 E13.35974
G1 X66.210 Y132.434 E13.38790
G1 X65.860 Y131.795 E13.42632
G1 X65.499 Y131.022 E13.47134
G1 X65.301 Y130.526 E13.49954
G1 X65.067 Y129.837 E13.53792
G1 X64.845 Y129.007 E13.58324
G1 X64.703 Y128.294 E13.62162
G1 X64.592 Y127.448 E13.66665
G1 X64.552 Y126.914 E13.69487
G1 X64.536 Y126.188 E13.73323
G1 X64.550 Y125.694 E13.75929
G1 X66.523 Y91.618 E15.56042
G1 X66.626 Y90.530 E15.61805
G1 X66.818 Y89.491 E15.67384
G1 X67.100 Y88.472 E15.72964
G1 X67.470 Y87.481 E15.78543
G1 X67.925 Y86.527 E15.84123
G1 X68.461 Y85.615 E15.89702
G1 X69.074 Y84.754 E15.95281
G1 X69.761 Y83.950 E16.00860
G1 X70.130 Y83.571 E16.03651
G1 X70.717 Y83.031 E16.07862
G1 X71.107 Y83.385 F3600.000
G1 X71.640 Y82.958 E16.11464 F1200.000
G1 X72.473 Y82.384 E16.16802
G1 X73.353 Y81.884 E16.22140
G1 X74.273 Y81.464 E16.27478
G1 X75.226 Y81.125 E16.32816
G1 X76.204 Y80.871 E16.38149
G1 X77.028 Y80.726 E16.42562
G1 X78.035 Y80.630 E16.47901
G1 X78.664 Y80.614 E16.51221
G1 X121.544 Y80.985 E18.77496
G1 X122.608 Y81.037 E18.83115 F1200.000
G1 X123.436 Y81.146 E18.87523
G1 X123.933 Y81.241 E18.90193
G1 X124.596 Y81.404 E18.93794
G1 X125.080 Y81.549 E18.96463
G1 X125.865 Y81.835 E19.00871
G1 X126.330 Y82.035 E19.03541
G1 X147.555 Y92.706 E20.28901
G1 X148.428 Y93.218 E20.34240
G1 X149.252 Y93.805 E20.39578
G1 X149.892 Y94.342 E20.43986
G1 X150.613 Y95.052 E20.49324
G1 X151.063 Y95.565 E20.52925
G1 X151.672 Y96.372 E20.58263
G1 X152.209 Y97.230 E20.63601
G1 X152.595 Y97.971 E20.68012
G1 X152.989 Y98.902 E20.73348
G1 X153.301 Y99.865 E20.78688
G1 X153.463 Y100.527 E20.82286
G1 X153.558 Y101.024 E20.84956
G1 X153.682 Y102.029 E20.90295
G1 X154.929 Y126.266 E22.18360
G1 X154.933 Y127.220 E22.23393
G1 X154.888 Y127.901 E22.26994
G1 X154.779 Y128.729 E22.31402
G1 X154.684 Y129.226 E22.34072
G1 X154.522 Y129.889 E22.37673
G1 X154.271 Y130.686 E22.42080
G1 X154.024 Y131.322 E22.45681
G1 X153.671 Y132.079 E22.50090
G1 X153.342 Y132.677 E22.53690
G1 X152.894 Y133.382 E22.58097
G1 X152.490 Y133.932 E22.61698
G1 X151.953 Y134.572 E22.66106
G1 X151.482 Y135.064 E22.69704
G1 X150.866 Y135.629 E22.74114
G1 X150.333 Y136.056 E22.77716
G1 X149.649 Y136.535 E22.82123
G1 X149.066 Y136.889 E22.85722
G1 X148.325 Y137.275 E22.90131
G1 X147.393 Y137.669 E22.95470
G1 X146.431 Y137.981 E23.00808
G1 X145.445 Y138.207 E23.06146
G1 X144.770 Y138.311 E23.09746
G1 X144.267 Y138.362 E23.12416
G1 X122.946 Y139.374 E24.25048
G1 X101.238 Y139.385 E25.39597
G1 X100.751 Y139.371 E25.42167
G1 X76.081 Y137.870 E26.72584
G1 X75.230 Y137.796 E26.77091
G1 X74.556 Y137.692 E26.80692
G1 X73.740 Y137.512 E26.85100
G1 X73.085 Y137.321 E26.88700
G1 X72.607 Y137.154 E26.91371
G1 X72.132 Y136.965 E26.94066
G1 X71.380 Y136.614 E26.98448
G1 X70.782 Y136.286 E27.02049
G1 X70.077 Y135.837 E27.06457
G1 X69.527 Y135.434 E27.10058
G1 X69.131 Y135.111 E27.12752
G1 X68.519 Y134.550 E27.17134
G1 X68.047 Y134.057 E27.20736
G1 X67.716 Y133.674 E27.23406
G1 X67.207 Y133.011 E27.27815
G1 X66.828 Y132.444 E27.31415
G1 X66.411 Y131.720 E27.35824
G1 X66.109 Y131.108 E27.39423
G1 X65.789 Y130.336 E27.43834
G1 X65.570 Y129.690 E27.47431
G1 X65.355 Y128.888 E27.51817
G1 X65.251 Y128.387 E27.54513
G1 X65.147 Y127.714 E27.58110
G1 X65.075 Y126.880 E27.62523
G1 X65.060 Y126.199 E27.66119
G1 X65.073 Y125.724 E27.68626
G1 X67.046 Y91.648 E29.48739
G1 X67.143 Y90.610 E29.54239
G1 X67.327 Y89.615 E29.59578
G1 X67.596 Y88.640 E29.64916
G1 X67.949 Y87.692 E29.70254
G1 X68.384 Y86.778 E29.75593
G1 X68.896 Y85.906 E29.80931
G1 X69.483 Y85.082 E29.86269
G1 X70.139 Y84.312 E29.91607
G1 X70.492 Y83.949 E29.94278
G1 X71.062 Y83.424 E29.98368
G1 X71.453 Y83.778 F3600.000
G1 X71.949 Y83.380 E30.01729 F1200.000
G1 X72.744 Y82.831 E30.06826
G1 X73.584 Y82.354 E30.11923
G1 X74.463 Y81.952 E30.17020
G1 X75.372 Y81.628 E30.22117
G1 X76.306 Y81.384 E30.27210
G1 X77.107 Y81.243 E30.31502
G1 X78.069 Y81.152 E30.36599
G1 X78.659 Y81.138 E30.39715
G1 X121.539 Y81.508 E32.65990
G1 X122.551 Y81.558 E32.71332 F1200.000
G1 X123.030 Y81.614 E32.73881
G1 X123.831 Y81.755 E32.78168
G1 X124.449 Y81.906 E32.81528
G1 X124.912 Y82.045 E32.84077
G1 X125.371 Y82.204 E32.86644
G1 X126.119 Y82.514 E32.90913
G1 X147.304 Y93.165 E34.16033
G1 X148.137 Y93.654 E34.21130
G1 X148.802 Y94.120 E34.25417
G1 X149.303 Y94.522 E34.28803
G1 X150.007 Y95.176 E34.33875
G1 X150.556 Y95.775 E34.38163
G1 X151.149 Y96.537 E34.43260
G1 X151.673 Y97.348 E34.48356
G1 X152.126 Y98.202 E34.53456
G1 X152.501 Y99.092 E34.58551
G1 X152.798 Y100.012 E34.63650
G1 X152.950 Y100.630 E34.67008
G1 X153.041 Y101.104 E34.69557
G1 X153.160 Y102.063 E34.74655
G1 X154.406 Y126.293 E36.02680
G1 X154.410 Y127.209 E36.07512
G1 X154.368 Y127.844 E36.10872
G1 X154.262 Y128.650 E36.15159
G1 X154.138 Y129.274 E36.18519
G1 X153.927 Y130.059 E36.22807
G1 X153.723 Y130.662 E36.26166
G1 X153.427 Y131.378 E36.30256
G1 X153.201 Y131.847 E36.33003
G1 X152.895 Y132.405 E36.36362
G1 X152.458 Y133.091 E36.40649
G1 X152.082 Y133.604 E36.44009
G1 X151.560 Y134.227 E36.48296
G1 X151.120 Y134.686 E36.51654
G1 X150.520 Y135.235 E36.55943
G1 X150.024 Y135.634 E36.59303
G1 X149.358 Y136.100 E36.63590
G1 X148.814 Y136.430 E36.66948
G1 X148.093 Y136.805 E36.71237
G1 X147.203 Y137.181 E36.76334
G1 X146.284 Y137.478 E36.81432
G1 X145.342 Y137.694 E36.86529
G1 X144.713 Y137.791 E36.89887
G1 X144.233 Y137.840 E36.92437
G1 X122.921 Y138.851 E38.05018
G1 X101.249 Y138.862 E39.19377
G1 X100.783 Y138.849 E39.21839
G1 X76.113 Y137.347 E40.52257
G1 X75.287 Y137.276 E40.56630
G1 X74.658 Y137.179 E40.59990
G1 X73.864 Y137.003 E40.64277
G1 X73.253 Y136.825 E40.67636
G1 X72.797 Y136.666 E40.70187
G1 X72.348 Y136.488 E40.72736
G1 X71.611 Y136.145 E40.77023
G1 X71.053 Y135.838 E40.80383
G1 X70.368 Y135.402 E40.84670
G1 X69.976 Y135.119 E40.87219
G1 X69.480 Y134.720 E40.90578
G1 X68.881 Y134.172 E40.94866
G1 X68.440 Y133.712 E40.98226
G1 X68.124 Y133.346 E41.00776
G1 X67.630 Y132.701 E41.05064
G1 X67.276 Y132.172 E41.08423
G1 X66.870 Y131.468 E41.12711
G1 X66.588 Y130.897 E41.16069
G1 X66.277 Y130.146 E41.20359
G1 X66.073 Y129.544 E41.23716
G1 X65.864 Y128.764 E41.27978
G1 X65.765 Y128.285 E41.30556
G1 X65.668 Y127.657 E41.33913
G1 X65.597 Y126.846 E41.38205
G1 X65.583 Y126.211 E41.41560
G1 X65.596 Y125.755 E41.43967
G1 X67.568 Y91.678 E43.24080
G1 X67.661 Y90.690 E43.29319
G1 X67.835 Y89.740 E43.34416
G1 X68.092 Y88.808 E43.39513
G1 X68.428 Y87.903 E43.44611
G1 X68.843 Y87.030 E43.49708
G1 X69.332 Y86.197 E43.54806
G1 X69.891 Y85.410 E43.59903
G1 X70.517 Y84.674 E43.65000
G1 X70.854 Y84.327 E43.67550
G1 X71.407 Y83.818 E43.71519
G1 E41.71519 F1800.00000
G92 E0
G1 X126.183 Y132.294 F3600.000
G1 E2.00000 F1800.00000
G1 X125.577 Y132.735 E2.03952 F1200.000
G1 X125.134 Y132.991 E2.06652
G1 X124.671 Y133.207 E2.09352
G1 X124.172 Y133.389 E2.12149
G1 X123.444 Y133.565 E2.16101
G1 X122.937 Y133.632 E2.18801
G1 X122.426 Y133.654 E2.21501
G1 X121.915 Y133.632 E2.24200
G1 X121.408 Y133.565 E2.26900
G1 X120.908 Y133.454 E2.29600
G1 X120.198 Y133.215 E2.33552
G1 X119.718 Y132.991 E2.36349
G1 X119.275 Y132.735 E2.39049
G1 X118.670 Y132.294 E2.43001
G1 X118.279 Y131.936 E2.45798
G1 X117.921 Y131.545 E2.48595
G1 X117.482 Y130.944 E2.52524
G1 X117.223 Y130.497 E2.55249
G1 X117.007 Y130.033 E2.57947
G1 X116.826 Y129.535 E2.60744
G1 X116.651 Y128.811 E2.64673
G1 X116.583 Y128.300 E2.67397
G1 X116.561 Y127.789 E2.70095
G1 X116.583 Y127.278 E2.72795
G1 X116.650 Y126.770 E2.75495
G1 X116.761 Y126.271 E2.78196
G1 X117.000 Y125.560 E2.82150
G1 X117.224 Y125.081 E2.84944
G1 X117.489 Y124.622 E2.87741
G1 X117.930 Y124.022 E2.91671
G1 X118.279 Y123.642 E2.94393
G1 X118.659 Y123.293 E2.97115
G1 X119.076 Y122.973 E2.99889
G1 X119.718 Y122.586 E3.03841
G1 X120.182 Y122.370 E3.06541
G1 X120.680 Y122.189 E3.09338
G1 X121.408 Y122.013 E3.13290
G1 X121.914 Y121.946 E3.15988
G1 X122.430 Y121.924 E3.18712
G1 X122.955 Y121.947 E3.21486
G1 X123.695 Y122.063 E3.25439 F1200.000
G1 X124.190 Y122.195 E3.28139
G1 X124.671 Y122.370 E3.30839
G1 X125.134 Y122.586 E3.33539
G1 X125.577 Y122.842 E3.36239
G1 X126.183 Y123.283 E3.40191
G1 X126.573 Y123.641 E3.42987
G1 X126.931 Y124.032 E3.45784
G1 X127.370 Y124.634 E3.49714
G1 X127.629 Y125.081 E3.52438
G1 X127.845 Y125.544 E3.55136
G1 X128.026 Y126.042 E3.57933
G1 X128.201 Y126.766 E3.61863
G1 X128.269 Y127.278 E3.64587
G1 X128.291 Y127.789 E3.67285
G1 X128.269 Y128.300 E3.69985
G1 X128.202 Y128.807 E3.72685
G1 X128.091 Y129.307 E3.75385
G1 X127.852 Y130.017 E3.79336
G1 X127.628 Y130.497 E3.82134
G1 X127.363 Y130.956 E3.84930
G1 X126.922 Y131.556 E3.88860
G1 X126.573 Y131.936 E3.91584
G1 X126.227 Y132.254 E3.94063
G1 X126.536 Y132.680 F3600.000
G1 X126.326 Y132.850 E3.95490 F1200.000
G1 X125.859 Y133.177 E3.98498
G1 X125.376 Y133.456 E4.01440
G1 X124.871 Y133.692 E4.04381
G1 X124.092 Y133.958 E4.08725
G1 X123.535 Y134.081 E4.11733
G1 X122.983 Y134.154 E4.14674
G1 X122.426 Y134.178 E4.17615
G1 X121.869 Y134.154 E4.20556
G1 X121.317 Y134.081 E4.23497
G1 X120.772 Y133.960 E4.26439
G1 X119.992 Y133.697 E4.30782
G1 X119.476 Y133.456 E4.33790
G1 X118.993 Y133.177 E4.36731
G1 X118.328 Y132.692 E4.41075
G1 X117.908 Y132.307 E4.44083
G1 X117.523 Y131.886 E4.47091
G1 X117.040 Y131.225 E4.51412
G1 X116.759 Y130.739 E4.54377
G1 X116.523 Y130.234 E4.57317
G1 X116.328 Y129.698 E4.60325
G1 X116.135 Y128.903 E4.64646
G1 X116.061 Y128.345 E4.67611
G1 X116.037 Y127.789 E4.70551
G1 X116.061 Y127.232 E4.73492
G1 X116.134 Y126.679 E4.76434
G1 X116.254 Y126.135 E4.79375
G1 X116.518 Y125.355 E4.83720
G1 X116.759 Y124.839 E4.86726
G1 X117.044 Y124.345 E4.89734
G1 X117.529 Y123.685 E4.94055
G1 X117.908 Y123.271 E4.97019
G1 X118.323 Y122.892 E4.99984
G1 X118.771 Y122.547 E5.02968
G1 X119.476 Y122.121 E5.07312
G1 X119.981 Y121.886 E5.10253
G1 X120.517 Y121.691 E5.13261
G1 X121.317 Y121.497 E5.17605
G1 X121.869 Y121.424 E5.20545
G1 X122.430 Y121.400 E5.23510
G1 X122.995 Y121.424 E5.26495
G1 X123.809 Y121.551 E5.30839 F1200.000
G1 X124.347 Y121.695 E5.33780
G1 X124.871 Y121.886 E5.36721
G1 X125.376 Y122.121 E5.39662
G1 X125.859 Y122.400 E5.42604
G1 X126.524 Y122.886 E5.46947
G1 X126.944 Y123.271 E5.49955
G1 X127.329 Y123.691 E5.52963
G1 X127.812 Y124.352 E5.57284
G1 X128.093 Y124.839 E5.60250
G1 X128.329 Y125.344 E5.63189
G1 X128.524 Y125.879 E5.66197
G1 X128.717 Y126.675 E5.70518
G1 X128.791 Y127.232 E5.73484
G1 X128.815 Y127.789 E5.76423
G1 X128.791 Y128.346 E5.79365
G1 X128.718 Y128.898 E5.82306
G1 X128.598 Y129.442 E5.85247
G1 X128.334 Y130.222 E5.89591
G1 X128.093 Y130.739 E5.92599
G1 X127.808 Y131.233 E5.95607
G1 X127.323 Y131.892 E5.99927
G1 X126.944 Y132.307 E6.02893
G1 X126.580 Y132.640 E6.05492
G1 X126.890 Y133.066 F3600.000
G1 X126.640 Y133.270 E6.07191 F1200.000
G1 X126.141 Y133.619 E6.10411
G1 X125.618 Y133.921 E6.13593
G1 X125.072 Y134.176 E6.16776
G1 X124.498 Y134.385 E6.19995
G1 X124.222 Y134.465 E6.21513
G1 X123.626 Y134.597 E6.24732
G1 X123.029 Y134.676 E6.27915
G1 X122.426 Y134.702 E6.31097
G1 X121.823 Y134.676 E6.34280
G1 X121.226 Y134.597 E6.37462
G1 X120.637 Y134.467 E6.40645
G1 X120.055 Y134.283 E6.43864
G1 X119.787 Y134.179 E6.45382
G1 X119.234 Y133.921 E6.48601
G1 X118.711 Y133.619 E6.51784
G1 X118.212 Y133.270 E6.55003
G1 X117.987 Y133.089 E6.56521
G1 X117.538 Y132.677 E6.59740
G1 X117.125 Y132.227 E6.62960
G1 X116.945 Y132.003 E6.64478
G1 X116.598 Y131.507 E6.67673
G1 X116.294 Y130.981 E6.70880
G1 X116.039 Y130.434 E6.74062
G1 X115.830 Y129.861 E6.77281
G1 X115.750 Y129.585 E6.78800
G1 X115.619 Y128.994 E6.81995
G1 X115.539 Y128.391 E6.85202
G1 X115.513 Y127.789 E6.88384
G1 X115.539 Y127.186 E6.91566
G1 X115.618 Y126.588 E6.94748
G1 X115.748 Y125.999 E6.97931
G1 X115.930 Y125.422 E7.01126
G1 X116.036 Y125.149 E7.02670
G1 X116.294 Y124.597 E7.05888
G1 X116.599 Y124.068 E7.09107
G1 X116.759 Y123.829 E7.10625
G1 X117.127 Y123.349 E7.13820
G1 X117.538 Y122.900 E7.17027
G1 X117.986 Y122.490 E7.20233
G1 X118.466 Y122.121 E7.23428
G1 X118.705 Y121.962 E7.24947
G1 X119.234 Y121.657 E7.28166
G1 X119.780 Y121.402 E7.31348
G1 X120.354 Y121.193 E7.34567
G1 X120.630 Y121.113 E7.36086
G1 X121.226 Y120.980 E7.39305
G1 X121.823 Y120.902 E7.42487
G1 X122.431 Y120.876 E7.45694
G1 X123.035 Y120.902 E7.48889
G1 X123.322 Y120.933 E7.50407 F1200.000
G1 X123.922 Y121.039 E7.53627
G1 X124.505 Y121.195 E7.56809
G1 X125.072 Y121.402 E7.59991
G1 X125.618 Y121.657 E7.63174
G1 X126.141 Y121.958 E7.66356
G1 X126.640 Y122.308 E7.69576
G1 X126.865 Y122.488 E7.71094
G1 X127.314 Y122.900 E7.74313
G1 X127.727 Y123.350 E7.77532
