; generated by Slic3r 1.2.9 on 2019-08-12 at 13:39:18

; external perimeters extrusion width = 0.40mm
; perimeters extrusion width = 0.67mm
; infill extrusion width = 0.67mm
; solid infill extrusion width = 0.67mm
; top infill extrusion width = 0.67mm

M107
M83 ; use relative distances for extrusion
G28 ; home axes
M201 X900 Y900 ; Set max acceleration in X and Y [mm/s^2] ; MM
M204 S900 P500 ; Set actual acceleration S..Travel P..Print ; MM
M203 Z20 E200 ; Set max feedrate
M205 X8 Y8 ; Set xy max jerk [mm/s] starting from that speed it uses
acceleration ; MM
M84 S0 ; Disable Stepper Timeout
G0 Z6 F4000
M104 S160 ;
M140 S55;
G1 X10 Y10 F9000 ; go to front of bed
G1 X100 Y10 F9000 ; go to front of bed
G1 Z0.10 ; use the bed to block the nozzle to prevent ooze
M190 S55;
M109 S210;
G92 E0    ; zero the extruder
G1 X80 E24 F500 ; make a blob/line (2cm)
G1 X10 F4000 ; wipe along the edge of the bed
G1 Y15 F4000 ; wipe along the edge of the bed
G1 X180 F4000 ; wipe along the edge of the bed
G1 Z0.5     ; lift before move to center
M82 ;
G21 ; set units to millimeters
G90 ; use absolute coordinates
M82 ; use absolute distances for extrusion
G92 E0
G1 E-2.00000 F1800.00000
G92 E0
G1 Z0.240 F3600.000
M117 Printing layer 0
G1 X80.241 Y90.417 F3600.000
G1 E2.00000 F1800.00000
G1 X80.895 Y89.868 E2.04507 F1200.000
G1 X81.718 Y89.284 E2.09833
G1 X82.588 Y88.773 E2.15159
G1 X83.500 Y88.341 E2.20485
G1 X84.447 Y87.989 E2.25811
G1 X85.420 Y87.721 E2.31137
G1 X86.413 Y87.539 E2.36463
G1 X87.418 Y87.444 E2.41790
G1 X88.000 Y87.429 E2.44865
G1 X132.077 Y87.430 E4.77448
G1 X133.085 Y87.481 E4.82774 F1200.000
G1 X134.091 Y87.620 E4.88131
G1 X134.919 Y87.804 E4.92609
G1 X135.405 Y87.942 E4.95273
G1 X136.356 Y88.281 E5.00599
G1 X136.819 Y88.481 E5.03263
G1 X137.411 Y88.773 E5.06746
G1 X138.282 Y89.284 E5.12071
G1 X139.109 Y89.871 E5.17424
G1 X139.759 Y90.417 E5.21905
G1 X140.126 Y90.764 E5.24569
G1 X140.813 Y91.503 E5.29896
G1 X141.226 Y92.018 E5.33381
G1 X141.522 Y92.428 E5.36045
G1 X141.800 Y92.849 E5.38708
G1 X142.224 Y93.584 E5.43187
G1 X142.660 Y94.501 E5.48542
G1 X142.846 Y94.970 E5.51206
G1 X143.058 Y95.595 E5.54688
G1 X143.313 Y96.572 E5.60015
G1 X143.408 Y97.068 E5.62678
G1 X143.519 Y97.909 E5.67156
G1 X143.570 Y98.922 E5.72509
G1 X143.570 Y121.078 E6.89420
G1 X143.519 Y122.086 E6.94746
G1 X143.408 Y122.933 E6.99251
G1 X143.197 Y123.914 E7.04550
G1 X143.011 Y124.553 E7.08062
G1 X142.719 Y125.356 E7.12569
G1 X142.299 Y126.273 E7.17893
G1 X141.800 Y127.151 E7.23219
G1 X141.433 Y127.700 E7.26705
G1 X140.813 Y128.497 E7.32031
G1 X140.236 Y129.126 E7.36536
G1 X139.497 Y129.813 E7.41862
G1 X138.982 Y130.226 E7.45348
G1 X138.282 Y130.716 E7.49852
G1 X137.412 Y131.227 E7.55178
G1 X136.819 Y131.519 E7.58663
G1 X135.884 Y131.899 E7.63988
G1 X135.070 Y132.156 E7.68495
G1 X134.428 Y132.313 E7.71980
G1 X133.433 Y132.481 E7.77307
G1 X132.582 Y132.556 E7.81812
G1 X132.000 Y132.571 E7.84886
G1 X88.000 Y132.571 E10.17063
G1 X87.418 Y132.556 E10.20134
G1 X86.413 Y132.461 E10.25461
G1 X85.572 Y132.313 E10.29968
G1 X84.930 Y132.156 E10.33453
G1 X83.970 Y131.846 E10.38780
G1 X83.040 Y131.453 E10.44105
G1 X82.148 Y130.981 E10.49430
G1 X81.300 Y130.433 E10.54758
G1 X80.623 Y129.913 E10.59263
G1 X80.241 Y129.583 E10.61927
G1 X79.764 Y129.126 E10.65412
G1 X79.187 Y128.497 E10.69917
G1 X78.868 Y128.105 E10.72581
G1 X78.567 Y127.700 E10.75246
G1 X78.200 Y127.151 E10.78731
G1 X77.776 Y126.416 E10.83208
G1 X77.547 Y125.960 E10.85899
G1 X77.341 Y125.500 E10.88562
G1 X77.101 Y124.884 E10.92048
G1 X76.846 Y124.075 E10.96526
G1 X76.721 Y123.580 E10.99218
G1 X76.619 Y123.086 E11.01882
G1 X76.519 Y122.433 E11.05366
G1 X76.444 Y121.582 E11.09871
G1 X76.429 Y121.000 E11.12945
G1 X76.429 Y99.000 E12.29034
G1 X76.444 Y98.418 E12.32108
G1 X76.519 Y97.567 E12.36613
G1 X76.687 Y96.572 E12.41939
G1 X76.942 Y95.595 E12.47266
G1 X77.281 Y94.644 E12.52593
G1 X77.702 Y93.726 E12.57920
G1 X78.200 Y92.849 E12.63244
G1 X78.774 Y92.018 E12.68570
G1 X79.417 Y91.241 E12.73899
G1 X79.764 Y90.873 E12.76565
G1 X80.196 Y90.458 E12.79727
G1 X80.586 Y90.811 F3600.000
G1 X81.223 Y90.277 E12.84113 F1200.000
G1 X82.009 Y89.719 E12.89198
G1 X82.840 Y89.232 E12.94283
G1 X83.711 Y88.820 E12.99368
G1 X84.615 Y88.485 E13.04454
G1 X85.544 Y88.230 E13.09539
G1 X86.492 Y88.057 E13.14624
G1 X87.452 Y87.967 E13.19710
G1 X88.000 Y87.953 E13.22603
G1 X132.066 Y87.954 E15.55127
G1 X133.028 Y88.001 E15.60212 F1200.000
G1 X133.989 Y88.134 E15.65327
G1 X134.795 Y88.313 E15.69685
G1 X135.258 Y88.445 E15.72228
G1 X136.166 Y88.769 E15.77313
G1 X136.608 Y88.960 E15.79857
G1 X137.159 Y89.232 E15.83100
G1 X137.991 Y89.719 E15.88184
G1 X138.781 Y90.280 E15.93295
G1 X139.414 Y90.811 E15.97656
G1 X139.764 Y91.142 E16.00199
G1 X140.419 Y91.849 E16.05285
G1 X140.804 Y92.328 E16.08528
G1 X141.087 Y92.718 E16.11072
G1 X141.352 Y93.121 E16.13615
G1 X141.765 Y93.836 E16.17972
G1 X142.180 Y94.712 E16.23087
G1 X142.358 Y95.160 E16.25630
G1 X142.555 Y95.742 E16.28872
G1 X142.799 Y96.674 E16.33957
G1 X142.890 Y97.147 E16.36500
G1 X142.998 Y97.966 E16.40858
G1 X143.046 Y98.933 E16.45969
G1 X143.046 Y121.067 E17.62760
G1 X142.999 Y122.029 E17.67845
G1 X142.890 Y122.853 E17.72230
G1 X142.688 Y123.790 E17.77287
G1 X142.515 Y124.385 E17.80558
G1 X142.231 Y125.166 E17.84945
G1 X141.829 Y126.042 E17.90028
G1 X141.352 Y126.879 E17.95113
G1 X141.011 Y127.390 E17.98358
G1 X140.505 Y128.050 E18.02742
G1 X140.099 Y128.512 E18.05987
G1 X139.414 Y129.189 E18.11071
G1 X138.777 Y129.723 E18.15456
G1 X138.282 Y130.087 E18.18700
G1 X137.466 Y130.600 E18.23785
G1 X136.729 Y130.983 E18.28170
G1 X135.841 Y131.358 E18.33255
G1 X134.923 Y131.653 E18.38340
G1 X134.326 Y131.799 E18.41584
G1 X133.376 Y131.961 E18.46670
G1 X132.548 Y132.033 E18.51054
G1 X132.000 Y132.047 E18.53948
G1 X88.000 Y132.047 E20.86124
G1 X87.452 Y132.033 E20.89015
G1 X86.493 Y131.943 E20.94102
G1 X85.674 Y131.799 E20.98487
G1 X85.072 Y131.651 E21.01758
G1 X84.159 Y131.358 E21.06817
G1 X83.272 Y130.984 E21.11901
G1 X82.534 Y130.600 E21.16287
G1 X81.718 Y130.087 E21.21372
G1 X81.223 Y129.723 E21.24616
G1 X80.849 Y129.419 E21.27159
G1 X80.236 Y128.858 E21.31544
G1 X79.900 Y128.512 E21.34088
G1 X79.495 Y128.050 E21.37332
G1 X79.196 Y127.672 E21.39875
G1 X78.719 Y126.991 E21.44259
G1 X78.467 Y126.581 E21.46803
G1 X78.171 Y126.042 E21.50047
G1 X77.822 Y125.293 E21.54404
G1 X77.642 Y124.840 E21.56977
G1 X77.445 Y124.258 E21.60218
G1 X77.231 Y123.461 E21.64576
G1 X77.133 Y122.983 E21.67147
G1 X77.039 Y122.376 E21.70390
G1 X76.990 Y121.896 E21.72934
G1 X76.954 Y121.067 E21.77318
G1 X76.953 Y99.000 E22.93757
G1 X76.967 Y98.452 E22.96650
G1 X77.039 Y97.624 E23.01035
G1 X77.201 Y96.674 E23.06120
G1 X77.445 Y95.742 E23.11206
G1 X77.769 Y94.834 E23.16292
G1 X78.171 Y93.958 E23.21377
G1 X78.648 Y93.121 E23.26461
G1 X79.196 Y92.328 E23.31546
G1 X79.811 Y91.586 E23.36633
G1 X80.542 Y90.852 E23.42099
G1 X80.931 Y91.205 F3600.000
G1 X81.550 Y90.685 E23.46364 F1200.000
G1 X82.300 Y90.155 E23.51209
G1 X83.092 Y89.691 E23.56053
G1 X83.922 Y89.299 E23.60897
G1 X84.783 Y88.981 E23.65741
G1 X85.669 Y88.738 E23.70585
G1 X86.572 Y88.574 E23.75429
G1 X87.486 Y88.489 E23.80274
G1 X88.000 Y88.476 E23.82987
G1 X132.055 Y88.477 E26.15451
G1 X132.976 Y88.522 E26.20321 F1200.000
G1 X133.773 Y88.627 E26.24562
G1 X134.224 Y88.715 E26.26984
G1 X135.112 Y88.947 E26.31829
G1 X136.078 Y89.299 E26.37253
G1 X136.912 Y89.694 E26.42122
G1 X137.608 Y90.095 E26.46361
G1 X137.991 Y90.348 E26.48783
G1 X138.806 Y90.974 E26.54207
G1 X139.480 Y91.598 E26.59052
G1 X140.096 Y92.278 E26.63896
G1 X140.588 Y92.919 E26.68160
G1 X140.845 Y93.300 E26.70583
G1 X141.309 Y94.092 E26.75427
G1 X141.743 Y95.024 E26.80852
G1 X141.907 Y95.453 E26.83274
G1 X142.149 Y96.218 E26.87511
G1 X142.354 Y97.119 E26.92383
G1 X142.478 Y98.028 E26.97227
G1 X142.524 Y99.000 E27.02361
G1 X142.523 Y121.055 E28.18739
G1 X142.488 Y121.862 E28.23003
G1 X142.426 Y122.428 E28.26007
G1 X142.262 Y123.331 E28.30851
G1 X142.052 Y124.112 E28.35114
G1 X141.745 Y124.971 E28.39932
G1 X141.514 Y125.497 E28.42962
G1 X141.141 Y126.214 E28.47226
G1 X140.652 Y126.991 E28.52070
G1 X140.096 Y127.722 E28.56914
G1 X139.721 Y128.150 E28.59918
G1 X139.069 Y128.796 E28.64761
G1 X138.450 Y129.315 E28.69025
G1 X137.991 Y129.652 E28.72029
G1 X137.214 Y130.141 E28.76873
G1 X136.397 Y130.560 E28.81717
G1 X135.651 Y130.870 E28.85981
G1 X134.777 Y131.150 E28.90825
G1 X134.224 Y131.285 E28.93828
G1 X133.319 Y131.440 E28.98673
G1 X132.514 Y131.511 E29.02937
G1 X132.000 Y131.524 E29.05649
G1 X87.596 Y131.515 E31.39958
G1 X86.681 Y131.440 E31.44802
G1 X85.776 Y131.285 E31.49646
G1 X85.223 Y131.150 E31.52649
G1 X84.349 Y130.870 E31.57493
G1 X83.503 Y130.514 E31.62337
G1 X82.786 Y130.141 E31.66602
G1 X82.009 Y129.652 E31.71446
G1 X81.550 Y129.315 E31.74449
G1 X81.194 Y129.026 E31.76871
G1 X80.598 Y128.480 E31.81136
G1 X79.904 Y127.722 E31.86560
G1 X79.618 Y127.362 E31.88983
G1 X79.155 Y126.700 E31.93246
G1 X78.641 Y125.810 E31.98671
G1 X78.301 Y125.082 E32.02908
G1 X78.130 Y124.650 E32.05360
G1 X77.947 Y124.112 E32.08361
G1 X77.740 Y123.336 E32.12598
G1 X77.646 Y122.881 E32.15048
G1 X77.560 Y122.319 E32.18051
G1 X77.512 Y121.862 E32.20474
G1 X77.477 Y121.055 E32.24737
G1 X77.476 Y99.000 E33.41116
G1 X77.489 Y98.486 E33.43828
G1 X77.560 Y97.681 E33.48092
G1 X77.715 Y96.776 E33.52936
G1 X77.947 Y95.888 E33.57781
G1 X78.257 Y95.024 E33.62626
G1 X78.641 Y94.190 E33.67470
G1 X79.095 Y93.392 E33.72313
G1 X79.618 Y92.638 E33.77158
G1 X80.205 Y91.931 E33.82003
G1 X80.887 Y91.245 E33.87109
G1 E31.87109 F1800.00000
G92 E0
G1 X92.059 Y125.838 F3600.000
G1 E2.00000 F1800.00000
G1 X91.608 Y126.184 E2.03004 F1200.000
G1 X90.916 Y126.602 E2.07267
G1 X90.417 Y126.834 E2.10174
G1 X89.899 Y127.023 E2.13081
G1 X89.367 Y127.165 E2.15988
G1 X88.806 Y127.264 E2.18992
G1 X88.000 Y127.315 E2.23252
G1 X87.445 Y127.291 E2.26185
G1 X86.885 Y127.217 E2.29165
G1 X86.101 Y127.023 E2.33428
G1 X85.584 Y126.835 E2.36333
G1 X85.080 Y126.599 E2.39266
G1 X84.591 Y126.317 E2.42246
G1 X83.941 Y125.838 E2.46509
G1 X83.535 Y125.465 E2.49416
G1 X83.162 Y125.059 E2.52323
G1 X82.683 Y124.409 E2.56586
G1 X82.401 Y123.920 E2.59566
G1 X82.165 Y123.416 E2.62499
G1 X81.977 Y122.899 E2.65404
G1 X81.783 Y122.115 E2.69667
G1 X81.709 Y121.555 E2.72646
G1 X81.685 Y121.000 E2.75579
G1 X81.710 Y120.431 E2.78581
G1 X81.834 Y119.638 E2.82820
G1 X81.977 Y119.101 E2.85753
G1 X82.166 Y118.583 E2.88658
G1 X82.406 Y118.067 E2.91662
G1 X82.824 Y117.382 E2.95901
G1 X83.163 Y116.940 E2.98834
G1 X83.535 Y116.535 E3.01739
G1 X83.940 Y116.163 E3.04644
G1 X84.382 Y115.824 E3.07577
G1 X85.067 Y115.406 E3.11815
G1 X85.600 Y115.158 E3.14916
G1 X86.366 Y114.900 E3.19179
G1 X86.903 Y114.781 E3.22086
G1 X87.449 Y114.709 E3.24991
G1 X88.005 Y114.685 E3.27924
G1 X88.569 Y114.710 E3.30904
G1 X89.367 Y114.835 E3.35167 F1200.000
G1 X89.899 Y114.977 E3.38074
G1 X90.416 Y115.165 E3.40979
G1 X90.920 Y115.401 E3.43912
G1 X91.409 Y115.683 E3.46891
G1 X92.059 Y116.162 E3.51155
G1 X92.465 Y116.535 E3.54062
G1 X92.838 Y116.941 E3.56969
G1 X93.184 Y117.392 E3.59973
G1 X93.599 Y118.080 E3.64212
G1 X93.835 Y118.584 E3.67145
G1 X94.023 Y119.101 E3.70050
G1 X94.217 Y119.885 E3.74313
G1 X94.291 Y120.445 E3.77292
G1 X94.315 Y121.000 E3.80225
G1 X94.264 Y121.806 E3.84486
G1 X94.165 Y122.367 E3.87490
G1 X94.023 Y122.899 E3.90397
G1 X93.834 Y123.417 E3.93304
G1 X93.602 Y123.916 E3.96212
G1 X93.319 Y124.405 E3.99192
G1 X92.838 Y125.059 E4.03478
G1 X92.465 Y125.465 E4.06385
G1 X92.104 Y125.797 E4.08975
G1 X92.378 Y126.253 F3600.000
G1 X91.686 Y126.762 E4.13509 F1200.000
G1 X91.158 Y127.066 E4.16724
G1 X90.617 Y127.319 E4.19872
G1 X90.057 Y127.523 E4.23021
G1 X89.480 Y127.677 E4.26169
G1 X88.880 Y127.783 E4.29384
G1 X88.000 Y127.839 E4.34037
G1 X87.399 Y127.813 E4.37211
G1 X86.800 Y127.734 E4.40401
G1 X85.943 Y127.523 E4.45056
G1 X85.383 Y127.319 E4.48203
G1 X84.838 Y127.064 E4.51377
G1 X84.314 Y126.762 E4.54568
G1 X83.604 Y126.239 E4.59222
G1 X83.164 Y125.836 E4.62371
G1 X82.761 Y125.396 E4.65519
G1 X82.238 Y124.686 E4.70174
G1 X81.936 Y124.162 E4.73364
G1 X81.681 Y123.617 E4.76538
G1 X81.477 Y123.057 E4.79685
G1 X81.266 Y122.200 E4.84340
G1 X81.187 Y121.601 E4.87530
G1 X81.161 Y121.000 E4.90704
G1 X81.187 Y120.391 E4.93918
G1 X81.322 Y119.524 E4.98547
G1 X81.477 Y118.943 E5.01722
G1 X81.681 Y118.383 E5.04869
G1 X81.939 Y117.831 E5.08084
G1 X82.395 Y117.081 E5.12714
G1 X82.761 Y116.604 E5.15888
G1 X83.164 Y116.164 E5.19035
G1 X83.604 Y115.761 E5.22182
G1 X84.081 Y115.395 E5.25356
G1 X84.831 Y114.939 E5.29986
G1 X85.394 Y114.676 E5.33268
G1 X86.230 Y114.394 E5.37922
G1 X86.812 Y114.265 E5.41070
G1 X87.404 Y114.187 E5.44217
G1 X88.005 Y114.161 E5.47392
G1 X88.609 Y114.187 E5.50582
G1 X89.480 Y114.323 E5.55236 F1200.000
G1 X90.057 Y114.477 E5.58385
G1 X90.617 Y114.681 E5.61532
G1 X91.162 Y114.936 E5.64706
G1 X91.686 Y115.238 E5.67896
G1 X92.396 Y115.761 E5.72551
G1 X92.836 Y116.164 E5.75699
G1 X93.239 Y116.604 E5.78848
G1 X93.610 Y117.087 E5.82063
G1 X94.064 Y117.838 E5.86692
G1 X94.319 Y118.383 E5.89867
G1 X94.523 Y118.943 E5.93014
G1 X94.734 Y119.800 E5.97668
G1 X94.813 Y120.399 E6.00858
G1 X94.839 Y121.000 E6.04033
G1 X94.783 Y121.880 E6.08686
G1 X94.677 Y122.480 E6.11901
G1 X94.523 Y123.057 E6.15049
G1 X94.319 Y123.617 E6.18198
G1 X94.066 Y124.158 E6.21346
G1 X93.764 Y124.682 E6.24537
G1 X93.610 Y124.913 E6.26004
G1 X93.239 Y125.396 E6.29217
G1 X92.836 Y125.836 E6.32366
G1 X92.424 Y126.214 E6.35318
G1 X92.697 Y126.668 F3600.000
G1 X92.218 Y127.036 E6.38503 F1200.000
G1 X91.962 Y127.207 E6.40125
G1 X91.400 Y127.531 E6.43551
G1 X90.818 Y127.803 E6.46941
G1 X90.214 Y128.023 E6.50331
G1 X89.594 Y128.189 E6.53720
G1 X88.954 Y128.302 E6.57147
G1 X88.649 Y128.335 E6.58769
G1 X88.000 Y128.363 E6.62194
G1 X87.353 Y128.335 E6.65610
G1 X86.715 Y128.251 E6.69010
G1 X86.413 Y128.191 E6.70633
G1 X85.786 Y128.023 E6.74059
G1 X85.182 Y127.803 E6.77448
G1 X84.596 Y127.529 E6.80864
G1 X84.038 Y127.207 E6.84264
G1 X83.782 Y127.036 E6.85886
G1 X83.267 Y126.641 E6.89313
G1 X82.793 Y126.207 E6.92702
G1 X82.359 Y125.733 E6.96092
G1 X81.964 Y125.218 E6.99518
G1 X81.793 Y124.962 E7.01141
G1 X81.471 Y124.404 E7.04541
G1 X81.197 Y123.818 E7.07957
G1 X80.977 Y123.214 E7.11346
G1 X80.809 Y122.587 E7.14772
G1 X80.749 Y122.285 E7.16394
G1 X80.665 Y121.647 E7.19795
G1 X80.637 Y121.000 E7.23211
G1 X80.665 Y120.351 E7.26636
G1 X80.698 Y120.046 E7.28259
G1 X80.810 Y119.411 E7.31659
G1 X80.978 Y118.786 E7.35075
G1 X81.197 Y118.182 E7.38464
G1 X81.472 Y117.594 E7.41890
G1 X81.619 Y117.324 E7.43512
G1 X81.966 Y116.781 E7.46913
G1 X82.359 Y116.267 E7.50329
G1 X82.793 Y115.793 E7.53717
G1 X83.267 Y115.359 E7.57106
G1 X83.781 Y114.966 E7.60522
G1 X84.324 Y114.619 E7.63923
G1 X84.594 Y114.472 E7.65545
G1 X85.188 Y114.194 E7.69008
G1 X85.475 Y114.083 E7.70630
G1 X86.094 Y113.888 E7.74056
G1 X86.721 Y113.749 E7.77446
G1 X87.358 Y113.665 E7.80835
G1 X88.005 Y113.637 E7.84251
G1 X88.649 Y113.665 E7.87651
G1 X88.954 Y113.698 E7.89273 F1200.000
G1 X89.594 Y113.811 E7.92700
G1 X90.214 Y113.977 E7.96089
G1 X90.818 Y114.197 E7.99478
G1 X91.404 Y114.471 E8.02894
G1 X91.962 Y114.793 E8.06294
G1 X92.218 Y114.964 E8.07917
G1 X92.733 Y115.359 E8.11343
G1 X93.207 Y115.793 E8.14733
G1 X93.641 Y116.267 E8.18122
G1 X94.036 Y116.782 E8.21549
G1 X94.207 Y117.038 E8.23171
G1 X94.529 Y117.596 E8.26571
G1 X94.803 Y118.182 E8.29987
G1 X95.023 Y118.786 E8.33376
G1 X95.191 Y119.413 E8.36802
G1 X95.251 Y119.715 E8.38425
G1 X95.335 Y120.353 E8.41825
G1 X95.363 Y121.000 E8.45241
G1 X95.335 Y121.649 E8.48666
G1 X95.302 Y121.954 E8.50288
G1 X95.189 Y122.594 E8.53715
G1 X95.023 Y123.214 E8.57104
G1 X94.803 Y123.818 E8.60494
G1 X94.531 Y124.400 E8.63884
G1 X94.209 Y124.958 E8.67285
G1 X94.036 Y125.218 E8.68933
G1 X93.641 Y125.733 E8.72358
G1 X93.207 Y126.207 E8.75748
G1 X92.744 Y126.631 E8.79062
G1 X92.962 Y127.014 F3600.000
G1 X92.472 Y127.391 E8.81232 F1200.000
G1 X92.193 Y127.577 E8.82412
G1 X91.602 Y127.919 E8.84809
G1 X90.985 Y128.206 E8.87199
G1 X90.345 Y128.439 E8.89589
G1 X89.688 Y128.615 E8.91979
G1 X89.016 Y128.733 E8.94376
